; generated by PrusaSlicer 2.5.1+MacOS-arm64 on 2023-09-28 at 22:51:23 UTC

; 

; external perimeters extrusion width = 0.45mm
; perimeters extrusion width = 0.45mm
; infill extrusion width = 0.45mm
; solid infill extrusion width = 0.45mm
; top infill extrusion width = 0.40mm
; first layer extrusion width = 0.42mm

M107 ; disable fan
;TYPE:Custom
G90 ; use absolute coordinates
M83 ; extruder relative mode
M104 S0 ; set extruder temp
M140 S0 ; set bed temp
M190 S0 ; wait for bed temp
M109 S0 ; wait for extruder temp
G28 ; home all
G1 Z2 F240
G1 X2 Y10 F3000
G1 Z0.28 F240
G92 E0
G1 Y190 E15 F1500 ; intro line
G1 X2.3 F5000
G92 E0
G1 Y10 E15 F1200 ; intro line
G92 E0
G21 ; set units to millimeters
G90 ; use absolute coordinates
M83 ; use relative distances for extrusion
; Filament gcode
M107 ; disable fan
;LAYER_CHANGE
;Z:0.3
;HEIGHT:0.3
;BEFORE_LAYER_CHANGE
G92 E0
;0.3


G1 E-5 F3600 ; retract
G1 Z4 F7800 ; lift Z
;AFTER_LAYER_CHANGE
;0.3
G1 X112.089 Y119.086 ; move to first perimeter point
G1 Z.3 ; restore layer Z
G1 E5 F2400 ;  ; unretract
;TYPE:External perimeter
;WIDTH:0.450661
G1 F1800
G1 X111.169 Y118.342 E.05701 ; perimeter
;WIDTH:0.432639
G1 X110.539 Y117.885 E.03576 ; perimeter
;WIDTH:0.480377
G1 X110.483 Y117.872 E.00299 ; perimeter
;WIDTH:0.528115
G1 X110.427 Y117.859 E.00333 ; perimeter
;WIDTH:0.575854
G1 X110.37 Y117.846 E.00368 ; perimeter
;WIDTH:0.623592
G1 X110.314 Y117.833 E.00402 ; perimeter
;WIDTH:0.67133
G1 X110.258 Y117.82 E.00436 ; perimeter
;WIDTH:0.719069
G1 X110.202 Y117.807 E.0047 ; perimeter
G1 X109.869 Y117.524 E.03566 ; perimeter
;WIDTH:0.676601
G1 X109.536 Y117.242 E.03334 ; perimeter
;WIDTH:0.634133
G1 X109.203 Y116.96 E.03103 ; perimeter
;WIDTH:0.591665
G1 X108.87 Y116.677 E.02872 ; perimeter
;WIDTH:0.586606
G1 X108.524 Y116.417 E.02819 ; perimeter
;WIDTH:0.624014
G1 X108.178 Y116.156 E.03021 ; perimeter
G1 X107.532 Y116.331 F7800 ; move to first perimeter point
;WIDTH:0.404381
G1 F1800
G1 X107.917 Y116.724 E.02332 ; perimeter
;WIDTH:0.446658
G1 X107.949 Y116.847 E.00606 ; perimeter
;WIDTH:0.488935
G1 X107.98 Y116.97 E.00673 ; perimeter
G1 X108.371 Y117.278 E.02636 ; perimeter
;WIDTH:0.446658
G1 X109.162 Y117.901 E.048 ; perimeter
;WIDTH:0.488939
G1 X109.562 Y118.216 E.02695 ; perimeter
G1 X109.689 Y118.217 E.00673 ; perimeter
;WIDTH:0.44666
G1 X109.816 Y118.219 E.00606 ; perimeter
;WIDTH:0.404381
G1 X110.02 Y118.261 E.00883 ; perimeter
;WIDTH:0.442609
G1 X110.057 Y118.254 E.00177 ; perimeter
;WIDTH:0.480837
G1 X110.094 Y118.247 E.00195 ; perimeter
;WIDTH:0.519065
G1 X110.13 Y118.24 E.00212 ; perimeter
G1 X110.2 Y118.305 E.0054 ; perimeter
;WIDTH:0.478107
G1 X110.658 Y118.651 E.02963 ; perimeter
;WIDTH:0.441244
G1 X111.117 Y118.996 E.02699 ; perimeter
;WIDTH:0.404381
G1 X111.13 Y119.006 E.0007 ; perimeter
G1 X112.204 Y120.011 F7800 ; move to first perimeter point
G1 F1800
G1 X112.677 Y120.454 E.02747 ; perimeter
;WIDTH:0.443808
G1 X112.714 Y120.573 E.00593 ; perimeter
;WIDTH:0.483235
G1 X112.75 Y120.693 E.00655 ; perimeter
G1 X113.116 Y120.951 E.02338 ; perimeter
;WIDTH:0.443808
G1 X113.858 Y121.473 E.04292 ; perimeter
;WIDTH:0.483273
G1 X114.234 Y121.737 E.02401 ; perimeter
G1 X114.359 Y121.731 E.00655 ; perimeter
;WIDTH:0.443827
G1 X114.484 Y121.725 E.00593 ; perimeter
;WIDTH:0.404381
G1 X114.649 Y121.809 E.00783 ; perimeter
;WIDTH:0.44982
G1 X114.771 Y121.798 E.0059 ; perimeter
;WIDTH:0.495259
G1 X114.893 Y121.788 E.00659 ; perimeter
G1 X115.364 Y122.103 E.03041 ; perimeter
;WIDTH:0.44982
G1 X115.834 Y122.417 E.0272 ; perimeter
;WIDTH:0.436665
G1 X116.579 Y122.916 E.04162 ; perimeter
;WIDTH:0.475315
G1 X116.629 Y122.934 E.00274 ; perimeter
;WIDTH:0.513965
G1 X116.68 Y122.951 E.003 ; perimeter
;WIDTH:0.552615
G1 X116.73 Y122.969 E.00326 ; perimeter
;WIDTH:0.591265
G1 X116.781 Y122.987 E.00352 ; perimeter
G1 X116.786 Y123.028 E.00278 ; perimeter
;WIDTH:0.544544
G1 X116.792 Y123.07 E.00253 ; perimeter
;WIDTH:0.497823
G1 X116.798 Y123.112 E.00228 ; perimeter
;WIDTH:0.451102
G1 X116.804 Y123.154 E.00204 ; perimeter
;WIDTH:0.404381
G1 X116.875 Y123.302 E.00697 ; perimeter
G1 X117.426 Y123.771 E.0307 ; perimeter
;WIDTH:0.440973
G1 X117.468 Y123.887 E.0058 ; perimeter
;WIDTH:0.477565
G1 X117.51 Y124.004 E.00637 ; perimeter
G1 X117.853 Y124.216 E.02077 ; perimeter
;WIDTH:0.440973
G1 X118.549 Y124.648 E.03846 ; perimeter
;WIDTH:0.477513
G1 X118.902 Y124.867 E.02143 ; perimeter
G1 X119.025 Y124.853 E.00637 ; perimeter
;WIDTH:0.440947
G1 X119.148 Y124.839 E.0058 ; perimeter
;WIDTH:0.404381
G1 X119.418 Y124.955 E.01249 ; perimeter
;WIDTH:0.447438
G1 X119.538 Y124.936 E.00579 ; perimeter
;WIDTH:0.490495
G1 X119.658 Y124.918 E.00644 ; perimeter
G1 X120.1 Y125.177 E.02725 ; perimeter
;WIDTH:0.447438
G1 X120.543 Y125.436 E.0245 ; perimeter
;WIDTH:0.43477
G1 X120.951 Y125.675 E.02183 ; perimeter
;WIDTH:0.465159
G1 X121.358 Y125.914 E.02362 ; perimeter
;WIDTH:0.508645
G1 X121.444 Y125.952 E.00516 ; perimeter
G1 X121.477 Y126.035 E.00496 ; perimeter
;WIDTH:0.47389
G1 X121.51 Y126.118 E.00457 ; perimeter
;WIDTH:0.439135
G1 X121.543 Y126.201 E.00419 ; perimeter
;WIDTH:0.404381
G1 X122.163 Y126.677 E.03315 ; perimeter
;WIDTH:0.438109
G1 X122.21 Y126.789 E.00568 ; perimeter
;WIDTH:0.471837
G1 X122.258 Y126.901 E.00619 ; perimeter
G1 X122.579 Y127.073 E.01851 ; perimeter
;WIDTH:0.438109
G1 X123.233 Y127.425 E.0346 ; perimeter
;WIDTH:0.471813
G1 X123.566 Y127.603 E.01921 ; perimeter
G1 X123.686 Y127.581 E.00619 ; perimeter
;WIDTH:0.438097
G1 X123.806 Y127.559 E.00567 ; perimeter
;WIDTH:0.404381
G1 X124.176 Y127.686 E.01662 ; perimeter
;WIDTH:0.444983
G1 X124.293 Y127.66 E.00568 ; perimeter
;WIDTH:0.485585
G1 X124.41 Y127.633 E.00628 ; perimeter
G1 X124.355 Y127.52 E.00662 ; perimeter
;WIDTH:0.444983
G1 X124.301 Y127.406 E.00599 ; perimeter
;WIDTH:0.404381
G1 X124.24 Y127.364 E.00313 ; perimeter
;WIDTH:0.444983
G1 X124.325 Y127.499 E.00755 ; perimeter
;WIDTH:0.485585
G1 X124.41 Y127.633 E.00836 ; perimeter
G1 X124.827 Y127.843 E.02452 ; perimeter
;WIDTH:0.444983
G1 X125.672 Y128.267 E.04486 ; perimeter
;WIDTH:0.485585
G1 X126.099 Y128.481 E.02513 ; perimeter
G1 X126.154 Y128.595 E.00662 ; perimeter
;WIDTH:0.444983
G1 X126.208 Y128.709 E.00599 ; perimeter
;WIDTH:0.404381
G1 X126.888 Y129.173 E.03491 ; perimeter
;WIDTH:0.435325
G1 X126.941 Y129.28 E.00555 ; perimeter
;WIDTH:0.466269
G1 X126.995 Y129.387 E.00602 ; perimeter
G1 X127.297 Y129.524 E.01659 ; perimeter
;WIDTH:0.435325
G1 X127.913 Y129.804 E.03132 ; perimeter
;WIDTH:0.466249
G1 X128.228 Y129.947 E.01734 ; perimeter
G1 X128.344 Y129.917 E.00601 ; perimeter
;WIDTH:0.435315
G1 X128.46 Y129.886 E.00555 ; perimeter
;WIDTH:0.404381
G1 X128.924 Y130.005 E.02028 ; perimeter
;WIDTH:0.442644
G1 X129.037 Y129.971 E.00557 ; perimeter
;WIDTH:0.480907
G1 X129.15 Y129.936 E.00614 ; perimeter
G1 X129.089 Y129.827 E.00647 ; perimeter
;WIDTH:0.442644
G1 X129.028 Y129.719 E.00588 ; perimeter
;WIDTH:0.404381
G1 X128.892 Y129.637 E.00673 ; perimeter
G1 X129.15 Y129.936 F7800 ; move to first perimeter point
;WIDTH:0.480907
G1 F1800
G1 X129.544 Y130.101 E.02223 ; perimeter
;WIDTH:0.442644
G1 X130.345 Y130.436 E.04095 ; perimeter
;WIDTH:0.480869
G1 X130.751 Y130.606 E.02286 ; perimeter
G1 X130.812 Y130.714 E.00647 ; perimeter
;WIDTH:0.442625
G1 X130.873 Y130.823 E.00588 ; perimeter
;WIDTH:0.404381
G1 X131.601 Y131.259 E.03596 ; perimeter
;WIDTH:0.432732
G1 X131.66 Y131.361 E.00544 ; perimeter
;WIDTH:0.461083
G1 X131.72 Y131.463 E.00586 ; perimeter
G1 X132.004 Y131.569 E.01501 ; perimeter
;WIDTH:0.432732
G1 X132.588 Y131.785 E.02861 ; perimeter
;WIDTH:0.461093
G1 X132.888 Y131.896 E.0158 ; perimeter
G1 X133 Y131.857 E.00586 ; perimeter
;WIDTH:0.432737
G1 X133.111 Y131.819 E.00544 ; perimeter
;WIDTH:0.404381
G1 X133.644 Y131.911 E.0229 ; perimeter
;WIDTH:0.440477
G1 X133.76 Y131.869 E.00578 ; perimeter
;WIDTH:0.476573
G1 X133.875 Y131.827 E.00634 ; perimeter
G1 X133.808 Y131.724 E.00634 ; perimeter
;WIDTH:0.440477
G1 X133.741 Y131.62 E.00578 ; perimeter
;WIDTH:0.404381
G1 X133.544 Y131.519 E.00937 ; perimeter
G1 X133.669 Y131.092 F7800 ; move to first perimeter point
;WIDTH:0.503677
G1 F1800
G1 X134.157 Y131.238 E.02794 ; perimeter
;WIDTH:0.463219
G1 X134.645 Y131.385 E.02536 ; perimeter
;WIDTH:0.422761
G1 X134.671 Y131.394 E.00122 ; perimeter
;WIDTH:0.467747
G1 X135.238 Y131.612 E.03057 ; perimeter
;WIDTH:0.512791
G1 X135.82 Y131.844 E.03505 ; perimeter
G1 X136.645 Y131.986 F7800 ; move to first perimeter point
;WIDTH:0.404381
G1 F1800
G1 X137.436 Y132.223 E.03504 ; perimeter
G1 X136.645 Y131.986 F7800 ; move to first perimeter point
G1 F1800
G1 X136.504 Y132.039 E.0064 ; perimeter
;WIDTH:0.402246
G1 X136.425 Y132.161 E.00613 ; perimeter
;WIDTH:0.400152
G1 X136.487 Y132.316 E.00696 ; perimeter
G1 X136.247 Y132.274 E.01021 ; perimeter
;WIDTH:0.44067
G1 X136.145 Y132.236 E.00508 ; perimeter
;WIDTH:0.481188
G1 X136.044 Y132.198 E.00563 ; perimeter
G1 X135.86 Y132.229 E.0097 ; perimeter
;WIDTH:0.442784
G1 X135.676 Y132.26 E.0088 ; perimeter
;WIDTH:0.433245
G1 X135.801 Y132.213 E.00618 ; perimeter
;WIDTH:0.481188
G1 X135.925 Y132.048 E.01067 ; perimeter
;WIDTH:0.502405
G1 X135.82 Y131.844 E.01255 ; perimeter
G1 X136.115 Y131.921 E.01663 ; perimeter
;WIDTH:0.481188
G1 X136.38 Y131.953 E.01388 ; perimeter
;WIDTH:0.442784
G1 X136.585 Y131.978 E.00977 ; perimeter
G1 X138.29 Y132.569 F7800 ; move to first perimeter point
;WIDTH:0.514783
G1 F1800
G1 X138.31 Y132.573 E.00116 ; perimeter
;WIDTH:0.512145
G1 X138.815 Y132.681 E.02881 ; perimeter
;WIDTH:0.469885
G1 X139.319 Y132.79 E.02609 ; perimeter
;WIDTH:0.427625
G1 X139.347 Y132.797 E.00132 ; perimeter
;WIDTH:0.474539
G1 X139.921 Y132.97 E.03066 ; perimeter
;WIDTH:0.521505
G1 X140.495 Y133.142 E.03417 ; perimeter
G1 X140.399 Y133.583 F7800 ; move to first perimeter point
;WIDTH:0.404381
G1 F1800
G1 X140.26 Y133.572 E.00588 ; perimeter
;WIDTH:0.438633
G1 X140.157 Y133.623 E.0054 ; perimeter
;WIDTH:0.472885
G1 X140.053 Y133.674 E.00589 ; perimeter
G1 X140.127 Y133.771 E.00622 ; perimeter
;WIDTH:0.438633
G1 X140.201 Y133.869 E.0057 ; perimeter
;WIDTH:0.404381
G1 X140.987 Y134.206 E.03625 ; perimeter
;WIDTH:0.452765
G1 X141.13 Y134.387 E.01121 ; perimeter
G1 X141.649 Y134.493 E.02563 ; perimeter
G1 X142.201 Y134.607 E.02734 ; perimeter
G1 X142.405 Y134.497 E.01121 ; perimeter
;WIDTH:0.404381
G1 X143.072 Y134.497 E.0283 ; perimeter
;WIDTH:0.437198
G1 X143.178 Y134.438 E.00564 ; perimeter
;WIDTH:0.470015
G1 X143.284 Y134.378 E.00613 ; perimeter
G1 X143.203 Y134.288 E.00613 ; perimeter
;WIDTH:0.437198
G1 X143.122 Y134.197 E.00564 ; perimeter
;WIDTH:0.404381
G1 X142.855 Y134.105 E.01201 ; perimeter
G1 X142.911 Y133.655 F7800 ; move to first perimeter point
;WIDTH:0.523847
G1 F1800
G1 X142.931 Y133.658 E.00117 ; perimeter
;WIDTH:0.521209
G1 X143.458 Y133.726 E.03025 ; perimeter
;WIDTH:0.476316
G1 X143.984 Y133.794 E.02728 ; perimeter
;WIDTH:0.431423
G1 X144.015 Y133.799 E.0014 ; perimeter
;WIDTH:0.479652
G1 X144.591 Y133.922 E.03052 ; perimeter
;WIDTH:0.527919
G1 X145.167 Y134.046 E.03407 ; perimeter
;WIDTH:0.57658
G1 X145.234 Y134.083 E.00488 ; perimeter
;WIDTH:0.625241
G1 X145.301 Y134.119 E.00534 ; perimeter
;WIDTH:0.673902
G1 X145.368 Y134.155 E.0058 ; perimeter
;WIDTH:0.722563
G1 X145.435 Y134.191 E.00627 ; perimeter
;WIDTH:0.771224
G1 X145.503 Y134.228 E.00673 ; perimeter
G1 X145.876 Y134.038 F7800 ; move to first perimeter point
;WIDTH:0.404381
G1 F1800
G1 X146.821 Y134.16 E.04044 ; perimeter
G1 X147.532 Y134.349 F7800 ; move to first perimeter point
;WIDTH:0.530481
G1 F1800
G1 X147.553 Y134.349 E.00118 ; perimeter
;WIDTH:0.527833
G1 X148.098 Y134.373 E.03152 ; perimeter
;WIDTH:0.480894
G1 X148.642 Y134.396 E.02833 ; perimeter
;WIDTH:0.433955
G1 X148.674 Y134.399 E.00145 ; perimeter
;WIDTH:0.48276
G1 X149.247 Y134.473 E.03014 ; perimeter
;WIDTH:0.531591
G1 X149.819 Y134.547 E.03365 ; perimeter
;WIDTH:0.581004
G1 X149.883 Y134.577 E.00457 ; perimeter
;WIDTH:0.630418
G1 X149.948 Y134.607 E.00501 ; perimeter
;WIDTH:0.679831
G1 X150.012 Y134.638 E.00545 ; perimeter
;WIDTH:0.729245
G1 X150.076 Y134.668 E.00588 ; perimeter
;WIDTH:0.778659
G1 X150.14 Y134.698 E.00632 ; perimeter
G1 X150.499 Y134.476 F7800 ; move to first perimeter point
;WIDTH:0.404381
G1 F1800
G1 X151.474 Y134.518 E.04139 ; perimeter
G1 X151.826 Y134.769 F7800 ; move to first perimeter point
;WIDTH:0.776195
G1 F1800
G1 X151.896 Y134.744 E.00659 ; perimeter
;WIDTH:0.727273
G1 X151.966 Y134.72 E.00613 ; perimeter
;WIDTH:0.678351
G1 X152.036 Y134.695 E.00568 ; perimeter
;WIDTH:0.62943
G1 X152.106 Y134.671 E.00523 ; perimeter
;WIDTH:0.580508
G1 X152.176 Y134.646 E.00478 ; perimeter
;WIDTH:0.531587
G1 X152.735 Y134.622 E.03258 ; perimeter
;WIDTH:0.483316
G1 X153.293 Y134.598 E.02921 ; perimeter
;WIDTH:0.435045
G1 X153.325 Y134.598 E.00148 ; perimeter
;WIDTH:0.483639
G1 X153.889 Y134.622 E.02953 ; perimeter
;WIDTH:0.532239
G1 X154.453 Y134.647 E.03295 ; perimeter
;WIDTH:0.581487
G1 X154.521 Y134.671 E.00464 ; perimeter
;WIDTH:0.630735
G1 X154.588 Y134.696 E.00508 ; perimeter
;WIDTH:0.679983
G1 X154.656 Y134.72 E.00552 ; perimeter
;WIDTH:0.729231
G1 X154.724 Y134.745 E.00597 ; perimeter
;WIDTH:0.778479
G1 X154.791 Y134.77 E.00641 ; perimeter
G1 X155.13 Y134.519 F7800 ; move to first perimeter point
;WIDTH:0.404381
G1 F1800
G1 X156.109 Y134.476 E.04158 ; perimeter
G1 X156.483 Y134.698 F7800 ; move to first perimeter point
;WIDTH:0.779519
G1 F1800
G1 X156.547 Y134.667 E.0063 ; perimeter
;WIDTH:0.730062
G1 X156.61 Y134.637 E.00586 ; perimeter
;WIDTH:0.680606
G1 X156.674 Y134.607 E.00543 ; perimeter
;WIDTH:0.631149
G1 X156.738 Y134.576 E.00499 ; perimeter
;WIDTH:0.581693
G1 X156.802 Y134.546 E.00455 ; perimeter
;WIDTH:0.532237
G1 X157.369 Y134.472 E.0334 ; perimeter
;WIDTH:0.483404
G1 X157.937 Y134.399 E.02991 ; perimeter
;WIDTH:0.434587
G1 X157.968 Y134.396 E.00147 ; perimeter
;WIDTH:0.482175
G1 X158.519 Y134.372 E.02872 ; perimeter
;WIDTH:0.529763
G1 X159.07 Y134.348 E.03199 ; perimeter
G1 X159.768 Y134.161 F7800 ; move to first perimeter point
;WIDTH:0.404381
G1 F1800
G1 X160.723 Y134.037 E.04084 ; perimeter
G1 X161.112 Y134.226 F7800 ; move to first perimeter point
;WIDTH:0.775217
G1 F1800
G1 X161.176 Y134.19 E.0065 ; perimeter
;WIDTH:0.726133
G1 X161.24 Y134.154 E.00605 ; perimeter
;WIDTH:0.677049
G1 X161.304 Y134.118 E.0056 ; perimeter
;WIDTH:0.627966
G1 X161.368 Y134.082 E.00515 ; perimeter
;WIDTH:0.578882
G1 X161.432 Y134.046 E.0047 ; perimeter
;WIDTH:0.529799
G1 X162.003 Y133.922 E.03393 ; perimeter
;WIDTH:0.481206
G1 X162.574 Y133.798 E.03039 ; perimeter
;WIDTH:0.432647
G1 X162.605 Y133.793 E.00142 ; perimeter
;WIDTH:0.478472
G1 X163.137 Y133.724 E.02774 ; perimeter
;WIDTH:0.524297
G1 X163.67 Y133.655 E.03081 ; perimeter
G1 X164.414 Y133.4 F7800 ; move to first perimeter point
;WIDTH:0.404381
G1 F1800
G1 X165.316 Y133.204 E.03914 ; perimeter
G1 X166.045 Y133.149 F7800 ; move to first perimeter point
;WIDTH:0.527219
G1 F1800
G1 X166.066 Y133.142 E.00125 ; perimeter
;WIDTH:0.524473
G1 X166.635 Y132.969 E.03416 ; perimeter
;WIDTH:0.476887
G1 X167.205 Y132.796 E.03063 ; perimeter
;WIDTH:0.429347
G1 X167.234 Y132.789 E.00135 ; perimeter
;WIDTH:0.472769
G1 X167.744 Y132.678 E.0266 ; perimeter
;WIDTH:0.516191
G1 X168.254 Y132.568 E.02943 ; perimeter
G1 X168.381 Y132.999 F7800 ; move to first perimeter point
;WIDTH:0.404381
G1 F1800
G1 X168.105 Y133.121 E.01281 ; perimeter
;WIDTH:0.437985
G1 X168.038 Y133.215 E.00537 ; perimeter
;WIDTH:0.471589
G1 X167.971 Y133.309 E.00585 ; perimeter
G1 X168.082 Y133.359 E.00618 ; perimeter
;WIDTH:0.437985
G1 X168.193 Y133.409 E.00567 ; perimeter
;WIDTH:0.404381
G1 X168.824 Y133.355 E.02686 ; perimeter
;WIDTH:0.429618
G1 X168.93 Y133.401 E.0053 ; perimeter
;WIDTH:0.454855
G1 X169.037 Y133.448 E.00567 ; perimeter
G1 X169.3 Y133.371 E.01333 ; perimeter
;WIDTH:0.429618
G1 X169.842 Y133.213 E.02572 ; perimeter
;WIDTH:0.454845
G1 X170.121 Y133.131 E.01417 ; perimeter
G1 X170.186 Y133.034 E.00567 ; perimeter
;WIDTH:0.429613
G1 X170.25 Y132.938 E.0053 ; perimeter
;WIDTH:0.404381
G1 X171.011 Y132.54 E.03639 ; perimeter
;WIDTH:0.439668
