; generated by PrusaSlicer 2.5.1+MacOS-arm64 on 2023-09-29 at 12:01:48 UTC

; 

; external perimeters extrusion width = 0.45mm
; perimeters extrusion width = 0.45mm
; infill extrusion width = 0.45mm
; solid infill extrusion width = 0.45mm
; top infill extrusion width = 0.40mm
; first layer extrusion width = 0.42mm

M107 ; disable fan
;TYPE:Custom
G90 ; use absolute coordinates
M83 ; extruder relative mode
M104 S0 ; set extruder temp
M140 S0 ; set bed temp
M190 S0 ; wait for bed temp
M109 S0 ; wait for extruder temp
G28 ; home all
G1 Z2 F240
G1 X2 Y10 F3000
G1 Z0.28 F240
G92 E0
G1 Y190 E15 F1500 ; intro line
G1 X2.3 F5000
G92 E0
G1 Y10 E15 F1200 ; intro line
G92 E0
G21 ; set units to millimeters
G90 ; use absolute coordinates
M83 ; use relative distances for extrusion
; Filament gcode
M107 ; disable fan
;LAYER_CHANGE
;Z:0.3
;HEIGHT:0.3
;BEFORE_LAYER_CHANGE
G92 E0
;0.3


G1 E-5 F3600 ; retract
G1 Z4 F7800 ; lift Z
;AFTER_LAYER_CHANGE
;0.3
G1 X159.225 Y117.559 ; move to first perimeter point
G1 Z.3 ; restore layer Z
G1 E5 F2400 ;  ; unretract
;TYPE:Perimeter
;WIDTH:0.42
G1 F1800
G1 X159.319 Y117.562 E.00418 ; perimeter
G1 X159.746 Y117.42 E.01997 ; perimeter
G1 X159.875 Y117.315 E.00735 ; perimeter
G1 X159.97 Y117.318 E.00425 ; perimeter
G1 X160.423 Y117.17 E.02114 ; perimeter
G1 X160.545 Y117.071 E.00697 ; perimeter
G1 X160.638 Y117.075 E.00413 ; perimeter
G1 X161.104 Y116.933 E.0216 ; perimeter
G1 X161.237 Y116.828 E.0075 ; perimeter
G1 X161.731 Y116.354 E.0304 ; perimeter
G1 X161.919 Y116.36 E.00834 ; perimeter
G1 X162.21 Y116.294 E.0132 ; perimeter
G1 X162.549 Y116.064 E.01821 ; perimeter
G1 X162.674 Y116.1 E.00575 ; perimeter
G1 X163.154 Y115.962 E.02218 ; perimeter
G1 X163.373 Y115.794 E.01223 ; perimeter
G1 X163.466 Y115.838 E.00457 ; perimeter
;WIDTH:0.454746
G1 X163.737 Y115.784 E.01346 ; perimeter
;WIDTH:0.489493
G1 X164.009 Y115.73 E.01465 ; perimeter
;WIDTH:0.494339
G1 X164.221 Y115.575 E.01412 ; perimeter
G1 X164.278 Y115.607 E.00349 ; perimeter
G1 X164.466 Y115.543 E.01065 ; perimeter
;WIDTH:0.452604
G1 X164.654 Y115.48 E.00962 ; perimeter
;WIDTH:0.410869
G1 X164.842 Y115.416 E.00858 ; perimeter
;WIDTH:0.375319
G1 X165.081 Y115.246 E.01139 ; perimeter
G1 X165.125 Y115.274 E.00202 ; perimeter
;WIDTH:0.418615
G1 X165.752 Y115.171 E.02807 ; perimeter
G1 X165.005 Y115.674 E.0398 ; perimeter
;WIDTH:0.409254
G1 X164.749 Y115.812 E.01253 ; perimeter
;WIDTH:0.449373
G1 X164.492 Y115.951 E.01399 ; perimeter
;WIDTH:0.489493
G1 X164.236 Y116.089 E.01545 ; perimeter
G1 X163.939 Y116.298 E.01927 ; perimeter
;WIDTH:0.454746
G1 X163.641 Y116.507 E.0177 ; perimeter
;WIDTH:0.42
G1 X161.666 Y117.76 E.10374 ; perimeter
G1 X157.853 Y120.484 E.20784 ; perimeter
G1 X154.655 Y123.175 E.18539 ; perimeter
G1 X152.172 Y125.833 E.16133 ; perimeter
G1 X150.741 Y128.076 E.11803 ; perimeter
G1 X149.387 Y125.851 E.11555 ; perimeter
G1 X149.289 Y125.719 E.00727 ; perimeter
G1 X146.949 Y123.121 E.15507 ; perimeter
G1 X143.925 Y120.458 E.17872 ; perimeter
G1 X140.309 Y117.747 E.20049 ; perimeter
;WIDTH:0.467679
G1 X140.181 Y117.633 E.0086 ; perimeter
;WIDTH:0.515358
G1 X140.053 Y117.519 E.00962 ; perimeter
;WIDTH:0.563038
G1 X139.926 Y117.405 E.01063 ; perimeter
G1 X139.584 Y117.178 E.02551 ; perimeter
;WIDTH:0.609746
G1 X139.133 Y116.849 E.03799 ; perimeter
G1 X138.892 Y116.71 E.01895 ; perimeter
;WIDTH:0.573328
G1 X138.65 Y116.571 E.01769 ; perimeter
;WIDTH:0.53691
G1 X138.409 Y116.432 E.01642 ; perimeter
;WIDTH:0.500492
G1 X138.157 Y116.288 E.0158 ; perimeter
;WIDTH:0.461625
G1 X137.905 Y116.143 E.0144 ; perimeter
;WIDTH:0.422758
G1 X137.652 Y115.999 E.01299 ; perimeter
;WIDTH:0.419704
G1 X137.442 Y115.837 E.01176 ; perimeter
;WIDTH:0.455517
G1 X137.232 Y115.675 E.01294 ; perimeter
G1 X137.475 Y115.691 E.0119 ; perimeter
;WIDTH:0.419704
G1 X137.719 Y115.707 E.01081 ; perimeter
;WIDTH:0.383892
G1 X137.764 Y115.681 E.00211 ; perimeter
;WIDTH:0.386797
G1 X138.092 Y115.905 E.01598 ; perimeter
;WIDTH:0.424695
G1 X138.233 Y115.948 E.00659 ; perimeter
;WIDTH:0.462593
G1 X138.373 Y115.991 E.00728 ; perimeter
;WIDTH:0.500492
G1 X138.513 Y116.033 E.00797 ; perimeter
G1 X138.571 Y116.003 E.00357 ; perimeter
G1 X138.745 Y116.138 E.012 ; perimeter
;WIDTH:0.534909
G1 X138.923 Y116.209 E.01123 ; perimeter
;WIDTH:0.572327
G1 X139.101 Y116.279 E.01212 ; perimeter
;WIDTH:0.609746
G1 X139.279 Y116.35 E.01301 ; perimeter
G1 X139.361 Y116.331 E.00575 ; perimeter
G1 X139.496 Y116.446 E.01201 ; perimeter
;WIDTH:0.609263
G1 X139.893 Y116.79 E.0357 ; perimeter
;WIDTH:0.563038
G1 X140.164 Y116.97 E.02025 ; perimeter
G1 X140.321 Y116.971 E.00976 ; perimeter
;WIDTH:0.515358
G1 X140.478 Y116.973 E.00883 ; perimeter
;WIDTH:0.467679
G1 X140.635 Y116.975 E.0079 ; perimeter
;WIDTH:0.42
G1 X140.757 Y117.073 E.00695 ; perimeter
G1 X141.175 Y117.219 E.01963 ; perimeter
G1 X141.314 Y117.219 E.00617 ; perimeter
G1 X141.421 Y117.308 E.00617 ; perimeter
G1 X141.819 Y117.459 E.01889 ; perimeter
G1 X141.969 Y117.461 E.00665 ; perimeter
G1 X142.085 Y117.557 E.00665 ; perimeter
G1 X142.447 Y117.698 E.01725 ; perimeter
G1 X142.603 Y117.703 E.00691 ; perimeter
G1 X142.723 Y117.802 E.00691 ; perimeter
G1 X143.048 Y117.929 E.01549 ; perimeter
G1 X143.208 Y117.937 E.00709 ; perimeter
G1 X143.266 Y117.993 E.00358 ; perimeter
G1 X143.627 Y118.158 E.01761 ; perimeter
G1 X143.789 Y118.169 E.0072 ; perimeter
G1 X143.847 Y118.227 E.00363 ; perimeter
G1 X144.188 Y118.385 E.01667 ; perimeter
G1 X144.35 Y118.398 E.00719 ; perimeter
G1 X144.474 Y118.502 E.00719 ; perimeter
G1 X144.806 Y118.623 E.01566 ; perimeter
G1 X145.1 Y118.773 E.01467 ; perimeter
G1 X145.401 Y118.838 E.01363 ; perimeter
G1 X145.456 Y118.897 E.00355 ; perimeter
G1 X145.729 Y119.029 E.01349 ; perimeter
G1 X145.887 Y119.046 E.00704 ; perimeter
G1 X146.007 Y119.149 E.00704 ; perimeter
G1 X146.271 Y119.246 E.01244 ; perimeter
G1 X146.393 Y119.398 E.00868 ; perimeter
G1 X146.731 Y119.595 E.01734 ; perimeter
G1 X146.874 Y119.609 E.00636 ; perimeter
G1 X146.919 Y119.665 E.0032 ; perimeter
G1 X147.157 Y119.779 E.01169 ; perimeter
G1 X148.146 Y120.173 E.04721 ; perimeter
G1 X148.963 Y120.461 E.03842 ; perimeter
G1 X149.544 Y120.605 E.02654 ; perimeter
G1 X150.079 Y120.69 E.02406 ; perimeter
G1 X150.592 Y120.725 E.02278 ; perimeter
G1 X151.227 Y120.702 E.02818 ; perimeter
G1 X151.724 Y120.636 E.02222 ; perimeter
G1 X152.564 Y120.438 E.03832 ; perimeter
G1 X153.151 Y120.233 E.02756 ; perimeter
G1 X154.528 Y119.677 E.06585 ; perimeter
G1 X154.855 Y119.503 E.01645 ; perimeter
G1 X155.01 Y119.32 E.01063 ; perimeter
G1 X155.2 Y119.26 E.00883 ; perimeter
G1 X155.369 Y119.13 E.00949 ; perimeter
G1 X155.458 Y119.133 E.00393 ; perimeter
G1 X155.725 Y119.031 E.01269 ; perimeter
G1 X155.858 Y118.919 E.00771 ; perimeter
G1 X155.949 Y118.92 E.00402 ; perimeter
G1 X156.227 Y118.816 E.01317 ; perimeter
G1 X156.355 Y118.709 E.0074 ; perimeter
G1 X156.444 Y118.711 E.00396 ; perimeter
G1 X156.675 Y118.639 E.01075 ; perimeter
G1 X156.889 Y118.485 E.01171 ; perimeter
G1 X156.982 Y118.485 E.0041 ; perimeter
G1 X157.229 Y118.409 E.01148 ; perimeter
G1 X157.435 Y118.26 E.01129 ; perimeter
G1 X157.528 Y118.262 E.00409 ; perimeter
G1 X157.796 Y118.182 E.01242 ; perimeter
G1 X158.008 Y118.03 E.01155 ; perimeter
G1 X158.101 Y118.032 E.00415 ; perimeter
G1 X158.388 Y117.951 E.0132 ; perimeter
G1 X158.605 Y117.796 E.01185 ; perimeter
G1 X158.7 Y117.798 E.00421 ; perimeter
G1 X159.094 Y117.666 E.01841 ; perimeter
G1 X159.178 Y117.597 E.00484 ; perimeter
G1 X159.189 Y117.183 F7800 ; move to first perimeter point
G1 F1800
G1 X159.296 Y117.207 E.00484 ; perimeter
G1 X159.552 Y117.122 E.01198 ; perimeter
G1 X159.77 Y116.913 E.0134 ; perimeter
G1 X159.954 Y116.963 E.00846 ; perimeter
G1 X160.226 Y116.874 E.01269 ; perimeter
G1 X160.452 Y116.662 E.01374 ; perimeter
G1 X160.564 Y116.716 E.00551 ; perimeter
G1 X160.67 Y116.717 E.00472 ; perimeter
G1 X160.991 Y116.571 E.01562 ; perimeter
G1 X161.671 Y115.933 E.04137 ; perimeter
G1 X161.791 Y116 E.00607 ; perimeter
G1 X162.074 Y115.966 E.01264 ; perimeter
G1 X162.479 Y115.659 E.0225 ; perimeter
G1 X162.641 Y115.743 E.00809 ; perimeter
G1 X162.964 Y115.662 E.01479 ; perimeter
G1 X163.307 Y115.392 E.01937 ; perimeter
G1 X163.478 Y115.482 E.00857 ; perimeter
G1 X163.8 Y115.4 E.01473 ; perimeter
G1 X164.161 Y115.126 E.02014 ; perimeter
G1 X164.321 Y115.217 E.00815 ; perimeter
G1 X164.665 Y115.137 E.01567 ; perimeter
G1 X165.045 Y114.859 E.0209 ; perimeter
G1 X165.184 Y114.946 E.00725 ; perimeter
G1 X165.562 Y114.871 E.01712 ; perimeter
G1 X165.958 Y114.591 E.0215 ; perimeter
G1 X166.07 Y114.669 E.00606 ; perimeter
;WIDTH:0.45012
G1 X166.234 Y114.676 E.00788 ; perimeter
;WIDTH:0.480241
G1 X166.398 Y114.682 E.00849 ; perimeter
G1 X166.485 Y114.638 E.00506 ; perimeter
;WIDTH:0.487523
G1 X166.904 Y114.362 E.02649 ; perimeter
G1 X166.975 Y114.418 E.0048 ; perimeter
G1 X167.13 Y114.378 E.00841 ; perimeter
;WIDTH:0.442334
G1 X167.284 Y114.339 E.00751 ; perimeter
;WIDTH:0.397146
G1 X167.439 Y114.3 E.00662 ; perimeter
;WIDTH:0.364371
G1 X167.884 Y114.014 E.01981 ; perimeter
G1 X167.941 Y114.063 E.00283 ; perimeter
;WIDTH:0.378459
G1 X168.416 Y114.052 E.01863 ; perimeter
G1 X167.557 Y114.563 E.03917 ; perimeter
;WIDTH:0.396774
G1 X167.375 Y114.642 E.00823 ; perimeter
;WIDTH:0.442148
G1 X167.193 Y114.721 E.00935 ; perimeter
;WIDTH:0.487523
G1 X167.011 Y114.8 E.01048 ; perimeter
G1 X166.69 Y114.993 E.01977 ; perimeter
;WIDTH:0.47444
G1 X166.437 Y115.156 E.01537 ; perimeter
;WIDTH:0.44722
G1 X166.184 Y115.318 E.01435 ; perimeter
;WIDTH:0.42
G1 X161.873 Y118.049 E.22637 ; perimeter
G1 X158.082 Y120.757 E.20661 ; perimeter
G1 X154.914 Y123.419 E.18355 ; perimeter
G1 X152.472 Y126.024 E.15838 ; perimeter
G1 X150.94 Y128.425 E.12632 ; perimeter
G1 X150.873 Y128.578 E.00739 ; perimeter
G1 X150.736 Y129.108 E.02431 ; perimeter
G1 X150.543 Y128.435 E.03104 ; perimeter
G1 X149.083 Y126.035 E.1246 ; perimeter
G1 X146.714 Y123.387 E.15758 ; perimeter
G1 X143.712 Y120.743 E.17748 ; perimeter
G1 X140.114 Y118.044 E.19946 ; perimeter
G1 X136.707 Y115.774 E.1816 ; perimeter
;WIDTH:0.45183
G1 X136.324 Y115.503 E.02269 ; perimeter
;WIDTH:0.48366
G1 X135.941 Y115.232 E.02455 ; perimeter
G1 X135.75 Y115.142 E.011 ; perimeter
;WIDTH:0.439101
G1 X135.56 Y115.052 E.00983 ; perimeter
;WIDTH:0.394543
G1 X135.37 Y114.963 E.00866 ; perimeter
;WIDTH:0.383537
G1 X134.68 Y114.524 E.03256 ; perimeter
G1 X135.074 Y114.504 E.01572 ; perimeter
;WIDTH:0.361738
G1 X135.132 Y114.456 E.00279 ; perimeter
G1 X135.552 Y114.741 E.01885 ; perimeter
;WIDTH:0.39411
G1 X135.697 Y114.778 E.00613 ; perimeter
;WIDTH:0.438885
G1 X135.841 Y114.816 E.00696 ; perimeter
;WIDTH:0.48366
G1 X135.985 Y114.853 E.00779 ; perimeter
G1 X136.058 Y114.8 E.00473 ; perimeter
G1 X136.491 Y115.096 E.02744 ; perimeter
;WIDTH:0.481179
G1 X136.662 Y115.098 E.0089 ; perimeter
;WIDTH:0.450589
G1 X136.833 Y115.101 E.00825 ; perimeter
;WIDTH:0.42
G1 X136.95 Y115.025 E.00617 ; perimeter
G1 X137.382 Y115.333 E.02356 ; perimeter
G1 X137.671 Y115.373 E.01296 ; perimeter
G1 X137.814 Y115.29 E.00732 ; perimeter
G1 X138.148 Y115.551 E.01877 ; perimeter
G1 X138.483 Y115.639 E.0154 ; perimeter
G1 X138.647 Y115.553 E.00819 ; perimeter
G1 X138.964 Y115.81 E.01812 ; perimeter
G1 X139.27 Y115.899 E.01414 ; perimeter
G1 X139.455 Y115.818 E.00896 ; perimeter
G1 X140.255 Y116.534 E.04763 ; perimeter
G1 X140.527 Y116.623 E.0127 ; perimeter
G1 X140.724 Y116.564 E.00913 ; perimeter
G1 X140.912 Y116.746 E.01162 ; perimeter
G1 X141.205 Y116.865 E.01402 ; perimeter
G1 X141.414 Y116.814 E.00955 ; perimeter
G1 X141.623 Y117.015 E.01286 ; perimeter
G1 X141.905 Y117.109 E.01317 ; perimeter
G1 X142.08 Y117.063 E.00804 ; perimeter
G1 X142.283 Y117.262 E.01257 ; perimeter
G1 X142.546 Y117.351 E.01234 ; perimeter
G1 X142.723 Y117.314 E.00804 ; perimeter
G1 X142.878 Y117.476 E.00994 ; perimeter
G1 X143.111 Y117.579 E.01129 ; perimeter
G1 X143.337 Y117.557 E.01009 ; perimeter
G1 X143.482 Y117.711 E.00938 ; perimeter
G1 X143.699 Y117.81 E.01056 ; perimeter
G1 X143.926 Y117.797 E.01011 ; perimeter
G1 X144.062 Y117.943 E.00885 ; perimeter
G1 X144.267 Y118.039 E.01 ; perimeter
G1 X144.476 Y118.044 E.00929 ; perimeter
G1 X144.62 Y118.171 E.00851 ; perimeter
G1 X144.811 Y118.262 E.0094 ; perimeter
G1 X145.033 Y118.268 E.00982 ; perimeter
G1 X145.153 Y118.393 E.0077 ; perimeter
G1 X145.333 Y118.48 E.00888 ; perimeter
G1 X145.548 Y118.485 E.00954 ; perimeter
G1 X145.663 Y118.608 E.00746 ; perimeter
G1 X145.827 Y118.688 E.00809 ; perimeter
G1 X146.038 Y118.695 E.00937 ; perimeter
G1 X146.149 Y118.818 E.00734 ; perimeter
G1 X146.275 Y118.885 E.00631 ; perimeter
G1 X146.477 Y118.902 E.00899 ; perimeter
G1 X146.604 Y119.106 E.01069 ; perimeter
G1 X146.838 Y119.256 E.01231 ; perimeter
G1 X147.026 Y119.258 E.00836 ; perimeter
G1 X147.119 Y119.371 E.00649 ; perimeter
G1 X147.262 Y119.439 E.00701 ; perimeter
G1 X147.439 Y119.449 E.00787 ; perimeter
G1 X147.485 Y119.511 E.0034 ; perimeter
G1 X147.666 Y119.608 E.00914 ; perimeter
G1 X147.837 Y119.619 E.00757 ; perimeter
G1 X147.885 Y119.679 E.00341 ; perimeter
G1 X148.062 Y119.768 E.00878 ; perimeter
G1 X148.224 Y119.779 E.00722 ; perimeter
G1 X148.352 Y119.88 E.00722 ; perimeter
G1 X148.6 Y119.923 E.01116 ; perimeter
G1 X148.716 Y120.008 E.0064 ; perimeter
G1 X148.966 Y120.05 E.01125 ; perimeter
G1 X149.066 Y120.118 E.00535 ; perimeter
G1 X149.328 Y120.16 E.01178 ; perimeter
G1 X149.398 Y120.204 E.00367 ; perimeter
G1 X149.773 Y120.284 E.01698 ; perimeter
G1 X150.506 Y120.364 E.03272 ; perimeter
G1 X151.536 Y120.31 E.04574 ; perimeter
G1 X152.102 Y120.197 E.0256 ; perimeter
G1 X152.34 Y120.096 E.0115 ; perimeter
G1 X152.423 Y120.101 E.00367 ; perimeter
G1 X152.92 Y119.949 E.02307 ; perimeter
G1 X153.079 Y119.837 E.0086 ; perimeter
G1 X153.159 Y119.844 E.00356 ; perimeter
G1 X153.33 Y119.792 E.00792 ; perimeter
G1 X153.46 Y119.684 E.0075 ; perimeter
G1 X153.54 Y119.692 E.00357 ; perimeter
G1 X153.721 Y119.635 E.00844 ; perimeter
G1 X153.853 Y119.517 E.00784 ; perimeter
G1 X153.933 Y119.528 E.00359 ; perimeter
G1 X154.126 Y119.466 E.00898 ; perimeter
G1 X154.261 Y119.341 E.00815 ; perimeter
G1 X154.404 Y119.342 E.00634 ; perimeter
G1 X154.626 Y119.231 E.01103 ; perimeter
G1 X154.8 Y118.983 E.0134 ; perimeter
G1 X154.858 Y118.994 E.00262 ; perimeter
G1 X155.042 Y118.942 E.00851 ; perimeter
G1 X155.22 Y118.779 E.01068 ; perimeter
G1 X155.387 Y118.784 E.00739 ; perimeter
G1 X155.547 Y118.723 E.00761 ; perimeter
G1 X155.708 Y118.569 E.00989 ; perimeter
G1 X155.881 Y118.571 E.00769 ; perimeter
G1 X156.048 Y118.509 E.0079 ; perimeter
G1 X156.21 Y118.357 E.00985 ; perimeter
G1 X156.386 Y118.361 E.0078 ; perimeter
G1 X156.524 Y118.317 E.00645 ; perimeter
G1 X156.734 Y118.141 E.01216 ; perimeter
G1 X156.927 Y118.134 E.00856 ; perimeter
G1 X157.076 Y118.088 E.00689 ; perimeter
G1 X157.272 Y117.927 E.01126 ; perimeter
G1 X157.482 Y117.909 E.00934 ; perimeter
G1 X157.643 Y117.861 E.00745 ; perimeter
G1 X157.876 Y117.655 E.01382 ; perimeter
G1 X158.062 Y117.679 E.00834 ; perimeter
G1 X158.234 Y117.63 E.00792 ; perimeter
G1 X158.481 Y117.411 E.01466 ; perimeter
G1 X158.668 Y117.444 E.00843 ; perimeter
G1 X158.905 Y117.364 E.01105 ; perimeter
G1 X159.11 Y117.166 E.01269 ; perimeter
G1 X159.131 Y117.17 E.00093 ; perimeter
G1 X159.238 Y116.851 F7800 ; move to first perimeter point
;TYPE:External perimeter
G1 F1800
G1 X159.358 Y116.824 E.00545 ; perimeter
G1 X159.61 Y116.56 E.01621 ; perimeter
;WIDTH:0.419463
G1 X159.749 Y116.275 E.01403 ; perimeter
;WIDTH:0.410663
G1 X159.732 Y116.404 E.00562 ; perimeter
;WIDTH:0.419463
G1 X159.809 Y116.555 E.00752 ; perimeter
;WIDTH:0.42
G1 X159.91 Y116.607 E.00506 ; perimeter
G1 X160.029 Y116.578 E.00541 ; perimeter
G1 X160.298 Y116.307 E.01695 ; perimeter
;WIDTH:0.419475
G1 X160.444 Y116.026 E.01404 ; perimeter
;WIDTH:0.410667
G1 X160.424 Y116.155 E.00562 ; perimeter
;WIDTH:0.419475
G1 X160.497 Y116.308 E.00752 ; perimeter
;WIDTH:0.42
G1 X160.602 Y116.363 E.00526 ; perimeter
G1 X160.718 Y116.335 E.00528 ; perimeter
G1 X161.54 Y115.572 E.04976 ; perimeter
