; generated by PrusaSlicer 2.5.1+MacOS-arm64 on 2023-09-28 at 22:17:55 UTC

; 

; external perimeters extrusion width = 0.45mm
; perimeters extrusion width = 0.45mm
; infill extrusion width = 0.45mm
; solid infill extrusion width = 0.45mm
; top infill extrusion width = 0.40mm
; first layer extrusion width = 0.42mm

M107 ; disable fan
;TYPE:Custom
G90 ; use absolute coordinates
M83 ; extruder relative mode
M104 S0 ; set extruder temp
M140 S0 ; set bed temp
M190 S0 ; wait for bed temp
M109 S0 ; wait for extruder temp
G28 ; home all
G1 Z2 F240
G1 X2 Y10 F3000
G1 Z0.28 F240
G92 E0
G1 Y190 E15 F1500 ; intro line
G1 X2.3 F5000
G92 E0
G1 Y10 E15 F1200 ; intro line
G92 E0
G21 ; set units to millimeters
G90 ; use absolute coordinates
M83 ; use relative distances for extrusion
; Filament gcode
M107 ; disable fan
;LAYER_CHANGE
;Z:0.3
;HEIGHT:0.3
;BEFORE_LAYER_CHANGE
G92 E0
;0.3


G1 E-5 F3600 ; retract
G1 Z4 F7800 ; lift Z
;AFTER_LAYER_CHANGE
;0.3
G1 X184.912 Y184.375 ; move to first perimeter point
G1 Z.3 ; restore layer Z
G1 E5 F2400 ;  ; unretract
;TYPE:External perimeter
;WIDTH:0.404381
G1 F1800
G1 X184.912 Y154.507 E1.26663 ; perimeter
G1 X184.952 Y154.43 E.00368 ; perimeter
G1 X186.048 Y153.686 E.05617 ; perimeter
G1 X186.764 Y153.164 E.03757 ; perimeter
G1 X187.4 Y152.642 E.03489 ; perimeter
G1 X187.833 Y152.22 E.02565 ; perimeter
G1 X188.203 Y151.77 E.02468 ; perimeter
G1 X188.436 Y151.364 E.01985 ; perimeter
G1 X188.593 Y150.964 E.01822 ; perimeter
G1 X188.647 Y150.543 E.018 ; perimeter
G1 X188.6 Y150.135 E.01742 ; perimeter
G1 X188.455 Y149.741 E.01779 ; perimeter
G1 X188.187 Y149.291 E.02221 ; perimeter
G1 X187.791 Y148.818 E.02617 ; perimeter
G1 X187.38 Y148.424 E.02412 ; perimeter
G1 X186.775 Y147.927 E.03323 ; perimeter
G1 X186.129 Y147.453 E.03397 ; perimeter
G1 X183.535 Y145.682 E.13318 ; perimeter
G1 X182.908 Y145.21 E.0333 ; perimeter
G1 X182.405 Y144.786 E.02788 ; perimeter
G1 X182.039 Y144.432 E.02158 ; perimeter
G1 X181.656 Y143.981 E.02509 ; perimeter
G1 X181.359 Y143.483 E.02463 ; perimeter
G1 X181.214 Y143.038 E.01983 ; perimeter
G1 X181.186 Y142.564 E.02012 ; perimeter
G1 X181.286 Y142.114 E.01956 ; perimeter
G1 X181.503 Y141.663 E.02122 ; perimeter
G1 X181.851 Y141.189 E.02492 ; perimeter
G1 X182.364 Y140.666 E.03108 ; perimeter
G1 X182.86 Y140.243 E.02766 ; perimeter
G1 X183.277 Y139.922 E.02231 ; perimeter
G1 X186.352 Y137.804 E.15836 ; perimeter
G1 X187.006 Y137.306 E.03485 ; perimeter
G1 X187.472 Y136.907 E.02603 ; perimeter
G1 X187.961 Y136.408 E.02962 ; perimeter
G1 X188.327 Y135.908 E.02626 ; perimeter
G1 X188.541 Y135.458 E.02115 ; perimeter
G1 X188.641 Y134.984 E.02054 ; perimeter
G1 X188.609 Y134.537 E.01899 ; perimeter
G1 X188.469 Y134.112 E.019 ; perimeter
G1 X188.209 Y133.661 E.02206 ; perimeter
G1 X187.819 Y133.186 E.02606 ; perimeter
G1 X187.327 Y132.712 E.02898 ; perimeter
G1 X186.94 Y132.392 E.02128 ; perimeter
G1 X186.278 Y131.895 E.0351 ; perimeter
G1 X183.937 Y130.298 E.12019 ; perimeter
G1 X183.174 Y129.752 E.03978 ; perimeter
G1 X182.523 Y129.23 E.03537 ; perimeter
G1 X182.027 Y128.756 E.0291 ; perimeter
G1 X181.631 Y128.283 E.02615 ; perimeter
G1 X181.378 Y127.856 E.02105 ; perimeter
G1 X181.231 Y127.456 E.0181 ; perimeter
G1 X181.178 Y127.032 E.0181 ; perimeter
G1 X181.243 Y126.583 E.01925 ; perimeter
G1 X181.398 Y126.18 E.01829 ; perimeter
G1 X181.644 Y125.778 E.02 ; perimeter
G1 X182.03 Y125.32 E.0254 ; perimeter
G1 X182.515 Y124.86 E.02836 ; perimeter
G1 X183.166 Y124.338 E.03538 ; perimeter
G1 X183.966 Y123.764 E.04179 ; perimeter
G1 X186.309 Y122.172 E.12011 ; perimeter
G1 X186.937 Y121.7 E.0333 ; perimeter
G1 X187.435 Y121.279 E.02766 ; perimeter
G1 X187.952 Y120.759 E.03111 ; perimeter
G1 X188.298 Y120.281 E.025 ; perimeter
G1 X188.534 Y119.813 E.02225 ; perimeter
G1 X188.634 Y119.345 E.02028 ; perimeter
G1 X188.635 Y118.994 E.01487 ; perimeter
G1 X188.544 Y118.621 E.01631 ; perimeter
G1 X188.387 Y118.271 E.01625 ; perimeter
G1 X188.163 Y117.925 E.0175 ; perimeter
G1 X187.478 Y117.137 E.04428 ; perimeter
G1 X185.775 Y115.524 E.09947 ; perimeter
G1 X185.185 Y114.884 E.0369 ; perimeter
G1 X184.909 Y114.561 E.01802 ; perimeter
G1 X184.251 Y113.483 E.05355 ; perimeter
G1 X183.717 Y112.157 E.06063 ; perimeter
G1 X183.314 Y110.65 E.06616 ; perimeter
G1 X183.025 Y108.981 E.07183 ; perimeter
G1 X182.839 Y107.171 E.07715 ; perimeter
G1 X182.745 Y105.263 E.08102 ; perimeter
G1 X182.733 Y103.279 E.08414 ; perimeter
G1 X182.79 Y101.252 E.08598 ; perimeter
G1 X182.906 Y99.212 E.08666 ; perimeter
G1 X183.07 Y97.189 E.08604 ; perimeter
G1 X183.27 Y95.218 E.08404 ; perimeter
G1 X183.497 Y93.322 E.08096 ; perimeter
G1 X183.988 Y89.893 E.14692 ; perimeter
G1 X184.225 Y88.417 E.0634 ; perimeter
G1 X184.632 Y86.095 E.09995 ; perimeter
G1 X184.913 Y84.648 E.06252 ; perimeter
G1 E-3.5 F3600 ; retract
;WIPE_START
G1 F6240
G1 X184.781 Y85.311 E-.37073 ; wipe and retract
G1 X184.632 Y86.095 E-.43736 ; wipe and retract
G1 X184.443 Y87.141 E-.58244 ; wipe and retract
G1 X184.432 Y87.203 E-.03447 ; wipe and retract
;WIPE_END
G1 E-.075 F3600 ; retract
G1 Z4.3 F7800 ; lift Z
G1 X182.419 Y184.375 ; move to first perimeter point
G1 Z.3 ; restore layer Z
G1 E5 F2400 ;  ; unretract
G1 F1800
G1 X182.419 Y154.507 E1.26663 ; perimeter
G1 X182.459 Y154.43 E.00368 ; perimeter
G1 X183.555 Y153.686 E.05618 ; perimeter
G1 X184.271 Y153.164 E.03756 ; perimeter
G1 X184.907 Y152.642 E.0349 ; perimeter
G1 X185.34 Y152.22 E.02565 ; perimeter
G1 X185.709 Y151.77 E.02468 ; perimeter
G1 X185.942 Y151.364 E.01984 ; perimeter
G1 X186.099 Y150.964 E.01822 ; perimeter
G1 X186.153 Y150.543 E.018 ; perimeter
G1 X186.107 Y150.135 E.01742 ; perimeter
G1 X185.961 Y149.741 E.01779 ; perimeter
G1 X185.693 Y149.291 E.0222 ; perimeter
G1 X185.297 Y148.818 E.02617 ; perimeter
G1 X184.887 Y148.424 E.02412 ; perimeter
G1 X184.281 Y147.927 E.03323 ; perimeter
G1 X183.636 Y147.453 E.03397 ; perimeter
G1 X181.042 Y145.682 E.13318 ; perimeter
G1 X180.414 Y145.21 E.0333 ; perimeter
G1 X179.912 Y144.786 E.02788 ; perimeter
G1 X179.546 Y144.432 E.02158 ; perimeter
G1 X179.163 Y143.981 E.02509 ; perimeter
G1 X178.866 Y143.483 E.02463 ; perimeter
G1 X178.72 Y143.038 E.01983 ; perimeter
G1 X178.693 Y142.564 E.02012 ; perimeter
G1 X178.793 Y142.114 E.01956 ; perimeter
G1 X179.01 Y141.663 E.02122 ; perimeter
G1 X179.358 Y141.189 E.02492 ; perimeter
G1 X179.871 Y140.666 E.03108 ; perimeter
G1 X180.367 Y140.243 E.02766 ; perimeter
G1 X180.784 Y139.922 E.02231 ; perimeter
G1 X183.859 Y137.804 E.15835 ; perimeter
G1 X184.513 Y137.306 E.03485 ; perimeter
G1 X184.979 Y136.907 E.02603 ; perimeter
G1 X185.467 Y136.408 E.02962 ; perimeter
G1 X185.834 Y135.908 E.02626 ; perimeter
G1 X186.048 Y135.458 E.02115 ; perimeter
G1 X186.147 Y134.984 E.02054 ; perimeter
G1 X186.116 Y134.537 E.01899 ; perimeter
G1 X185.976 Y134.112 E.019 ; perimeter
G1 X185.716 Y133.661 E.02206 ; perimeter
G1 X185.326 Y133.186 E.02606 ; perimeter
G1 X184.833 Y132.712 E.02898 ; perimeter
G1 X184.446 Y132.392 E.02128 ; perimeter
G1 X183.785 Y131.895 E.0351 ; perimeter
G1 X181.444 Y130.298 E.12019 ; perimeter
G1 X180.681 Y129.752 E.03978 ; perimeter
G1 X180.03 Y129.23 E.03537 ; perimeter
G1 X179.533 Y128.756 E.0291 ; perimeter
G1 X179.138 Y128.283 E.02615 ; perimeter
G1 X178.885 Y127.856 E.02105 ; perimeter
G1 X178.738 Y127.456 E.0181 ; perimeter
G1 X178.685 Y127.032 E.0181 ; perimeter
G1 X178.75 Y126.583 E.01925 ; perimeter
G1 X178.905 Y126.18 E.01829 ; perimeter
G1 X179.151 Y125.778 E.02 ; perimeter
G1 X179.537 Y125.32 E.0254 ; perimeter
G1 X180.022 Y124.86 E.02836 ; perimeter
G1 X180.673 Y124.338 E.03538 ; perimeter
G1 X181.473 Y123.763 E.04179 ; perimeter
G1 X183.816 Y122.172 E.1201 ; perimeter
G1 X184.444 Y121.7 E.0333 ; perimeter
G1 X184.942 Y121.279 E.02766 ; perimeter
G1 X185.459 Y120.759 E.03111 ; perimeter
G1 X185.804 Y120.281 E.02501 ; perimeter
G1 X186.041 Y119.812 E.02225 ; perimeter
G1 X186.141 Y119.345 E.02027 ; perimeter
G1 X186.142 Y118.994 E.01487 ; perimeter
G1 X186.051 Y118.621 E.0163 ; perimeter
G1 X185.894 Y118.271 E.01625 ; perimeter
G1 X185.67 Y117.925 E.0175 ; perimeter
G1 X184.984 Y117.137 E.04427 ; perimeter
G1 X183.282 Y115.524 E.09947 ; perimeter
G1 X182.691 Y114.884 E.0369 ; perimeter
G1 X182.416 Y114.561 E.01802 ; perimeter
G1 X181.758 Y113.483 E.05355 ; perimeter
G1 X181.223 Y112.157 E.06063 ; perimeter
G1 X180.821 Y110.65 E.06616 ; perimeter
G1 X180.532 Y108.981 E.07183 ; perimeter
G1 X180.346 Y107.171 E.07715 ; perimeter
G1 X180.252 Y105.263 E.08102 ; perimeter
G1 X180.239 Y103.279 E.08414 ; perimeter
G1 X180.296 Y101.252 E.08598 ; perimeter
G1 X180.413 Y99.212 E.08666 ; perimeter
G1 X180.577 Y97.189 E.08604 ; perimeter
G1 X180.777 Y95.218 E.08404 ; perimeter
G1 X181.004 Y93.322 E.08096 ; perimeter
G1 X181.495 Y89.893 E.14692 ; perimeter
G1 X181.732 Y88.417 E.0634 ; perimeter
G1 X182.139 Y86.095 E.09995 ; perimeter
G1 X182.419 Y84.648 E.06252 ; perimeter
G1 E-3.5 F3600 ; retract
;WIPE_START
G1 F6240
G1 X182.288 Y85.311 E-.37075 ; wipe and retract
G1 X182.139 Y86.095 E-.43734 ; wipe and retract
G1 X181.95 Y87.141 E-.58244 ; wipe and retract
G1 X181.939 Y87.203 E-.03447 ; wipe and retract
;WIPE_END
G1 E-.075 F3600 ; retract
G1 Z4.3 F7800 ; lift Z
G1 X179.926 Y184.375 ; move to first perimeter point
G1 Z.3 ; restore layer Z
G1 E5 F2400 ;  ; unretract
G1 F1800
G1 X179.925 Y154.507 E1.26663 ; perimeter
G1 X179.966 Y154.43 E.00368 ; perimeter
G1 X181.062 Y153.686 E.05617 ; perimeter
G1 X181.778 Y153.164 E.03757 ; perimeter
G1 X182.414 Y152.642 E.0349 ; perimeter
G1 X182.847 Y152.22 E.02565 ; perimeter
G1 X183.216 Y151.77 E.02468 ; perimeter
G1 X183.449 Y151.364 E.01984 ; perimeter
G1 X183.606 Y150.964 E.01822 ; perimeter
G1 X183.66 Y150.543 E.01801 ; perimeter
G1 X183.614 Y150.135 E.01742 ; perimeter
G1 X183.468 Y149.741 E.01779 ; perimeter
G1 X183.2 Y149.291 E.02221 ; perimeter
G1 X182.804 Y148.818 E.02617 ; perimeter
G1 X182.394 Y148.424 E.02412 ; perimeter
G1 X181.788 Y147.927 E.03323 ; perimeter
G1 X181.143 Y147.453 E.03397 ; perimeter
G1 X178.549 Y145.682 E.13318 ; perimeter
G1 X177.921 Y145.21 E.0333 ; perimeter
G1 X177.419 Y144.786 E.02788 ; perimeter
G1 X177.053 Y144.432 E.02159 ; perimeter
G1 X176.69 Y144.008 E.02368 ; perimeter
G1 X176.385 Y143.509 E.02478 ; perimeter
G1 X176.227 Y143.038 E.02109 ; perimeter
G1 X176.2 Y142.564 E.02011 ; perimeter
G1 X176.3 Y142.114 E.01956 ; perimeter
G1 X176.517 Y141.663 E.02122 ; perimeter
G1 X176.864 Y141.189 E.02493 ; perimeter
G1 X177.378 Y140.666 E.03107 ; perimeter
G1 X177.874 Y140.243 E.02766 ; perimeter
G1 X178.29 Y139.922 E.02231 ; perimeter
G1 X181.366 Y137.804 E.15835 ; perimeter
G1 X182.02 Y137.306 E.03486 ; perimeter
G1 X182.486 Y136.907 E.02603 ; perimeter
G1 X182.974 Y136.407 E.02962 ; perimeter
G1 X183.341 Y135.908 E.02626 ; perimeter
G1 X183.555 Y135.458 E.02115 ; perimeter
G1 X183.654 Y134.984 E.02054 ; perimeter
G1 X183.623 Y134.537 E.01899 ; perimeter
G1 X183.483 Y134.112 E.019 ; perimeter
G1 X183.223 Y133.661 E.02206 ; perimeter
G1 X182.833 Y133.186 E.02606 ; perimeter
G1 X182.34 Y132.712 E.02898 ; perimeter
G1 X181.953 Y132.392 E.02129 ; perimeter
G1 X181.292 Y131.895 E.0351 ; perimeter
G1 X178.95 Y130.298 E.12019 ; perimeter
G1 X178.188 Y129.752 E.03978 ; perimeter
G1 X177.537 Y129.23 E.03537 ; perimeter
G1 X177.04 Y128.757 E.0291 ; perimeter
G1 X176.645 Y128.283 E.02616 ; perimeter
G1 X176.392 Y127.856 E.02105 ; perimeter
G1 X176.245 Y127.456 E.0181 ; perimeter
G1 X176.192 Y127.032 E.01811 ; perimeter
G1 X176.248 Y126.607 E.01816 ; perimeter
G1 X176.398 Y126.205 E.0182 ; perimeter
G1 X176.658 Y125.778 E.02119 ; perimeter
G1 X177.03 Y125.336 E.02451 ; perimeter
G1 X177.5 Y124.886 E.02757 ; perimeter
G1 X178.179 Y124.338 E.03703 ; perimeter
G1 X178.98 Y123.763 E.0418 ; perimeter
G1 X181.323 Y122.172 E.1201 ; perimeter
G1 X181.949 Y121.701 E.03324 ; perimeter
G1 X182.449 Y121.279 E.02772 ; perimeter
G1 X182.965 Y120.758 E.0311 ; perimeter
G1 X183.319 Y120.287 E.02499 ; perimeter
G1 X183.549 Y119.813 E.02233 ; perimeter
G1 X183.647 Y119.345 E.02029 ; perimeter
G1 X183.649 Y118.994 E.01487 ; perimeter
G1 X183.558 Y118.621 E.0163 ; perimeter
G1 X183.401 Y118.271 E.01625 ; perimeter
G1 X183.177 Y117.925 E.0175 ; perimeter
G1 X182.491 Y117.137 E.04428 ; perimeter
G1 X180.788 Y115.524 E.09947 ; perimeter
G1 X180.198 Y114.884 E.0369 ; perimeter
G1 X179.922 Y114.561 E.01802 ; perimeter
G1 X179.264 Y113.483 E.05355 ; perimeter
G1 X178.73 Y112.157 E.06063 ; perimeter
G1 X178.328 Y110.65 E.06616 ; perimeter
G1 X178.039 Y108.981 E.07183 ; perimeter
G1 X177.853 Y107.171 E.07715 ; perimeter
G1 X177.759 Y105.263 E.08102 ; perimeter
G1 X177.746 Y103.279 E.08414 ; perimeter
G1 X177.803 Y101.252 E.08598 ; perimeter
G1 X177.919 Y99.212 E.08666 ; perimeter
G1 X178.083 Y97.189 E.08604 ; perimeter
G1 X178.284 Y95.218 E.08404 ; perimeter
G1 X178.511 Y93.322 E.08096 ; perimeter
G1 X179.002 Y89.893 E.14692 ; perimeter
G1 X179.238 Y88.417 E.0634 ; perimeter
G1 X179.646 Y86.095 E.09995 ; perimeter
G1 X179.926 Y84.648 E.06252 ; perimeter
G1 E-3.5 F3600 ; retract
;WIPE_START
G1 F6240
G1 X179.795 Y85.311 E-.37075 ; wipe and retract
G1 X179.646 Y86.095 E-.43734 ; wipe and retract
G1 X179.457 Y87.141 E-.58244 ; wipe and retract
G1 X179.446 Y87.203 E-.03447 ; wipe and retract
;WIPE_END
G1 E-.075 F3600 ; retract
G1 Z4.3 F7800 ; lift Z
G1 X177.432 Y184.375 ; move to first perimeter point
G1 Z.3 ; restore layer Z
G1 E5 F2400 ;  ; unretract
G1 F1800
G1 X177.432 Y154.507 E1.26663 ; perimeter
G1 X177.5 Y154.412 E.00493 ; perimeter
G1 X178.392 Y153.808 E.04571 ; perimeter
G1 X179.284 Y153.163 E.04665 ; perimeter
G1 X179.92 Y152.642 E.0349 ; perimeter
G1 X180.354 Y152.22 E.02565 ; perimeter
G1 X180.723 Y151.77 E.02468 ; perimeter
G1 X180.956 Y151.364 E.01984 ; perimeter
G1 X181.113 Y150.964 E.01822 ; perimeter
G1 X181.167 Y150.543 E.01801 ; perimeter
G1 X181.121 Y150.135 E.01742 ; perimeter
G1 X180.975 Y149.741 E.01779 ; perimeter
G1 X180.707 Y149.291 E.02221 ; perimeter
G1 X180.311 Y148.818 E.02617 ; perimeter
G1 X179.901 Y148.424 E.02411 ; perimeter
G1 X179.295 Y147.927 E.03325 ; perimeter
G1 X178.395 Y147.276 E.04711 ; perimeter
G1 X176.021 Y145.658 E.12184 ; perimeter
G1 X175.396 Y145.185 E.03322 ; perimeter
G1 X174.898 Y144.761 E.02771 ; perimeter
G1 X174.363 Y144.218 E.03234 ; perimeter
G1 X174.02 Y143.744 E.02482 ; perimeter
G1 X173.797 Y143.272 E.02213 ; perimeter
G1 X173.705 Y142.804 E.02023 ; perimeter
G1 X173.738 Y142.355 E.01909 ; perimeter
G1 X173.904 Y141.882 E.02127 ; perimeter
G1 X174.185 Y141.424 E.02277 ; perimeter
G1 X174.569 Y140.974 E.02509 ; perimeter
G1 X175.13 Y140.448 E.03262 ; perimeter
G1 X175.762 Y139.949 E.03416 ; perimeter
G1 X178.872 Y137.804 E.16022 ; perimeter
G1 X179.526 Y137.306 E.03485 ; perimeter
G1 X179.992 Y136.907 E.02603 ; perimeter
G1 X180.481 Y136.407 E.02962 ; perimeter
G1 X180.848 Y135.908 E.02626 ; perimeter
G1 X181.062 Y135.458 E.02115 ; perimeter
G1 X181.161 Y134.984 E.02054 ; perimeter
G1 X181.13 Y134.537 E.01899 ; perimeter
G1 X180.99 Y134.112 E.019 ; perimeter
G1 X180.73 Y133.661 E.02206 ; perimeter
G1 X180.339 Y133.186 E.02606 ; perimeter
G1 X179.847 Y132.712 E.02898 ; perimeter
G1 X179.46 Y132.392 E.02129 ; perimeter
G1 X178.799 Y131.895 E.0351 ; perimeter
G1 X176.457 Y130.298 E.12019 ; perimeter
G1 X175.694 Y129.752 E.03978 ; perimeter
G1 X175.015 Y129.205 E.037 ; perimeter
G1 X174.547 Y128.757 E.02746 ; perimeter
G1 X174.152 Y128.283 E.02617 ; perimeter
G1 X173.898 Y127.856 E.02105 ; perimeter
G1 X173.752 Y127.456 E.0181 ; perimeter
G1 X173.699 Y127.032 E.01811 ; perimeter
G1 X173.755 Y126.607 E.01816 ; perimeter
G1 X173.905 Y126.205 E.01821 ; perimeter
G1 X174.164 Y125.778 E.02119 ; perimeter
G1 X174.537 Y125.336 E.02451 ; perimeter
G1 X175.036 Y124.861 E.02922 ; perimeter
G1 X175.686 Y124.338 E.03539 ; perimeter
G1 X176.451 Y123.788 E.03996 ; perimeter
G1 X178.83 Y122.172 E.12193 ; perimeter
G1 X179.456 Y121.701 E.03324 ; perimeter
G1 X179.955 Y121.279 E.02772 ; perimeter
G1 X180.472 Y120.758 E.0311 ; perimeter
G1 X180.826 Y120.287 E.02498 ; perimeter
