; generated by PrusaSlicer 2.5.1+MacOS-arm64 on 2023-09-29 at 13:09:56 UTC

; 

; external perimeters extrusion width = 0.45mm
; perimeters extrusion width = 0.45mm
; infill extrusion width = 0.45mm
; solid infill extrusion width = 0.45mm
; top infill extrusion width = 0.40mm
; first layer extrusion width = 0.42mm

M107 ; disable fan
;TYPE:Custom
G90 ; use absolute coordinates
M83 ; extruder relative mode
M104 S0 ; set extruder temp
M140 S0 ; set bed temp
M190 S0 ; wait for bed temp
M109 S0 ; wait for extruder temp
G28 ; home all
G1 Z2 F240
G1 X2 Y10 F3000
G1 Z0.28 F240
G92 E0
G1 Y190 E15 F1500 ; intro line
G1 X2.3 F5000
G92 E0
G1 Y10 E15 F1200 ; intro line
G92 E0
G21 ; set units to millimeters
G90 ; use absolute coordinates
M83 ; use relative distances for extrusion
; Filament gcode
M107 ; disable fan
;LAYER_CHANGE
;Z:0.3
;HEIGHT:0.3
;BEFORE_LAYER_CHANGE
G92 E0
;0.3


G1 E-5 F3600 ; retract
G1 Z4 F7800 ; lift Z
;AFTER_LAYER_CHANGE
;0.3
G1 X198.9 Y130.286 ; move to first perimeter point
G1 Z.3 ; restore layer Z
G1 E5 F2400 ;  ; unretract
;TYPE:Perimeter
;WIDTH:0.380181
G1 F1800
G1 X199.077 Y130.267 E.00702 ; perimeter
;WIDTH:0.422361
G1 X200.93 Y130.083 E.08314 ; perimeter
;WIDTH:0.464542
G1 X202.783 Y129.9 E.09294 ; perimeter
;WIDTH:0.506723
G1 X204.636 Y129.717 E.10274 ; perimeter
;WIDTH:0.548904
G1 X206.49 Y129.533 E.11254 ; perimeter
;WIDTH:0.591085
G1 X208.343 Y129.35 E.12233 ; perimeter
G1 X208.44 Y129.318 E.00672 ; perimeter
;WIDTH:0.548313
G1 X208.537 Y129.286 E.00617 ; perimeter
;WIDTH:0.505542
G1 X208.634 Y129.253 E.00563 ; perimeter
;WIDTH:0.462771
G1 X208.731 Y129.221 E.00508 ; perimeter
;WIDTH:0.42
G1 X221.26 Y127.838 E.5591 ; perimeter
G1 X221.372 Y129.12 E.05707 ; perimeter
G1 X208.793 Y129.934 E.5591 ; perimeter
;WIDTH:0.462771
G1 X208.692 Y129.919 E.00508 ; perimeter
;WIDTH:0.505542
G1 X208.591 Y129.904 E.00563 ; perimeter
;WIDTH:0.548313
G1 X208.49 Y129.89 E.00617 ; perimeter
;WIDTH:0.591085
G1 X208.389 Y129.875 E.00672 ; perimeter
G1 X206.532 Y130.016 E.12233 ; perimeter
;WIDTH:0.548904
G1 X204.675 Y130.157 E.11254 ; perimeter
;WIDTH:0.506723
G1 X202.818 Y130.298 E.10274 ; perimeter
;WIDTH:0.464542
G1 X200.961 Y130.44 E.09294 ; perimeter
;WIDTH:0.422361
G1 X199.105 Y130.581 E.08314 ; perimeter
;WIDTH:0.380181
G1 X198.971 Y130.59 E.00526 ; perimeter
G1 X198.914 Y130.344 E.00992 ; perimeter
G1 X198.486 Y129.994 F7800 ; move to first perimeter point
;WIDTH:0.42
G1 F1800
G1 X221.582 Y127.445 E1.03064 ; perimeter
G1 X221.758 Y129.452 E.08934 ; perimeter
G1 X198.709 Y130.943 E1.02445 ; perimeter
G1 X198.5 Y130.052 E.04058 ; perimeter
G1 X198.048 Y129.685 F7800 ; move to first perimeter point
;TYPE:External perimeter
G1 F1800
G1 X221.905 Y127.052 E1.06458 ; perimeter
G1 X222.144 Y129.783 E.12161 ; perimeter
G1 X198.432 Y131.317 E1.05393 ; perimeter
G1 X198.062 Y129.743 E.07173 ; perimeter
G1 X198.447 Y129.656 F7800 ; move inwards before travel
G1 E-3.5 F3600 ; retract
;WIPE_START
G1 F6240
G1 X200.646 Y129.451 E-1.425 ; wipe and retract
;WIPE_END
G1 E-.075 F3600 ; retract
G1 Z4.3 F7800 ; lift Z
G1 X221.233 Y128.751 ; move to first infill point
G1 Z.3 ; restore layer Z
G1 E5 F2400 ;  ; unretract
;TYPE:Solid infill
;WIDTH:0.423185
G1 F1800
G1 X220.655 Y128.174 E.03657 ; infill
G1 X220.198 Y128.224 E.02058 ; infill
G1 X220.86 Y128.886 E.0419 ; infill
G1 X220.383 Y128.917 E.02137 ; infill
G1 X219.741 Y128.274 E.04066 ; infill
G1 X219.284 Y128.325 E.02058 ; infill
G1 X219.907 Y128.948 E.03942 ; infill
G1 X219.43 Y128.979 E.02137 ; infill
G1 X218.827 Y128.375 E.03818 ; infill
G1 X218.37 Y128.426 E.02058 ; infill
G1 X218.954 Y129.009 E.03694 ; infill
G1 X218.477 Y129.04 E.02137 ; infill
G1 X217.913 Y128.476 E.0357 ; infill
G1 X217.456 Y128.527 E.02058 ; infill
G1 X218 Y129.071 E.03446 ; infill
G1 X217.524 Y129.102 E.02137 ; infill
G1 X216.999 Y128.577 E.03322 ; infill
G1 X216.542 Y128.627 E.02058 ; infill
G1 X217.047 Y129.133 E.03198 ; infill
G1 X216.571 Y129.164 E.02137 ; infill
G1 X216.085 Y128.678 E.03074 ; infill
G1 X215.628 Y128.728 E.02058 ; infill
G1 X216.094 Y129.195 E.0295 ; infill
G1 X215.617 Y129.225 E.02137 ; infill
G1 X215.171 Y128.779 E.02826 ; infill
G1 X214.714 Y128.829 E.02058 ; infill
G1 X215.141 Y129.256 E.02702 ; infill
G1 X214.664 Y129.287 E.02137 ; infill
G1 X214.257 Y128.88 E.02578 ; infill
G1 X213.8 Y128.93 E.02058 ; infill
G1 X214.188 Y129.318 E.02454 ; infill
G1 X213.711 Y129.349 E.02137 ; infill
G1 X213.343 Y128.981 E.0233 ; infill
G1 X212.886 Y129.031 E.02058 ; infill
G1 X213.235 Y129.38 E.02206 ; infill
G1 X212.758 Y129.41 E.02137 ; infill
G1 X212.429 Y129.081 E.02082 ; infill
G1 X211.972 Y129.132 E.02058 ; infill
G1 X212.281 Y129.441 E.01958 ; infill
G1 X211.805 Y129.472 E.02137 ; infill
G1 X211.515 Y129.182 E.01834 ; infill
G1 X211.058 Y129.233 E.02058 ; infill
G1 X211.328 Y129.503 E.0171 ; infill
G1 X210.852 Y129.534 E.02137 ; infill
G1 X210.601 Y129.283 E.01586 ; infill
G1 X210.144 Y129.334 E.02058 ; infill
G1 X210.375 Y129.565 E.01462 ; infill
G1 X209.898 Y129.595 E.02137 ; infill
G1 X209.687 Y129.384 E.01338 ; infill
G1 X209.23 Y129.434 E.02058 ; infill
G1 X209.422 Y129.626 E.01214 ; infill
G1 X208.945 Y129.657 E.02137 ; infill
G1 X208.657 Y129.369 E.01824 ; infill
G1 E-3.5 F3600 ; retract
;WIPE_START
G1 F6240
G1 X208.945 Y129.657 E-.22339 ; wipe and retract
G1 X209.422 Y129.626 E-.26175 ; wipe and retract
G1 X209.23 Y129.434 E-.1487 ; wipe and retract
G1 X209.687 Y129.384 E-.25199 ; wipe and retract
G1 X209.898 Y129.595 E-.16389 ; wipe and retract
G1 X210.375 Y129.565 E-.26175 ; wipe and retract
G1 X210.229 Y129.418 E-.11354 ; wipe and retract
;WIPE_END
G1 E-.075 F3600 ; retract
G1 Z4.3 F7800 ; lift Z
G1 X189.341 Y171.04 ; move to first perimeter point
G1 Z.3 ; restore layer Z
G1 E5 F2400 ;  ; unretract
;TYPE:Perimeter
;WIDTH:0.501461
G1 F1800
G1 X189.51 Y171.201 E.01274 ; perimeter
;WIDTH:0.546272
G1 X190.925 Y172.584 E.11891 ; perimeter
;WIDTH:0.591083
G1 X192.34 Y173.967 E.12997 ; perimeter
G1 X192.427 Y174.021 E.00672 ; perimeter
;WIDTH:0.548312
G1 X192.514 Y174.075 E.00617 ; perimeter
;WIDTH:0.505541
G1 X192.601 Y174.128 E.00563 ; perimeter
;WIDTH:0.46277
G1 X192.688 Y174.182 E.00508 ; perimeter
;WIDTH:0.42
G1 X201.801 Y182.891 E.55912 ; perimeter
G1 X200.891 Y183.801 E.05707 ; perimeter
G1 X192.182 Y174.688 E.55912 ; perimeter
;WIDTH:0.46277
G1 X192.128 Y174.601 E.00508 ; perimeter
;WIDTH:0.505541
G1 X192.075 Y174.514 E.00563 ; perimeter
;WIDTH:0.548312
G1 X192.021 Y174.427 E.00617 ; perimeter
;WIDTH:0.591083
G1 X191.968 Y174.34 E.00672 ; perimeter
G1 X190.584 Y172.925 E.12997 ; perimeter
;WIDTH:0.546272
G1 X189.201 Y171.51 E.11891 ; perimeter
;WIDTH:0.501461
G1 X189.065 Y171.367 E.01079 ; perimeter
G1 X189.303 Y171.086 E.0201 ; perimeter
G1 X189.306 Y170.457 F7800 ; move to first perimeter point
;WIDTH:0.42
G1 F1800
G1 X202.31 Y182.886 E.79785 ; perimeter
G1 X200.886 Y184.31 E.08934 ; perimeter
G1 X188.53 Y171.382 E.79319 ; perimeter
G1 X189.268 Y170.504 E.05085 ; perimeter
G1 X189.274 Y169.935 F7800 ; move to first perimeter point
;TYPE:External perimeter
G1 F1800
G1 X202.818 Y182.88 E.83103 ; perimeter
G1 X200.88 Y184.818 E.12161 ; perimeter
G1 X188.05 Y171.394 E.82361 ; perimeter
G1 X189.236 Y169.981 E.0818 ; perimeter
G1 X189.549 Y170.225 F7800 ; move inwards before travel
G1 E-3.5 F3600 ; retract
;WIPE_START
G1 F6240
G1 X191.121 Y171.772 E-1.425 ; wipe and retract
;WIPE_END
G1 E-.075 F3600 ; retract
G1 Z4.3 F7800 ; lift Z
G1 X201.531 Y183.01 ; move to first infill point
G1 Z.3 ; restore layer Z
G1 E5 F2400 ;  ; unretract
;TYPE:Solid infill
;WIDTH:0.432641
G1 F1800
G1 X192.517 Y174.387 E.57297 ; infill
G1 X192.31 Y174.31 E.01017 ; infill
G1 X201.158 Y183.158 E.57473 ; infill
G1 X200.897 Y183.418 E.01691 ; infill
G1 X195.832 Y178.353 E.32903 ; infill
G1 E-3.5 F3600 ; retract
;WIPE_START
G1 F6240
G1 X197.67 Y180.191 E-1.425 ; wipe and retract
;WIPE_END
G1 E-.075 F3600 ; retract
G1 Z4.3 F7800 ; lift Z
G1 X156.699 Y131.825 ; move to first perimeter point
G1 Z.3 ; restore layer Z
G1 E5 F2400 ;  ; unretract
;TYPE:External perimeter
;WIDTH:0.404381
G1 F1800
G1 X156.158 Y132.17 E.02723 ; perimeter
G1 E-3.5 F3600 ; retract
;WIPE_START
G1 F6240
G1 X156.699 Y131.825 E-.35196 ; wipe and retract
;WIPE_END
G1 E-1.14804 F3600 ; retract
G1 Z4.3 F7800 ; lift Z
G1 X136.028 Y142.877 ; move to first perimeter point
G1 Z.3 ; restore layer Z
G1 E5 F2400 ;  ; unretract
;WIDTH:0.424032
G1 F1800
G1 X136.162 Y143.204 E.01586 ; perimeter
G1 X136.021 Y143.281 E.00722 ; perimeter
;WIDTH:0.460412
G1 X134.492 Y144.098 E.08561 ; perimeter
;WIDTH:0.496793
G1 X132.759 Y145.026 E.10603 ; perimeter
G1 X132.576 Y144.623 E.02385 ; perimeter
G1 X134.309 Y143.746 E.10477 ; perimeter
;WIDTH:0.460412
G1 X135.855 Y142.962 E.08561 ; perimeter
;WIDTH:0.424032
G1 X135.974 Y142.903 E.00595 ; perimeter
G1 E-3.5 F3600 ; retract
;WIPE_START
G1 F6240
G1 X136.162 Y143.204 E-.19431 ; wipe and retract
G1 X136.021 Y143.281 E-.08816 ; wipe and retract
G1 X134.492 Y144.098 E-.94992 ; wipe and retract
G1 X134.182 Y144.263 E-.19262 ; wipe and retract
;WIPE_END
G1 E-.075 F3600 ; retract
G1 Z4.3 F7800 ; lift Z
G1 X133.593 Y187.479 ; move to first perimeter point
G1 Z.3 ; restore layer Z
G1 E5 F2400 ;  ; unretract
;TYPE:Perimeter
;WIDTH:0.42
G1 F1800
G1 X129.478 Y199.633 E.56915 ; perimeter
G1 X128.269 Y199.193 E.05707 ; perimeter
G1 X132.92 Y187.262 E.56798 ; perimeter
G1 X133.536 Y187.46 E.02868 ; perimeter
G1 X134.047 Y187.246 F7800 ; move to first perimeter point
G1 F1800
G1 X129.698 Y200.092 E.60153 ; perimeter
G1 X127.806 Y199.403 E.08934 ; perimeter
G1 X132.712 Y186.817 E.59913 ; perimeter
G1 X133.99 Y187.228 E.05953 ; perimeter
G1 X134.501 Y187.013 F7800 ; move to first perimeter point
;TYPE:External perimeter
G1 F1800
G1 X129.919 Y200.55 E.6339 ; perimeter
G1 X127.342 Y199.612 E.12161 ; perimeter
G1 X132.503 Y186.373 E.63028 ; perimeter
G1 X133.511 Y186.71 E.04713 ; perimeter
G1 X134.444 Y186.996 E.04327 ; perimeter
G1 X134.202 Y187.279 F7800 ; move inwards before travel
G1 X132.869 Y187.687 ; move to first infill point
;TYPE:Solid infill
;WIDTH:0.422157
G1 F1800
G1 X133.147 Y187.964 E.01752 ; infill
G1 X133.019 Y188.342 E.01781 ; infill
G1 X132.851 Y188.174 E.0106 ; infill
G1 X132.709 Y188.538 E.01744 ; infill
G1 X132.891 Y188.72 E.01148 ; infill
G1 X132.763 Y189.098 E.01781 ; infill
G1 X132.567 Y188.902 E.01236 ; infill
G1 X132.425 Y189.266 E.01744 ; infill
G1 X132.635 Y189.476 E.01324 ; infill
G1 X132.507 Y189.854 E.01781 ; infill
G1 X132.283 Y189.63 E.01412 ; infill
G1 X132.141 Y189.994 E.01744 ; infill
G1 X132.379 Y190.232 E.01501 ; infill
G1 X132.251 Y190.61 E.01781 ; infill
G1 X131.999 Y190.359 E.01589 ; infill
G1 X131.857 Y190.723 E.01744 ; infill
G1 X132.123 Y190.988 E.01677 ; infill
G1 X131.995 Y191.366 E.01781 ; infill
G1 X131.715 Y191.087 E.01765 ; infill
G1 X131.574 Y191.451 E.01744 ; infill
G1 X131.867 Y191.744 E.01853 ; infill
G1 X131.739 Y192.122 E.01781 ; infill
G1 X131.432 Y191.815 E.01941 ; infill
G1 X131.29 Y192.179 E.01744 ; infill
G1 X131.611 Y192.5 E.02029 ; infill
G1 X131.483 Y192.878 E.01781 ; infill
G1 X131.148 Y192.543 E.02117 ; infill
G1 X131.006 Y192.907 E.01744 ; infill
G1 X131.355 Y193.256 E.02205 ; infill
G1 X131.227 Y193.634 E.01781 ; infill
G1 X130.864 Y193.271 E.02293 ; infill
G1 X130.722 Y193.635 E.01744 ; infill
G1 X131.099 Y194.012 E.02381 ; infill
G1 X130.971 Y194.39 E.01781 ; infill
G1 X130.58 Y193.999 E.02469 ; infill
G1 X130.438 Y194.363 E.01744 ; infill
G1 X130.843 Y194.768 E.02557 ; infill
G1 X130.715 Y195.146 E.01781 ; infill
G1 X130.296 Y194.727 E.02645 ; infill
G1 X130.154 Y195.091 E.01744 ; infill
G1 X130.587 Y195.524 E.02733 ; infill
G1 X130.46 Y195.902 E.01781 ; infill
G1 X130.012 Y195.455 E.02821 ; infill
G1 X129.871 Y195.819 E.01744 ; infill
G1 X130.332 Y196.28 E.0291 ; infill
G1 X130.204 Y196.658 E.01781 ; infill
G1 X129.729 Y196.183 E.02998 ; infill
G1 X129.587 Y196.547 E.01744 ; infill
G1 X130.076 Y197.036 E.03086 ; infill
G1 X129.948 Y197.414 E.01781 ; infill
G1 X129.445 Y196.911 E.03174 ; infill
G1 X129.303 Y197.276 E.01744 ; infill
G1 X129.82 Y197.792 E.03262 ; infill
G1 X129.692 Y198.17 E.01781 ; infill
G1 X129.161 Y197.64 E.0335 ; infill
G1 X129.019 Y198.004 E.01744 ; infill
G1 X129.564 Y198.548 E.03438 ; infill
G1 X129.436 Y198.926 E.01781 ; infill
G1 X128.877 Y198.368 E.03526 ; infill
G1 X128.735 Y198.732 E.01744 ; infill
G1 X129.434 Y199.431 E.04411 ; infill
G1 E-3.5 F3600 ; retract
;WIPE_START
G1 F6240
G1 X128.735 Y198.732 E-.54171 ; wipe and retract
G1 X128.877 Y198.368 E-.21415 ; wipe and retract
G1 X129.436 Y198.926 E-.43306 ; wipe and retract
G1 X129.564 Y198.548 E-.21873 ; wipe and retract
G1 X129.541 Y198.526 E-.01735 ; wipe and retract
;WIPE_END
G1 E-.075 F3600 ; retract
G1 Z4.3 F7800 ; lift Z
G1 X107.232 Y115.749 ; move to first perimeter point
G1 Z.3 ; restore layer Z
G1 E5 F2400 ;  ; unretract
;TYPE:Perimeter
;WIDTH:0.633747
G1 F1800
G1 X107.161 Y115.746 E.00501 ; perimeter
;WIDTH:0.587698
G1 X107.091 Y115.744 E.0046 ; perimeter
;WIDTH:0.54165
G1 X107.02 Y115.741 E.0042 ; perimeter
;WIDTH:0.495602
G1 X106.95 Y115.738 E.00379 ; perimeter
;WIDTH:0.449553
G1 X106.879 Y115.735 E.00339 ; perimeter
;WIDTH:0.403505
G1 X106.809 Y115.733 E.00298 ; perimeter
;WIDTH:0.406728
G1 X104.63 Y114.857 E.10025 ; perimeter
;WIDTH:0.456
G1 X102.452 Y113.981 E.11468 ; perimeter
;WIDTH:0.505272
G1 X100.073 Y113.027 E.14095 ; perimeter
G1 X100.23 Y112.605 E.02477 ; perimeter
G1 X102.602 Y113.62 E.14182 ; perimeter
;WIDTH:0.456
G1 X104.761 Y114.541 E.11468 ; perimeter
;WIDTH:0.406728
G1 X106.921 Y115.462 E.10025 ; perimeter
;WIDTH:0.403505
G1 X106.973 Y115.51 E.00298 ; perimeter
;WIDTH:0.449553
G1 X107.024 Y115.558 E.00339 ; perimeter
;WIDTH:0.495602
G1 X107.076 Y115.606 E.00379 ; perimeter
;WIDTH:0.54165
G1 X107.128 Y115.653 E.0042 ; perimeter
;WIDTH:0.587698
G1 X107.18 Y115.701 E.0046 ; perimeter
;WIDTH:0.633747
G1 X107.187 Y115.708 E.00075 ; perimeter
G1 E-3.5 F3600 ; retract
;WIPE_START
G1 F6240
G1 X107.161 Y115.746 E-.02535 ; wipe and retract
G1 X107.091 Y115.744 E-.03865 ; wipe and retract
G1 X107.02 Y115.741 E-.03865 ; wipe and retract
G1 X106.95 Y115.738 E-.03865 ; wipe and retract
G1 X106.879 Y115.735 E-.03865 ; wipe and retract
G1 X106.809 Y115.733 E-.03865 ; wipe and retract
G1 X104.766 Y114.912 E-1.2064 ; wipe and retract
;WIPE_END
G1 E-.075 F3600 ; retract
G1 Z4.3 F7800 ; lift Z
G1 X110.595 Y116.721 ; move to first perimeter point
G1 Z.3 ; restore layer Z
G1 E5 F2400 ;  ; unretract
;WIDTH:0.42
G1 F1800
G1 X110.313 Y117.447 E.03455 ; perimeter
G1 X99.566 Y113.257 E.51165 ; perimeter
G1 X100.009 Y112.073 E.05607 ; perimeter
G1 X110.54 Y116.697 E.51012 ; perimeter
G1 X111.05 Y116.532 F7800 ; move to first perimeter point
;TYPE:External perimeter
G1 F1800
G1 X110.516 Y117.908 E.06545 ; perimeter
G1 X99.113 Y113.462 E.54286 ; perimeter
G1 X99.812 Y111.598 E.0883 ; perimeter
G1 X110.995 Y116.508 E.54171 ; perimeter
G1 X110.748 Y116.795 F7800 ; move inwards before travel
G1 X110.087 Y116.932 ; move to first perimeter point
;TYPE:Perimeter
;WIDTH:0.547291
G1 F1800
G1 X109.135 Y116.538 E.06205 ; perimeter
;WIDTH:0.590519
G1 X108.183 Y116.143 E.0676 ; perimeter
;WIDTH:0.633747
G1 X107.232 Y115.749 E.07315 ; perimeter
G1 E-3.5 F3600 ; retract
;WIPE_START
G1 F6240
G1 X108.183 Y116.143 E-.56459 ; wipe and retract
G1 X109.135 Y116.538 E-.56459 ; wipe and retract
G1 X109.634 Y116.744 E-.29581 ; wipe and retract
;WIPE_END
G1 E-.075 F3600 ; retract
G1 Z4.3 F7800 ; lift Z
G1 X97.69 Y114.122 ; move to first perimeter point
G1 Z.3 ; restore layer Z
G1 E5 F2400 ;  ; unretract
;WIDTH:0.42
G1 F1800
G1 X97.439 Y114.888 E.03575 ; perimeter
G1 X87.367 Y111.478 E.47165 ; perimeter
G1 X87.807 Y110.269 E.05707 ; perimeter
G1 X97.634 Y114.1 E.46782 ; perimeter
G1 X98.136 Y113.914 F7800 ; move to first perimeter point
G1 F1800
G1 X97.67 Y115.341 E.0666 ; perimeter
G1 X86.908 Y111.698 E.50391 ; perimeter
G1 X87.597 Y109.806 E.08934 ; perimeter
G1 X98.08 Y113.892 E.49904 ; perimeter
G1 X98.582 Y113.706 F7800 ; move to first perimeter point
;TYPE:External perimeter
