; generated by PrusaSlicer 2.5.1+MacOS-arm64 on 2023-09-29 at 12:16:45 UTC

; 

; external perimeters extrusion width = 0.45mm
; perimeters extrusion width = 0.45mm
; infill extrusion width = 0.45mm
; solid infill extrusion width = 0.45mm
; top infill extrusion width = 0.40mm
; first layer extrusion width = 0.42mm

M107 ; disable fan
;TYPE:Custom
G90 ; use absolute coordinates
M83 ; extruder relative mode
M104 S0 ; set extruder temp
M140 S0 ; set bed temp
M190 S0 ; wait for bed temp
M109 S0 ; wait for extruder temp
G28 ; home all
G1 Z2 F240
G1 X2 Y10 F3000
G1 Z0.28 F240
G92 E0
G1 Y190 E15 F1500 ; intro line
G1 X2.3 F5000
G92 E0
G1 Y10 E15 F1200 ; intro line
G92 E0
G21 ; set units to millimeters
G90 ; use absolute coordinates
M83 ; use relative distances for extrusion
; Filament gcode
M107 ; disable fan
;LAYER_CHANGE
;Z:0.3
;HEIGHT:0.3
;BEFORE_LAYER_CHANGE
G92 E0
;0.3


G1 E-5 F3600 ; retract
G1 Z4 F7800 ; lift Z
;AFTER_LAYER_CHANGE
;0.3
G1 X96.071 Y188.245 ; move to first perimeter point
G1 Z.3 ; restore layer Z
G1 E5 F2400 ;  ; unretract
;TYPE:External perimeter
;WIDTH:0.404381
G1 F1800
G1 X96.071 Y156.021 E1.36649 ; perimeter
G1 X96.157 Y155.848 E.00821 ; perimeter
G1 X96.34 Y155.724 E.00937 ; perimeter
G1 X97.018 Y155.463 E.0308 ; perimeter
G1 X98.074 Y155.192 E.04626 ; perimeter
G1 X100.104 Y154.792 E.08775 ; perimeter
G1 X104.632 Y153.981 E.19505 ; perimeter
G1 X105.935 Y153.71 E.05644 ; perimeter
G1 X106.98 Y153.439 E.0458 ; perimeter
G1 X108.156 Y152.989 E.05338 ; perimeter
G1 X108.978 Y152.534 E.03985 ; perimeter
G1 X109.243 Y152.316 E.01454 ; perimeter
G1 X109.386 Y152.115 E.01046 ; perimeter
G1 X109.484 Y151.839 E.01241 ; perimeter
G1 X109.471 Y151.571 E.01137 ; perimeter
G1 X109.292 Y151.295 E.01395 ; perimeter
G1 X109.017 Y151.05 E.01562 ; perimeter
G1 X108.174 Y150.571 E.04114 ; perimeter
G1 X107.599 Y150.329 E.02643 ; perimeter
G1 X106.854 Y150.06 E.03359 ; perimeter
G1 X106.09 Y149.819 E.03399 ; perimeter
G1 X104.325 Y149.337 E.0776 ; perimeter
G1 X101.933 Y148.772 E.1042 ; perimeter
G1 X99.415 Y148.235 E.1092 ; perimeter
G1 X91.357 Y146.589 E.34874 ; perimeter
G1 X89.233 Y146.116 E.09229 ; perimeter
G1 X87.535 Y145.705 E.07411 ; perimeter
G1 X85.731 Y145.195 E.07949 ; perimeter
G1 X85.002 Y144.951 E.0326 ; perimeter
G1 X84.364 Y144.71 E.02892 ; perimeter
G1 X83.462 Y144.278 E.0424 ; perimeter
G1 X82.976 Y143.959 E.02469 ; perimeter
G1 X82.743 Y143.7 E.01476 ; perimeter
G1 X82.696 Y143.061 E.02719 ; perimeter
G1 X82.795 Y142.886 E.0085 ; perimeter
G1 X83.186 Y142.566 E.02142 ; perimeter
G1 X83.627 Y142.299 E.02188 ; perimeter
G1 X84.198 Y142.028 E.0268 ; perimeter
G1 X84.887 Y141.758 E.03136 ; perimeter
G1 X85.772 Y141.462 E.03956 ; perimeter
G1 X87.694 Y140.925 E.08464 ; perimeter
G1 X90.068 Y140.361 E.10347 ; perimeter
G1 X92.835 Y139.772 E.11998 ; perimeter
G1 X101.013 Y138.099 E.35398 ; perimeter
G1 X103.169 Y137.613 E.09372 ; perimeter
G1 X104.998 Y137.156 E.07994 ; perimeter
G1 X106.734 Y136.648 E.0767 ; perimeter
G1 X107.496 Y136.379 E.03428 ; perimeter
G1 X108.083 Y136.138 E.02692 ; perimeter
G1 X108.756 Y135.783 E.03223 ; perimeter
G1 X109.144 Y135.508 E.02017 ; perimeter
G1 X109.413 Y135.234 E.01631 ; perimeter
G1 X109.482 Y135.046 E.00848 ; perimeter
G1 X109.448 Y134.761 E.01217 ; perimeter
G1 X109.307 Y134.417 E.01577 ; perimeter
G1 X109.116 Y134.233 E.01123 ; perimeter
G1 X108.664 Y133.938 E.02291 ; perimeter
G1 X108.132 Y133.668 E.02526 ; perimeter
G1 X107.623 Y133.455 E.02342 ; perimeter
G1 X106.961 Y133.214 E.02989 ; perimeter
G1 X106.029 Y132.917 E.04145 ; perimeter
G1 X104.672 Y132.541 E.05974 ; perimeter
G1 X102.091 Y131.923 E.11254 ; perimeter
G1 X99.064 Y131.28 E.1312 ; perimeter
G1 X91.522 Y129.741 E.32643 ; perimeter
G1 X89.216 Y129.229 E.10018 ; perimeter
G1 X87.36 Y128.774 E.08104 ; perimeter
G1 X85.756 Y128.318 E.07071 ; perimeter
G1 X85.024 Y128.076 E.03268 ; perimeter
G1 X84.317 Y127.808 E.03209 ; perimeter
G1 X83.783 Y127.557 E.025 ; perimeter
G1 X83.268 Y127.275 E.02491 ; perimeter
G1 X82.934 Y127.013 E.01801 ; perimeter
G1 X82.671 Y126.626 E.01983 ; perimeter
G1 X82.662 Y126.302 E.01377 ; perimeter
G1 X82.898 Y125.922 E.01896 ; perimeter
G1 X83.383 Y125.554 E.02579 ; perimeter
G1 X83.828 Y125.312 E.02149 ; perimeter
G1 X84.375 Y125.069 E.02538 ; perimeter
G1 X84.939 Y124.855 E.02561 ; perimeter
G1 X85.745 Y124.585 E.03601 ; perimeter
G1 X87.661 Y124.047 E.08439 ; perimeter
G1 X90.03 Y123.482 E.10329 ; perimeter
G1 X92.534 Y122.945 E.10862 ; perimeter
G1 X100.977 Y121.224 E.36538 ; perimeter
G1 X103.251 Y120.713 E.09885 ; perimeter
G1 X104.866 Y120.311 E.07058 ; perimeter
G1 X105.837 Y120.043 E.0427 ; perimeter
G1 X106.708 Y119.774 E.03864 ; perimeter
G1 X107.404 Y119.532 E.03125 ; perimeter
G1 X108.002 Y119.291 E.02735 ; perimeter
G1 X108.558 Y119.024 E.02616 ; perimeter
G1 X109.001 Y118.753 E.02204 ; perimeter
G1 X109.332 Y118.45 E.019 ; perimeter
G1 X109.466 Y118.018 E.01919 ; perimeter
G1 X109.452 Y117.733 E.01213 ; perimeter
G1 X109.23 Y117.458 E.01499 ; perimeter
G1 X108.807 Y117.149 E.02221 ; perimeter
G1 X108.096 Y116.768 E.03421 ; perimeter
G1 X107.628 Y116.58 E.02137 ; perimeter
G1 X106.182 Y116.065 E.0651 ; perimeter
G1 X105.056 Y115.743 E.04966 ; perimeter
G1 X103.759 Y115.42 E.0567 ; perimeter
G1 X99.587 Y114.453 E.18161 ; perimeter
G1 X97.803 Y113.971 E.07835 ; perimeter
G1 X96.894 Y113.649 E.04087 ; perimeter
G1 X96.304 Y113.333 E.0284 ; perimeter
G1 X96.119 Y113.141 E.01131 ; perimeter
G1 X96.071 Y112.985 E.00694 ; perimeter
G1 X96.071 Y80.755 E1.36676 ; perimeter
G1 E-3.5 F3600 ; retract
;WIPE_START
G1 F6240
G1 X96.071 Y83.355 E-1.425 ; wipe and retract
;WIPE_END
G1 E-.075 F3600 ; retract
G1 Z4.3 F7800 ; lift Z
G1 X98.758 Y188.245 ; move to first perimeter point
G1 Z.3 ; restore layer Z
G1 E5 F2400 ;  ; unretract
G1 F1800
G1 X98.758 Y156.021 E1.36649 ; perimeter
G1 X98.845 Y155.848 E.00821 ; perimeter
G1 X99.027 Y155.724 E.00937 ; perimeter
G1 X99.705 Y155.463 E.0308 ; perimeter
G1 X100.762 Y155.192 E.04626 ; perimeter
G1 X102.792 Y154.792 E.08775 ; perimeter
G1 X107.319 Y153.981 E.19505 ; perimeter
G1 X108.622 Y153.71 E.05644 ; perimeter
G1 X109.667 Y153.439 E.0458 ; perimeter
G1 X110.843 Y152.989 E.05338 ; perimeter
G1 X111.666 Y152.534 E.03985 ; perimeter
G1 X111.93 Y152.316 E.01454 ; perimeter
G1 X112.073 Y152.115 E.01046 ; perimeter
G1 X112.171 Y151.839 E.01241 ; perimeter
G1 X112.158 Y151.571 E.01137 ; perimeter
G1 X111.979 Y151.295 E.01395 ; perimeter
G1 X111.705 Y151.05 E.01561 ; perimeter
G1 X110.861 Y150.571 E.04114 ; perimeter
G1 X110.287 Y150.329 E.02643 ; perimeter
G1 X109.541 Y150.06 E.03359 ; perimeter
G1 X108.777 Y149.819 E.03398 ; perimeter
G1 X107.634 Y149.499 E.05033 ; perimeter
G1 X105.568 Y148.988 E.09028 ; perimeter
G1 X103.257 Y148.476 E.10035 ; perimeter
G1 X95.716 Y146.937 E.3264 ; perimeter
G1 X92.813 Y146.321 E.12584 ; perimeter
G1 X90.222 Y145.705 E.11294 ; perimeter
G1 X88.418 Y145.195 E.07949 ; perimeter
G1 X87.689 Y144.951 E.0326 ; perimeter
G1 X87.052 Y144.71 E.02892 ; perimeter
G1 X86.15 Y144.278 E.0424 ; perimeter
G1 X85.663 Y143.959 E.02469 ; perimeter
G1 X85.43 Y143.7 E.01476 ; perimeter
G1 X85.384 Y143.061 E.02719 ; perimeter
G1 X85.483 Y142.886 E.0085 ; perimeter
G1 X85.873 Y142.566 E.02142 ; perimeter
G1 X86.314 Y142.299 E.02187 ; perimeter
G1 X86.885 Y142.028 E.02681 ; perimeter
G1 X87.574 Y141.758 E.03137 ; perimeter
G1 X88.459 Y141.462 E.03956 ; perimeter
G1 X89.869 Y141.061 E.06215 ; perimeter
G1 X91.587 Y140.631 E.07511 ; perimeter
G1 X93.86 Y140.119 E.09883 ; perimeter
G1 X102.172 Y138.418 E.35977 ; perimeter
G1 X104.807 Y137.856 E.11425 ; perimeter
G1 X107.173 Y137.292 E.10316 ; perimeter
G1 X108.643 Y136.888 E.06462 ; perimeter
G1 X109.421 Y136.648 E.03454 ; perimeter
G1 X110.183 Y136.379 E.03428 ; perimeter
G1 X110.771 Y136.138 E.02692 ; perimeter
G1 X111.443 Y135.783 E.03223 ; perimeter
G1 X111.831 Y135.508 E.02017 ; perimeter
G1 X112.1 Y135.233 E.01631 ; perimeter
G1 X112.169 Y135.046 E.00848 ; perimeter
G1 X112.135 Y134.761 E.01217 ; perimeter
G1 X111.994 Y134.417 E.01577 ; perimeter
G1 X111.803 Y134.233 E.01123 ; perimeter
G1 X111.351 Y133.938 E.02291 ; perimeter
G1 X110.819 Y133.668 E.02527 ; perimeter
G1 X110.31 Y133.455 E.02342 ; perimeter
G1 X109.648 Y133.214 E.02989 ; perimeter
G1 X108.717 Y132.917 E.04145 ; perimeter
G1 X107.767 Y132.648 E.04185 ; perimeter
G1 X105.948 Y132.194 E.07949 ; perimeter
G1 X103.676 Y131.682 E.09877 ; perimeter
G1 X95.238 Y129.956 E.36526 ; perimeter
G1 X92.611 Y129.392 E.1139 ; perimeter
G1 X90.256 Y128.829 E.10272 ; perimeter
G1 X88.443 Y128.318 E.07985 ; perimeter
G1 X87.711 Y128.076 E.03269 ; perimeter
G1 X87.004 Y127.808 E.03209 ; perimeter
G1 X86.47 Y127.557 E.025 ; perimeter
G1 X85.955 Y127.275 E.02491 ; perimeter
G1 X85.626 Y127.018 E.01771 ; perimeter
G1 X85.425 Y126.768 E.0136 ; perimeter
G1 X85.327 Y126.438 E.0146 ; perimeter
G1 X85.393 Y126.181 E.01124 ; perimeter
G1 X85.586 Y125.922 E.01369 ; perimeter
G1 X86.07 Y125.554 E.02579 ; perimeter
G1 X86.515 Y125.312 E.0215 ; perimeter
G1 X87.062 Y125.069 E.02538 ; perimeter
G1 X87.626 Y124.855 E.0256 ; perimeter
G1 X88.432 Y124.585 E.03602 ; perimeter
G1 X90.241 Y124.075 E.0797 ; perimeter
G1 X92.717 Y123.482 E.10798 ; perimeter
G1 X95.222 Y122.945 E.10862 ; perimeter
G1 X103.538 Y121.251 E.3599 ; perimeter
G1 X105.823 Y120.741 E.09928 ; perimeter
G1 X107.553 Y120.311 E.07563 ; perimeter
G1 X108.524 Y120.043 E.0427 ; perimeter
G1 X109.395 Y119.774 E.03864 ; perimeter
G1 X110.091 Y119.532 E.03125 ; perimeter
G1 X110.689 Y119.291 E.02735 ; perimeter
G1 X111.245 Y119.024 E.02616 ; perimeter
G1 X111.689 Y118.753 E.02204 ; perimeter
G1 X112.019 Y118.45 E.019 ; perimeter
G1 X112.153 Y118.018 E.01919 ; perimeter
G1 X112.139 Y117.733 E.01213 ; perimeter
G1 X111.917 Y117.458 E.01499 ; perimeter
G1 X111.494 Y117.149 E.02221 ; perimeter
G1 X110.783 Y116.768 E.03421 ; perimeter
G1 X110.316 Y116.58 E.02137 ; perimeter
G1 X108.869 Y116.065 E.0651 ; perimeter
G1 X107.743 Y115.743 E.04966 ; perimeter
G1 X106.446 Y115.42 E.0567 ; perimeter
G1 X102.274 Y114.453 E.18161 ; perimeter
G1 X100.49 Y113.971 E.07835 ; perimeter
G1 X99.582 Y113.649 E.04087 ; perimeter
G1 X98.991 Y113.333 E.0284 ; perimeter
G1 X98.806 Y113.141 E.01131 ; perimeter
G1 X98.758 Y112.985 E.00694 ; perimeter
G1 X98.758 Y80.755 E1.36676 ; perimeter
G1 E-3.5 F3600 ; retract
;WIPE_START
G1 F6240
G1 X98.758 Y83.355 E-1.425 ; wipe and retract
;WIPE_END
G1 E-.075 F3600 ; retract
G1 Z4.3 F7800 ; lift Z
G1 X101.445 Y188.245 ; move to first perimeter point
G1 Z.3 ; restore layer Z
G1 E5 F2400 ;  ; unretract
G1 F1800
G1 X101.445 Y156.021 E1.36649 ; perimeter
G1 X101.532 Y155.848 E.00821 ; perimeter
G1 X101.714 Y155.724 E.00937 ; perimeter
G1 X102.392 Y155.463 E.0308 ; perimeter
G1 X103.449 Y155.192 E.04626 ; perimeter
G1 X105.479 Y154.792 E.08775 ; perimeter
G1 X110.006 Y153.981 E.19505 ; perimeter
G1 X111.31 Y153.71 E.05644 ; perimeter
G1 X112.355 Y153.439 E.0458 ; perimeter
G1 X113.53 Y152.989 E.05338 ; perimeter
G1 X114.353 Y152.534 E.03985 ; perimeter
G1 X114.617 Y152.316 E.01454 ; perimeter
G1 X114.76 Y152.115 E.01046 ; perimeter
G1 X114.858 Y151.839 E.01241 ; perimeter
G1 X114.845 Y151.571 E.01137 ; perimeter
G1 X114.667 Y151.295 E.01395 ; perimeter
G1 X114.392 Y151.05 E.01562 ; perimeter
G1 X113.548 Y150.571 E.04114 ; perimeter
G1 X112.974 Y150.329 E.02643 ; perimeter
G1 X112.229 Y150.06 E.0336 ; perimeter
G1 X111.465 Y149.819 E.03397 ; perimeter
G1 X109.699 Y149.337 E.0776 ; perimeter
G1 X107.308 Y148.772 E.1042 ; perimeter
G1 X104.789 Y148.235 E.1092 ; perimeter
G1 X96.732 Y146.589 E.34874 ; perimeter
G1 X94.608 Y146.116 E.09229 ; perimeter
G1 X92.909 Y145.705 E.07411 ; perimeter
G1 X91.106 Y145.195 E.07949 ; perimeter
G1 X90.376 Y144.951 E.0326 ; perimeter
G1 X89.739 Y144.71 E.02892 ; perimeter
G1 X88.837 Y144.278 E.0424 ; perimeter
G1 X88.35 Y143.959 E.02469 ; perimeter
G1 X88.117 Y143.7 E.01476 ; perimeter
G1 X88.071 Y143.061 E.02719 ; perimeter
G1 X88.17 Y142.886 E.0085 ; perimeter
G1 X88.56 Y142.566 E.02142 ; perimeter
G1 X89.002 Y142.299 E.02187 ; perimeter
G1 X89.573 Y142.028 E.02681 ; perimeter
G1 X90.262 Y141.758 E.03137 ; perimeter
G1 X91.146 Y141.462 E.03956 ; perimeter
G1 X93.069 Y140.925 E.08464 ; perimeter
G1 X95.442 Y140.361 E.10347 ; perimeter
G1 X98.21 Y139.772 E.11998 ; perimeter
G1 X106.387 Y138.099 E.35398 ; perimeter
G1 X108.544 Y137.613 E.09372 ; perimeter
G1 X110.372 Y137.156 E.07994 ; perimeter
G1 X112.108 Y136.648 E.0767 ; perimeter
G1 X112.871 Y136.379 E.03428 ; perimeter
G1 X113.458 Y136.138 E.02692 ; perimeter
G1 X114.13 Y135.783 E.03223 ; perimeter
G1 X114.518 Y135.508 E.02017 ; perimeter
G1 X114.787 Y135.233 E.01631 ; perimeter
G1 X114.856 Y135.046 E.00848 ; perimeter
G1 X114.823 Y134.761 E.01217 ; perimeter
G1 X114.681 Y134.417 E.01577 ; perimeter
G1 X114.491 Y134.233 E.01123 ; perimeter
G1 X114.038 Y133.938 E.02291 ; perimeter
G1 X113.507 Y133.668 E.02526 ; perimeter
G1 X112.997 Y133.455 E.02343 ; perimeter
G1 X112.335 Y133.214 E.02988 ; perimeter
G1 X111.404 Y132.917 E.04145 ; perimeter
G1 X110.046 Y132.541 E.05974 ; perimeter
G1 X107.465 Y131.923 E.11255 ; perimeter
G1 X104.439 Y131.28 E.1312 ; perimeter
G1 X96.897 Y129.741 E.32643 ; perimeter
G1 X94.591 Y129.229 E.10017 ; perimeter
G1 X92.734 Y128.774 E.08104 ; perimeter
G1 X91.131 Y128.318 E.07071 ; perimeter
G1 X90.399 Y128.076 E.03269 ; perimeter
G1 X89.691 Y127.808 E.03209 ; perimeter
G1 X89.157 Y127.557 E.025 ; perimeter
G1 X88.642 Y127.275 E.02491 ; perimeter
G1 X88.308 Y127.013 E.018 ; perimeter
G1 X88.045 Y126.626 E.01983 ; perimeter
G1 X88.036 Y126.302 E.01377 ; perimeter
G1 X88.273 Y125.922 E.01896 ; perimeter
G1 X88.757 Y125.554 E.02579 ; perimeter
G1 X89.202 Y125.312 E.0215 ; perimeter
G1 X89.749 Y125.069 E.02538 ; perimeter
G1 X90.314 Y124.855 E.0256 ; perimeter
G1 X91.119 Y124.585 E.03602 ; perimeter
G1 X93.035 Y124.047 E.08439 ; perimeter
G1 X95.404 Y123.482 E.10329 ; perimeter
G1 X97.909 Y122.945 E.10862 ; perimeter
G1 X106.351 Y121.224 E.36538 ; perimeter
G1 X108.626 Y120.713 E.09885 ; perimeter
G1 X110.241 Y120.311 E.07058 ; perimeter
G1 X111.211 Y120.043 E.0427 ; perimeter
G1 X112.082 Y119.774 E.03864 ; perimeter
G1 X112.778 Y119.532 E.03125 ; perimeter
G1 X113.377 Y119.291 E.02735 ; perimeter
G1 X113.932 Y119.024 E.02616 ; perimeter
G1 X114.376 Y118.753 E.02204 ; perimeter
G1 X114.707 Y118.45 E.019 ; perimeter
G1 X114.841 Y118.018 E.01919 ; perimeter
G1 X114.826 Y117.733 E.01213 ; perimeter
G1 X114.604 Y117.458 E.01499 ; perimeter
G1 X114.181 Y117.149 E.02221 ; perimeter
G1 X113.47 Y116.768 E.03421 ; perimeter
G1 X113.003 Y116.58 E.02137 ; perimeter
G1 X111.557 Y116.065 E.0651 ; perimeter
G1 X110.431 Y115.743 E.04966 ; perimeter
G1 X109.133 Y115.42 E.0567 ; perimeter
G1 X104.961 Y114.453 E.18161 ; perimeter
G1 X103.178 Y113.971 E.07835 ; perimeter
G1 X102.269 Y113.649 E.04087 ; perimeter
G1 X101.678 Y113.333 E.0284 ; perimeter
G1 X101.493 Y113.141 E.01131 ; perimeter
G1 X101.445 Y112.985 E.00694 ; perimeter
G1 X101.445 Y80.755 E1.36676 ; perimeter
G1 E-3.5 F3600 ; retract
;WIPE_START
G1 F6240
G1 X101.445 Y83.355 E-1.425 ; wipe and retract
;WIPE_END
G1 E-.075 F3600 ; retract
G1 Z4.3 F7800 ; lift Z
G1 X104.132 Y188.245 ; move to first perimeter point
G1 Z.3 ; restore layer Z
G1 E5 F2400 ;  ; unretract
G1 F1800
G1 X104.132 Y156.021 E1.36649 ; perimeter
G1 X104.219 Y155.848 E.00821 ; perimeter
G1 X104.401 Y155.724 E.00937 ; perimeter
G1 X105.079 Y155.463 E.0308 ; perimeter
G1 X106.136 Y155.192 E.04626 ; perimeter
G1 X108.166 Y154.792 E.08775 ; perimeter
G1 X112.694 Y153.981 E.19505 ; perimeter
G1 X113.997 Y153.71 E.05644 ; perimeter
G1 X115.042 Y153.439 E.0458 ; perimeter
G1 X116.218 Y152.989 E.05339 ; perimeter
G1 X117.04 Y152.534 E.03985 ; perimeter
G1 X117.304 Y152.316 E.01454 ; perimeter
G1 X117.447 Y152.115 E.01046 ; perimeter
G1 X117.545 Y151.839 E.01241 ; perimeter
G1 X117.532 Y151.571 E.01137 ; perimeter
G1 X117.354 Y151.295 E.01395 ; perimeter
G1 X117.079 Y151.05 E.01562 ; perimeter
G1 X116.236 Y150.571 E.04114 ; perimeter
