; generated by PrusaSlicer 2.5.1+MacOS-arm64 on 2023-10-02 at 21:24:57 UTC

;

; external perimeters extrusion width = 0.45mm
; perimeters extrusion width = 0.45mm
; infill extrusion width = 0.45mm
; solid infill extrusion width = 0.45mm
; top infill extrusion width = 0.40mm
; first layer extrusion width = 0.42mm

M107 ; disable fan
;TYPE:Custom
G90 ; use absolute coordinates
M83 ; extruder relative mode
M104 S0 ; set extruder temp
M140 S0 ; set bed temp
M190 S0 ; wait for bed temp
M109 S0 ; wait for extruder temp
G28 ; home all
G1 Z2 F240
G1 X2 Y10 F3000
G1 Z0.28 F240
G92 E0
G1 Y190 E15 F1500 ; intro line
G1 X2.3 F5000
G92 E0
G1 Y10 E15 F1200 ; intro line
G92 E0
G21 ; set units to millimeters
G90 ; use absolute coordinates
M83 ; use relative distances for extrusion
; Filament gcode
M107 ; disable fan
;LAYER_CHANGE
;Z:0.3
;HEIGHT:0.3
;BEFORE_LAYER_CHANGE
G92 E0
;0.3


G1 E-5 F3600 ; retract
G1 Z4 F7800 ; lift Z
;AFTER_LAYER_CHANGE
;0.3
G1 X197.877 Y204.325 ; move to first perimeter point
G1 Z.3 ; restore layer Z
G1 E5 F2400 ;  ; unretract
;TYPE:External perimeter
;WIDTH:0.404381
G1 Z3 F10000
G0 X-0.8956 Y-15.6250 F15000
G1 Z6 F6000
G1 X-0.8956 Y-15.6233 F10000
G1 X-0.8956 Y-15.6182 F10000
G1 X-0.8956 Y-15.6098 F10000
G1 X-0.8956 Y-15.5980 F10000
G1 X-0.8956 Y-15.5829 F10000
G1 X-0.8956 Y-15.5645 F10000
G1 X-0.8956 Y-15.5428 F10000
G1 X-0.8956 Y-15.5179 F10000
G1 X-0.8956 Y-15.4898 F10000
G1 X-0.8956 Y-15.4584 F10000
G1 X-0.8956 Y-15.4239 F10000
G1 X-0.8956 Y-15.3861 F10000
G1 X-0.8956 Y-15.3453 F10000
G1 X-0.8956 Y-15.3013 F10000
G1 X-0.8956 Y-15.2542 F10000
G1 X-0.8956 Y-15.2040 F10000
G1 X-0.8956 Y-15.1508 F10000
G1 X-0.8956 Y-15.0945 F10000
G1 X-0.8956 Y-15.0352 F10000
G1 X-0.8956 Y-14.9730 F10000
G1 X-0.8956 Y-14.9077 F10000
G1 X-0.8956 Y-14.8395 F10000
G1 X-0.8956 Y-14.7684 F10000
G1 X-0.8956 Y-14.6943 F10000
G1 X-0.8956 Y-14.6174 F10000
G1 X-0.8956 Y-14.5376 F10000
G1 X-0.8956 Y-14.4549 F10000
G1 X-0.8956 Y-14.3694 F10000
G1 X-0.8956 Y-14.2812 F10000
G1 X-0.8956 Y-14.1901 F10000
G1 X-0.8956 Y-14.0963 F10000
G1 X-0.8956 Y-13.9997 F10000
G1 X-0.8956 Y-13.9005 F10000
G1 X-0.8956 Y-13.7985 F10000
G1 X-0.8956 Y-13.6939 F10000
G1 X-0.8956 Y-13.5866 F10000
G1 X-0.8956 Y-13.4767 F10000
G1 X-0.8956 Y-13.3641 F10000
G1 X-0.8956 Y-13.2490 F10000
G1 X-0.8956 Y-13.1314 F10000
G1 X-0.8956 Y-13.0111 F10000
G1 X-0.8956 Y-12.8884 F10000
G1 X-0.8956 Y-12.7631 F10000
G1 X-0.8956 Y-12.6354 F10000
G1 X-0.8956 Y-12.5052 F10000
G1 X-0.8956 Y-12.3726 F10000
G1 X-0.8956 Y-12.2375 F10000
G1 X-0.8956 Y-12.1001 F10000
G1 X-0.8956 Y-11.9603 F10000
G1 X-0.8956 Y-11.8181 F10000
G1 X-0.8956 Y-11.6737 F10000
G1 X-0.8956 Y-11.5269 F10000
G1 X-0.8956 Y-11.3778 F10000
G1 X-0.8956 Y-11.2264 F10000
G1 X-0.8956 Y-11.0728 F10000
G1 X-0.8956 Y-10.9170 F10000
G1 X-0.8956 Y-10.7590 F10000
G1 X-0.8956 Y-10.5988 F10000
G1 X-0.8956 Y-10.4364 F10000
G1 X-0.8956 Y-10.2720 F10000
G1 X-0.8956 Y-10.1054 F10000
G1 X-0.8956 Y-9.9367 F10000
G1 X-0.8956 Y-9.7659 F10000
G1 X-0.8956 Y-9.5931 F10000
G1 X-0.8956 Y-9.4182 F10000
G1 X-0.8956 Y-9.2414 F10000
G1 X-0.8956 Y-9.0625 F10000
G1 X-0.8956 Y-8.8817 F10000
G1 X-0.8956 Y-8.6989 F10000
G1 X-0.8956 Y-8.5143 F10000
G1 X-0.8956 Y-8.3277 F10000
G1 X-0.8956 Y-8.1392 F10000
G1 X-0.8956 Y-7.9489 F10000
G1 X-0.8956 Y-7.7568 F10000
G1 X-0.8956 Y-7.5628 F10000
G1 X-0.8956 Y-7.3671 F10000
G1 X-0.8956 Y-7.1695 F10000
G1 X-0.8956 Y-6.9703 F10000
G1 X-0.8956 Y-6.7693 F10000
G1 X-0.8956 Y-6.5666 F10000
G1 X-0.8956 Y-6.3622 F10000
G1 X-0.8956 Y-6.1561 F10000
G1 X-0.8956 Y-5.9484 F10000
G1 X-0.8956 Y-5.7391 F10000
G1 X-0.8956 Y-5.5281 F10000
G1 X-0.8956 Y-5.3156 F10000
G1 X-0.8956 Y-5.1016 F10000
G1 X-0.8956 Y-4.8860 F10000
G1 X-0.8956 Y-4.6689 F10000
G1 X-0.8956 Y-4.4503 F10000
G1 X-0.8956 Y-4.2302 F10000
G1 X-0.8956 Y-4.0087 F10000
G1 X-0.8956 Y-3.7857 F10000
G1 X-0.8956 Y-3.5614 F10000
G1 X-0.8956 Y-3.3356 F10000
G1 X-0.8956 Y-3.1085 F10000
G1 X-0.8956 Y-2.8801 F10000
G1 X-0.8956 Y-2.6503 F10000
G1 X-0.8956 Y-2.4193 F10000
G1 X-0.8956 Y-2.1869 F10000
G1 X-0.8956 Y-1.9533 F10000
G1 X-0.8956 Y-1.7185 F10000
G1 X-0.8956 Y-1.4824 F10000
G1 X-0.8956 Y-1.2452 F10000
G1 X-0.8956 Y-1.0068 F10000
G1 X-0.8956 Y-0.7672 F10000
G1 X-0.8956 Y-0.5266 F10000
G1 X-0.8956 Y-0.2848 F10000
G1 X-0.8956 Y-0.0419 F10000
G1 X-0.8956 Y0.2020 F10000
G1 X-0.8956 Y0.4470 F10000
G1 X-0.8956 Y0.6930 F10000
G1 X-0.8956 Y0.9400 F10000
G1 X-0.8956 Y1.1880 F10000
G1 X-0.8956 Y1.4369 F10000
G1 X-0.8956 Y1.6868 F10000
G1 X-0.8956 Y1.9376 F10000
G1 X-0.8956 Y2.1892 F10000
G1 X-0.8956 Y2.4418 F10000
G1 X-0.8956 Y2.6952 F10000
G1 X-0.8956 Y2.9494 F10000
G1 X-0.8956 Y3.2044 F10000
G1 X-0.8956 Y3.4602 F10000
G1 X-0.8956 Y3.7167 F10000
G1 X-0.8956 Y3.9741 F10000
G1 X-0.8956 Y4.2321 F10000
G1 X-0.8956 Y4.4908 F10000
G1 X-0.8956 Y4.7502 F10000
G1 X-0.8956 Y5.0102 F10000
G1 X-0.8956 Y5.2709 F10000
G1 X-0.8956 Y5.5322 F10000
G1 X-0.8956 Y5.7941 F10000
G1 X-0.8956 Y6.0566 F10000
G1 X-0.8956 Y6.3196 F10000
G1 X-0.8956 Y6.5831 F10000
G1 X-0.8956 Y6.8472 F10000
G1 X-0.8956 Y7.1117 F10000
G1 X-0.8956 Y7.3767 F10000
G1 X-0.8956 Y7.6421 F10000
G1 X-0.8956 Y7.9079 F10000
G1 X-0.8956 Y8.1741 F10000
G1 X-0.8956 Y8.4408 F10000
G1 X-0.8956 Y8.7077 F10000
G1 X-0.8956 Y8.9750 F10000
G1 X-0.8956 Y9.2426 F10000
G1 X-0.8956 Y9.5105 F10000
G1 X-0.8956 Y9.7787 F10000
G1 X-0.8956 Y10.0471 F10000
G1 X-0.8956 Y10.3158 F10000
G1 X-0.8956 Y10.5846 F10000
G1 X-0.8956 Y10.8536 F10000
G1 X-0.8956 Y11.1228 F10000
G1 X-0.8956 Y11.3922 F10000
G1 X-0.8956 Y11.6616 F10000
G1 X-0.8956 Y11.9311 F10000
G1 X-0.8956 Y12.2008 F10000
G1 X-0.8956 Y12.4704 F10000
G1 X-0.8956 Y12.7401 F10000
G1 X-0.8956 Y13.0099 F10000
G1 X-0.8956 Y13.2796 F10000
G1 X-0.8956 Y13.5492 F10000
G1 X-0.8956 Y13.8189 F10000
G1 X-0.8956 Y14.0884 F10000
G1 X-0.8956 Y14.3578 F10000
G1 X-0.8956 Y14.6272 F10000
G1 X-0.8956 Y14.8964 F10000
G1 X-0.8956 Y15.1654 F10000
G1 X-0.8956 Y15.4342 F10000
G1 X-0.8956 Y15.7029 F10000
G1 X-0.8956 Y15.9713 F10000
G1 X-0.8956 Y16.2395 F10000
G1 X-0.8956 Y16.5074 F10000
G1 X-0.8956 Y16.7750 F10000
G1 X-0.8956 Y17.0423 F10000
G1 X-0.8956 Y17.3092 F10000
G1 X-0.8956 Y17.5759 F10000
G1 X-0.8956 Y17.8421 F10000
G1 X-0.8956 Y18.1079 F10000
G1 X-0.8956 Y18.3733 F10000
G1 X-0.8956 Y18.6383 F10000
G1 X-0.8956 Y18.9028 F10000
G1 X-0.8956 Y19.1669 F10000
G1 X-0.8956 Y19.4304 F10000
G1 X-0.8956 Y19.6934 F10000
G1 X-0.8956 Y19.9559 F10000
G1 X-0.8956 Y20.2178 F10000
G1 X-0.8956 Y20.4791 F10000
G1 X-0.8956 Y20.7398 F10000
G1 X-0.8956 Y20.9998 F10000
G1 X-0.8956 Y21.2592 F10000
G1 X-0.8956 Y21.5179 F10000
G1 X-0.8956 Y21.7759 F10000
G1 X-0.8956 Y22.0333 F10000
G1 X-0.8956 Y22.2898 F10000
G1 X-0.8956 Y22.5456 F10000
G1 X-0.8956 Y22.8006 F10000
G1 X-0.8956 Y23.0548 F10000
G1 X-0.8956 Y23.3082 F10000
G1 X-0.8956 Y23.5608 F10000
G1 X-0.8956 Y23.8124 F10000
G1 X-0.8956 Y24.0632 F10000
G1 X-0.8956 Y24.3131 F10000
G1 X-0.8956 Y24.5620 F10000
G1 X-0.8956 Y24.8100 F10000
G1 X-0.8956 Y25.0570 F10000
G1 X-0.8956 Y25.3030 F10000
G1 X-0.8956 Y25.5480 F10000
G1 X-0.8956 Y25.7919 F10000
G1 X-0.8956 Y26.0348 F10000
G1 X-0.8956 Y26.2766 F10000
G1 X-0.8956 Y26.5172 F10000
G1 X-0.8956 Y26.7568 F10000
G1 X-0.8956 Y26.9952 F10000
G1 X-0.8956 Y27.2324 F10000
G1 X-0.8956 Y27.4685 F10000
G1 X-0.8956 Y27.7033 F10000
G1 X-0.8956 Y27.9369 F10000
G1 X-0.8956 Y28.1693 F10000
G1 X-0.8956 Y28.4003 F10000
G1 X-0.8956 Y28.6301 F10000
G1 X-0.8956 Y28.8585 F10000
G1 X-0.8956 Y29.0856 F10000
G1 X-0.8956 Y29.3114 F10000
G1 X-0.8956 Y29.5357 F10000
G1 X-0.8956 Y29.7587 F10000
G1 X-0.8956 Y29.9802 F10000
G1 X-0.8956 Y30.2003 F10000
G1 X-0.8956 Y30.4189 F10000
G1 X-0.8956 Y30.6360 F10000
G1 X-0.8956 Y30.8516 F10000
G1 X-0.8956 Y31.0656 F10000
G1 X-0.8956 Y31.2781 F10000
G1 X-0.8956 Y31.4891 F10000
G1 X-0.8956 Y31.6984 F10000
G1 X-0.8956 Y31.9061 F10000
G1 X-0.8956 Y32.1122 F10000
G1 X-0.8956 Y32.3166 F10000
G1 X-0.8956 Y32.5193 F10000
G1 X-0.8956 Y32.7203 F10000
G1 X-0.8956 Y32.9195 F10000
G1 X-0.8956 Y33.1171 F10000
G1 X-0.8956 Y33.3128 F10000
G1 X-0.8956 Y33.5068 F10000
G1 X-0.8956 Y33.6989 F10000
G1 X-0.8956 Y33.8892 F10000
G1 X-0.8956 Y34.0777 F10000
G1 X-0.8956 Y34.2643 F10000
G1 X-0.8956 Y34.4489 F10000
G1 X-0.8956 Y34.6317 F10000
G1 X-0.8956 Y34.8125 F10000
G1 X-0.8956 Y34.9914 F10000
G1 X-0.8956 Y35.1682 F10000
G1 X-0.8956 Y35.3431 F10000
G1 X-0.8956 Y35.5159 F10000
G1 X-0.8956 Y35.6867 F10000
G1 X-0.8956 Y35.8554 F10000
G1 X-0.8956 Y36.0220 F10000
G1 X-0.8956 Y36.1864 F10000
G1 X-0.8956 Y36.3488 F10000
G1 X-0.8956 Y36.5090 F10000
G1 X-0.8956 Y36.6670 F10000
G1 X-0.8956 Y36.8228 F10000
G1 X-0.8956 Y36.9764 F10000
G1 X-0.8956 Y37.1278 F10000
G1 X-0.8956 Y37.2769 F10000
G1 X-0.8956 Y37.4237 F10000
G1 X-0.8956 Y37.5681 F10000
G1 X-0.8956 Y37.7103 F10000
G1 X-0.8956 Y37.8501 F10000
G1 X-0.8956 Y37.9875 F10000
G1 X-0.8956 Y38.1226 F10000
G1 X-0.8956 Y38.2552 F10000
G1 X-0.8956 Y38.3854 F10000
G1 X-0.8956 Y38.5131 F10000
G1 X-0.8956 Y38.6384 F10000
G1 X-0.8956 Y38.7611 F10000
G1 X-0.8956 Y38.8814 F10000
G1 X-0.8956 Y38.9990 F10000
G1 X-0.8956 Y39.1141 F10000
G1 X-0.8956 Y39.2267 F10000
G1 X-0.8956 Y39.3366 F10000
G1 X-0.8956 Y39.4439 F10000
G1 X-0.8956 Y39.5485 F10000
G1 X-0.8956 Y39.6505 F10000
G1 X-0.8956 Y39.7497 F10000
G1 X-0.8956 Y39.8463 F10000
G1 X-0.8956 Y39.9401 F10000
G1 X-0.8956 Y40.0312 F10000
G1 X-0.8956 Y40.1194 F10000
G1 X-0.8956 Y40.2049 F10000
G1 X-0.8956 Y40.2876 F10000
G1 X-0.8956 Y40.3674 F10000
G1 X-0.8956 Y40.4443 F10000
G1 X-0.8956 Y40.5184 F10000
G1 X-0.8956 Y40.5895 F10000
G1 X-0.8956 Y40.6577 F10000
G1 X-0.8956 Y40.7230 F10000
G1 X-0.8956 Y40.7852 F10000
G1 X-0.8956 Y40.8445 F10000
G1 X-0.8956 Y40.9008 F10000
G1 X-0.8956 Y40.9540 F10000
G1 X-0.8956 Y41.0042 F10000
G1 X-0.8956 Y41.0513 F10000
G1 X-0.8956 Y41.0953 F10000
G1 X-0.8956 Y41.1361 F10000
G1 X-0.8956 Y41.1739 F10000
G1 X-0.8956 Y41.2084 F10000
G1 X-0.8956 Y41.2398 F10000
G1 X-0.8956 Y41.2679 F10000
G1 X-0.8956 Y41.2928 F10000
G1 X-0.8956 Y41.3145 F10000
G1 X-0.8956 Y41.3329 F10000
G1 X-0.8956 Y41.3480 F10000
G1 X-0.8956 Y41.3598 F10000
G1 X-0.8956 Y41.3682 F10000
G1 X-0.8956 Y41.3733 F10000
G1 X-0.8956 Y41.3750 F10000
G1 X-0.8956 Y41.3750 F10000
G1 X-0.8624 Y41.3970 F10000
G1 X-0.7708 Y41.4579 F10000
G1 X-0.6326 Y41.5500 F10000
G1 X-0.4593 Y41.6656 F10000
G1 X-0.2629 Y41.7969 F10000
G1 X-0.0550 Y41.9362 F10000
G1 X0.1526 Y42.0758 F10000
G1 X0.3482 Y42.2080 F10000
G1 X0.5199 Y42.3250 F10000
G1 X0.6721 Y42.4293 F10000
G1 X0.8242 Y42.5337 F10000
G1 X0.9762 Y42.6382 F10000
G1 X1.1280 Y42.7430 F10000
G1 X1.2793 Y42.8482 F10000
G1 X1.4302 Y42.9539 F10000
G1 X1.5805 Y43.0601 F10000
G1 X1.7301 Y43.1672 F10000
G1 X1.8789 Y43.2750 F10000
G1 X2.0377 Y43.3911 F10000
G1 X2.1961 Y43.5076 F10000
G1 X2.3539 Y43.6247 F10000
G1 X2.5110 Y43.7425 F10000
G1 X2.6671 Y43.8613 F10000
G1 X2.8220 Y43.9812 F10000
G1 X2.9756 Y44.1024 F10000
G1 X3.1277 Y44.2250 F10000
G1 X3.2677 Y44.3400 F10000
G1 X3.4072 Y44.4556 F10000
G1 X3.5458 Y44.5721 F10000
G1 X3.6833 Y44.6897 F10000
G1 X3.8193 Y44.8085 F10000
G1 X3.9536 Y44.9289 F10000
G1 X4.0857 Y45.0510 F10000
G1 X4.2154 Y45.1750 F10000
G1 X4.3486 Y45.3054 F10000
G1 X4.4805 Y45.4370 F10000
G1 X4.6106 Y45.5702 F10000
G1 X4.7382 Y45.7053 F10000
G1 X4.8627 Y45.8426 F10000
G1 X4.9835 Y45.9824 F10000
G1 X5.0999 Y46.1250 F10000
G1 X5.2183 Y46.2767 F10000
G1 X5.3341 Y46.4307 F10000
G1 X5.4460 Y46.5874 F10000
G1 X5.5527 Y46.7468 F10000
G1 X5.6530 Y46.9093 F10000
G1 X5.7454 Y47.0750 F10000
G1 X5.8382 Y47.2584 F10000
G1 X5.9249 Y47.4457 F10000
G1 X6.0032 Y47.6362 F10000
G1 X6.0709 Y47.8295 F10000
G1 X6.1259 Y48.0250 F10000
G1 X6.1664 Y48.2116 F10000
G1 X6.1974 Y48.4015 F10000
G1 X6.2183 Y48.5931 F10000
G1 X6.2282 Y48.7848 F10000
G1 X6.2266 Y48.9750 F10000
G1 X6.2120 Y49.1669 F10000
G1 X6.1850 Y49.3591 F10000
G1 X6.1470 Y49.5504 F10000
G1 X6.0993 Y49.7395 F10000
G1 X6.0432 Y49.9250 F10000
G1 X5.9713 Y50.1217 F10000
G1 X5.8870 Y50.3153 F10000
G1 X5.7926 Y50.5056 F10000
G1 X5.6905 Y50.6923 F10000
G1 X5.5830 Y50.8750 F10000
G1 X5.4773 Y51.0410 F10000
G1 X5.3644 Y51.2035 F10000
G1 X5.2454 Y51.3628 F10000
G1 X5.1217 Y51.5193 F10000
G1 X4.9944 Y51.6732 F10000
G1 X4.8648 Y51.8250 F10000
G1 X4.7384 Y51.9674 F10000
G1 X4.6080 Y52.1071 F10000
G1 X4.4742 Y52.2443 F10000
G1 X4.3377 Y52.3794 F10000
G1 X4.1989 Y52.5127 F10000
G1 X4.0585 Y52.6444 F10000
G1 X3.9171 Y52.7750 F10000
G1 X3.7802 Y52.8987 F10000
G1 X3.6412 Y53.0206 F10000
G1 X3.5003 Y53.1408 F10000
G1 X3.3579 Y53.2596 F10000
G1 X3.2141 Y53.3772 F10000
G1 X3.0693 Y53.4939 F10000
G1 X2.9237 Y53.6097 F10000
G1 X2.7776 Y53.7250 F10000
G1 X2.6203 Y53.8473 F10000
G1 X2.4616 Y53.9683 F10000
G1 X2.3017 Y54.0880 F10000
G1 X2.1409 Y54.2068 F10000
G1 X1.9792 Y54.3247 F10000
G1 X1.8169 Y54.4419 F10000
G1 X1.6542 Y54.5586 F10000
G1 X1.4913 Y54.6750 F10000
G1 X1.3397 Y54.7824 F10000
G1 X1.1874 Y54.8892 F10000
G1 X1.0344 Y54.9953 F10000
G1 X0.8809 Y55.1009 F10000
G1 X0.7271 Y55.2061 F10000
G1 X0.5729 Y55.3110 F10000
G1 X0.4186 Y55.4158 F10000
G1 X0.2643 Y55.5204 F10000
G1 X0.1100 Y55.6250 F10000
G1 X-0.0473 Y55.7313 F10000
G1 X-0.2049 Y55.8372 F10000
G1 X-0.3629 Y55.9428 F10000
G1 X-0.5210 Y56.0481 F10000
G1 X-0.6793 Y56.1533 F10000
G1 X-0.8375 Y56.2585 F10000
G1 X-0.9958 Y56.3638 F10000
G1 X-1.1538 Y56.4693 F10000
G1 X-1.3117 Y56.5750 F10000
G1 X-1.4682 Y56.6800 F10000
G1 X-1.6248 Y56.7850 F10000
G1 X-1.7815 Y56.8899 F10000
G1 X-1.9380 Y56.9949 F10000
G1 X-2.0944 Y57.1001 F10000
G1 X-2.2506 Y57.2057 F10000
G1 X-2.4063 Y57.3116 F10000
G1 X-2.5616 Y57.4180 F10000
G1 X-2.7162 Y57.5250 F10000
G1 X-2.8658 Y57.6289 F10000
G1 X-3.0153 Y57.7330 F10000
G1 X-3.1646 Y57.8373 F10000
G1 X-3.3135 Y57.9420 F10000
G1 X-3.4619 Y58.0471 F10000
G1 X-3.6098 Y58.1529 F10000
G1 X-3.7569 Y58.2594 F10000
G1 X-3.9032 Y58.3667 F10000
G1 X-4.0486 Y58.4750 F10000
G1 X-4.2024 Y58.5908 F10000
G1 X-4.3558 Y58.7070 F10000
G1 X-4.5086 Y58.8239 F10000
G1 X-4.6606 Y58.9416 F10000
G1 X-4.8115 Y59.0604 F10000
G1 X-4.9610 Y59.1804 F10000
G1 X-5.1090 Y59.3019 F10000
G1 X-5.2551 Y59.4250 F10000
G1 X-5.4077 Y59.5561 F10000
G1 X-5.5595 Y59.6882 F10000
G1 X-5.7099 Y59.8216 F10000
G1 X-5.8584 Y59.9567 F10000
G1 X-6.0046 Y60.0938 F10000
G1 X-6.1479 Y60.2331 F10000
G1 X-6.2878 Y60.3750 F10000
G1 X-6.4326 Y60.5269 F10000
G1 X-6.5755 Y60.6808 F10000
G1 X-6.7154 Y60.8372 F10000
G1 X-6.8512 Y60.9964 F10000
G1 X-6.9817 Y61.1588 F10000
G1 X-7.1057 Y61.3250 F10000
G1 X-7.2124 Y61.4768 F10000
G1 X-7.3162 Y61.6310 F10000
G1 X-7.4158 Y61.7879 F10000
G1 X-7.5099 Y61.9474 F10000
G1 X-7.5970 Y62.1098 F10000
G1 X-7.6757 Y62.2750 F10000
G1 X-7.7535 Y62.4591 F10000
G1 X-7.8244 Y62.6472 F10000
G1 X-7.8863 Y62.8381 F10000
G1 X-7.9373 Y63.0311 F10000
G1 X-7.9754 Y63.2250 F10000
G1 X-8.0002 Y63.4130 F10000
G1 X-8.0145 Y63.6037 F10000
G1 X-8.0182 Y63.7953 F10000
G1 X-8.0111 Y63.9863 F10000
G1 X-7.9930 Y64.1750 F10000
G1 X-7.9619 Y64.3683 F10000
G1 X-7.9181 Y64.5611 F10000
G1 X-7.8634 Y64.7522 F10000
G1 X-7.7994 Y64.9406 F10000
G1 X-7.7280 Y65.1250 F10000
G1 X-7.6551 Y65.2899 F10000
G1 X-7.5737 Y65.4522 F10000
G1 X-7.4851 Y65.6118 F10000
G1 X-7.3908 Y65.7687 F10000
G1 X-7.2920 Y65.9232 F10000
G1 X-7.1903 Y66.0750 F10000
G1 X-7.0716 Y66.2412 F10000
G1 X-6.9462 Y66.4036 F10000
G1 X-6.8154 Y66.5628 F10000
G1 X-6.6802 Y66.7192 F10000
G1 X-6.5417 Y66.8731 F10000
G1 X-6.4013 Y67.0250 F10000
G1 X-6.2654 Y67.1671 F10000
G1 X-6.1259 Y67.3065 F10000
G1 X-5.9834 Y67.4436 F10000
G1 X-5.8384 Y67.5787 F10000
G1 X-5.6914 Y67.7121 F10000
G1 X-5.5429 Y67.8441 F10000
G1 X-5.3933 Y67.9750 F10000
G1 X-5.2498 Y68.0983 F10000
G1 X-5.1044 Y68.2198 F10000
G1 X-4.9573 Y68.3399 F10000
G1 X-4.8089 Y68.4587 F10000
G1 X-4.6592 Y68.5764 F10000
G1 X-4.5087 Y68.6933 F10000
G1 X-4.3575 Y68.8094 F10000
G1 X-4.2058 Y68.9250 F10000
G1 X-4.0620 Y69.0334 F10000
G1 X-3.9172 Y69.1408 F10000
G1 X-3.7716 Y69.2474 F10000
G1 X-3.6252 Y69.3532 F10000
G1 X-3.4782 Y69.4584 F10000
G1 X-3.3307 Y69.5630 F10000
G1 X-3.1828 Y69.6673 F10000
G1 X-3.0346 Y69.7712 F10000
G1 X-2.8863 Y69.8750 F10000
G1 X-2.7324 Y69.9822 F10000
G1 X-2.5779 Y70.0887 F10000
G1 X-2.4228 Y70.1947 F10000
G1 X-2.2674 Y70.3002 F10000
G1 X-2.1116 Y70.4054 F10000
