; generated by PrusaSlicer 2.5.1+MacOS-arm64 on 2023-10-08 at 20:04:05 UTC

; 

; external perimeters extrusion width = 0.45mm
; perimeters extrusion width = 0.45mm
; infill extrusion width = 0.45mm
; solid infill extrusion width = 0.45mm
; top infill extrusion width = 0.40mm
; first layer extrusion width = 0.42mm

M107 ; disable fan
;TYPE:Custom
G90 ; use absolute coordinates
M83 ; extruder relative mode
M104 S0 ; set extruder temp
M140 S0 ; set bed temp
M190 S0 ; wait for bed temp
M109 S0 ; wait for extruder temp
G28 ; home all
G1 Z2 F240
G1 X2 Y10 F3000
G1 Z0.28 F240
G92 E0
G1 Y190 E15 F1500 ; intro line
G1 X2.3 F5000
G92 E0
G1 Y10 E15 F1200 ; intro line
G92 E0
G21 ; set units to millimeters
G90 ; use absolute coordinates
M83 ; use relative distances for extrusion
; Filament gcode
M107 ; disable fan
;LAYER_CHANGE
;Z:0.3
;HEIGHT:0.3
;BEFORE_LAYER_CHANGE
G92 E0
;0.3


G1 E-5 F3600 ; retract
G1 Z4 F7800 ; lift Z
;AFTER_LAYER_CHANGE
;0.3
G1 X200.838 Y192.458 ; move to first perimeter point
G1 Z.3 ; restore layer Z
G1 E5 F2400 ;  ; unretract
;TYPE:Perimeter
;WIDTH:0.42
G1 F1800
G1 X200.838 Y195.801 E.14827 ; perimeter
G1 X200.088 Y195.801 E.03327 ; perimeter
G1 X200.088 Y192.458 E.14827 ; perimeter
G1 X200.778 Y192.458 E.03061 ; perimeter
G1 X201.194 Y192.103 F7800 ; move to first perimeter point
G1 F1800
G1 X201.194 Y196.157 E.17981 ; perimeter
G1 X199.732 Y196.157 E.06482 ; perimeter
G1 X199.732 Y192.103 E.17981 ; perimeter
G1 X201.134 Y192.103 E.06216 ; perimeter
G1 X201.549 Y191.747 F7800 ; move to first perimeter point
;TYPE:External perimeter
G1 F1800
G1 X201.549 Y196.512 E.21136 ; perimeter
G1 X199.377 Y196.512 E.09636 ; perimeter
G1 X199.377 Y191.747 E.21136 ; perimeter
G1 X201.489 Y191.747 E.0937 ; perimeter
G1 X201.492 Y192.143 F7800 ; move inwards before travel
G1 E-3.5 F3600 ; retract
;WIPE_START
G1 F6240
G1 X201.522 Y194.347 E-1.425 ; wipe and retract
;WIPE_END
G1 E-.075 F3600 ; retract
G1 Z4.3 F7800 ; lift Z
G1 X204.959 Y189.633 ; move to first perimeter point
G1 Z.3 ; restore layer Z
G1 E5 F2400 ;  ; unretract
;TYPE:Perimeter
G1 F1800
G1 X205.013 Y189.605 E.0027 ; perimeter
G1 X205.26 Y189.13 E.02375 ; perimeter
G1 X205.273 Y187.273 E.08238 ; perimeter
G1 X206.023 Y187.273 E.03327 ; perimeter
G1 X206.023 Y190.616 E.14827 ; perimeter
G1 X202.68 Y190.616 E.14827 ; perimeter
G1 X202.68 Y189.866 E.03327 ; perimeter
G1 X204.538 Y189.852 E.08238 ; perimeter
G1 X204.905 Y189.661 E.01838 ; perimeter
G1 X204.775 Y189.327 F7800 ; move to first perimeter point
G1 F1800
G1 X204.909 Y189.069 E.0129 ; perimeter
G1 X204.917 Y188.977 E.0041 ; perimeter
G1 X204.917 Y186.917 E.09133 ; perimeter
G1 X206.379 Y186.917 E.06482 ; perimeter
G1 X206.379 Y190.971 E.17981 ; perimeter
G1 X202.325 Y190.971 E.17981 ; perimeter
G1 X202.325 Y189.51 E.06482 ; perimeter
G1 X204.384 Y189.51 E.09133 ; perimeter
G1 X204.476 Y189.502 E.0041 ; perimeter
G1 X204.735 Y189.367 E.01294 ; perimeter
G1 X204.51 Y189.102 F7800 ; move to first perimeter point
;TYPE:External perimeter
G1 F1800
G1 X204.562 Y188.977 E.00604 ; perimeter
G1 X204.562 Y186.562 E.10711 ; perimeter
G1 X206.734 Y186.562 E.09636 ; perimeter
G1 X206.734 Y191.327 E.21136 ; perimeter
G1 X201.969 Y191.327 E.21136 ; perimeter
G1 X201.969 Y189.154 E.09637 ; perimeter
G1 X204.384 Y189.154 E.10711 ; perimeter
G1 X204.454 Y189.125 E.00337 ; perimeter
G1 X204.641 Y189.137 F7800 ; move inwards before travel
G1 E-3.5 F3600 ; retract
;WIPE_START
G1 F6240
G1 X204.562 Y188.977 E-.10057 ; wipe and retract
G1 X204.562 Y186.562 E-1.32349 ; wipe and retract
G1 X204.564 Y186.562 E-.00095 ; wipe and retract
;WIPE_END
G1 E-.075 F3600 ; retract
G1 Z4.3 F7800 ; lift Z
G1 X208.616 Y195.801 ; move to first perimeter point
G1 Z.3 ; restore layer Z
G1 E5 F2400 ;  ; unretract
;TYPE:Perimeter
G1 F1800
G1 X207.866 Y195.801 E.03327 ; perimeter
G1 X207.866 Y192.458 E.14827 ; perimeter
G1 X208.616 Y192.458 E.03327 ; perimeter
G1 X208.616 Y195.741 E.1456 ; perimeter
G1 X208.971 Y196.157 F7800 ; move to first perimeter point
G1 F1800
G1 X207.51 Y196.157 E.06482 ; perimeter
G1 X207.51 Y192.103 E.17981 ; perimeter
G1 X208.971 Y192.103 E.06482 ; perimeter
G1 X208.971 Y196.097 E.17715 ; perimeter
G1 X209.327 Y196.512 F7800 ; move to first perimeter point
;TYPE:External perimeter
G1 F1800
G1 X207.154 Y196.512 E.09637 ; perimeter
G1 X207.154 Y191.747 E.21136 ; perimeter
G1 X209.327 Y191.747 E.09637 ; perimeter
G1 X209.327 Y196.452 E.2087 ; perimeter
G1 X208.956 Y196.363 F7800 ; move inwards before travel
G1 E-3.5 F3600 ; retract
;WIPE_START
G1 F6240
G1 X207.154 Y196.512 E-1.1912 ; wipe and retract
G1 X207.154 Y196.086 E-.2338 ; wipe and retract
;WIPE_END
G1 E-.075 F3600 ; retract
G1 Z4.3 F7800 ; lift Z
G1 X211.208 Y187.273 ; move to first perimeter point
G1 Z.3 ; restore layer Z
G1 E5 F2400 ;  ; unretract
;TYPE:Perimeter
G1 F1800
G1 X211.208 Y190.616 E.14827 ; perimeter
G1 X210.458 Y190.616 E.03327 ; perimeter
G1 X210.458 Y187.273 E.14827 ; perimeter
G1 X211.148 Y187.273 E.03061 ; perimeter
G1 X211.564 Y186.917 F7800 ; move to first perimeter point
G1 F1800
G1 X211.564 Y190.971 E.17981 ; perimeter
G1 X210.103 Y190.971 E.06482 ; perimeter
G1 X210.103 Y186.917 E.17981 ; perimeter
G1 X211.504 Y186.917 E.06216 ; perimeter
G1 X211.92 Y186.562 F7800 ; move to first perimeter point
;TYPE:External perimeter
G1 F1800
G1 X211.92 Y191.327 E.21136 ; perimeter
G1 X209.747 Y191.327 E.09636 ; perimeter
G1 X209.747 Y186.562 E.21136 ; perimeter
G1 X211.86 Y186.562 E.0937 ; perimeter
G1 X211.863 Y186.958 F7800 ; move inwards before travel
G1 E-3.5 F3600 ; retract
;WIPE_START
G1 F6240
G1 X211.892 Y189.162 E-1.425 ; wipe and retract
;WIPE_END
G1 E-.075 F3600 ; retract
G1 Z4.3 F7800 ; lift Z
G1 X208.616 Y185.431 ; move to first perimeter point
G1 Z.3 ; restore layer Z
G1 E5 F2400 ;  ; unretract
;TYPE:Perimeter
G1 F1800
G1 X207.866 Y185.431 E.03327 ; perimeter
G1 X207.866 Y184.68 E.03327 ; perimeter
G1 X208.616 Y184.68 E.03327 ; perimeter
G1 X208.616 Y185.371 E.03061 ; perimeter
G1 X208.971 Y185.786 F7800 ; move to first perimeter point
G1 F1800
G1 X207.51 Y185.786 E.06482 ; perimeter
G1 X207.51 Y184.325 E.06482 ; perimeter
G1 X208.971 Y184.325 E.06482 ; perimeter
G1 X208.971 Y185.726 E.06216 ; perimeter
G1 X209.327 Y186.142 F7800 ; move to first perimeter point
;TYPE:External perimeter
G1 F1800
G1 X207.154 Y186.142 E.09637 ; perimeter
G1 X207.154 Y183.969 E.09636 ; perimeter
G1 X209.327 Y183.969 E.09637 ; perimeter
G1 X209.327 Y186.082 E.0937 ; perimeter
G1 X208.941 Y186.038 F7800 ; move inwards before travel
G1 E-3.5 F3600 ; retract
;WIPE_START
G1 F6240
G1 X207.154 Y186.142 E-1.1912 ; wipe and retract
G1 X207.154 Y185.715 E-.2338 ; wipe and retract
;WIPE_END
G1 E-.075 F3600 ; retract
G1 Z4.3 F7800 ; lift Z
G1 X218.221 Y199.459 ; move to first perimeter point
G1 Z.3 ; restore layer Z
G1 E5 F2400 ;  ; unretract
;TYPE:Perimeter
G1 F1800
G1 X218.236 Y199.347 E.00502 ; perimeter
G1 X218.236 Y197.643 E.07556 ; perimeter
G1 X219.907 Y197.643 E.07413 ; perimeter
G1 X220.282 Y197.575 E.01687 ; perimeter
G1 X220.651 Y197.288 E.02075 ; perimeter
G1 X220.815 Y196.908 E.01836 ; perimeter
G1 X220.829 Y196.754 E.00684 ; perimeter
G1 X220.829 Y191.505 E.23284 ; perimeter
G1 X220.651 Y190.971 E.02494 ; perimeter
G1 X220.282 Y190.684 E.02075 ; perimeter
G1 X219.94 Y190.616 E.01547 ; perimeter
G1 X218.236 Y190.616 E.07556 ; perimeter
G1 X218.236 Y188.944 E.07413 ; perimeter
G1 X218.198 Y188.656 E.01289 ; perimeter
G1 X218.094 Y188.431 E.01101 ; perimeter
G1 X217.946 Y188.255 E.01018 ; perimeter
G1 X217.612 Y188.064 E.0171 ; perimeter
G1 X217.347 Y188.023 E.01187 ; perimeter
G1 X215.643 Y188.023 E.07556 ; perimeter
G1 X215.643 Y186.32 E.07556 ; perimeter
G1 X215.603 Y186.055 E.01187 ; perimeter
G1 X215.472 Y185.795 E.01294 ; perimeter
G1 X215.28 Y185.602 E.01206 ; perimeter
G1 X215.019 Y185.471 E.01294 ; perimeter
G1 X214.754 Y185.431 E.01187 ; perimeter
G1 X213.051 Y185.431 E.07556 ; perimeter
G1 X213.051 Y183.727 E.07556 ; perimeter
G1 X213.011 Y183.462 E.01187 ; perimeter
G1 X212.819 Y183.128 E.0171 ; perimeter
G1 X212.643 Y182.98 E.01018 ; perimeter
G1 X212.418 Y182.876 E.01101 ; perimeter
G1 X212.162 Y182.838 E.01148 ; perimeter
G1 X210.458 Y182.838 E.07556 ; perimeter
G1 X210.458 Y179.495 E.14827 ; perimeter
G1 X221.579 Y179.495 E.49325 ; perimeter
G1 X221.579 Y203.579 E1.06822 ; perimeter
G1 X210.458 Y203.579 E.49325 ; perimeter
G1 X210.458 Y197.643 E.26326 ; perimeter
G1 X211.208 Y197.643 E.03327 ; perimeter
G1 X211.222 Y199.501 E.08238 ; perimeter
G1 X211.386 Y199.88 E.01836 ; perimeter
G1 X211.755 Y200.168 E.02075 ; perimeter
G1 X212.097 Y200.236 E.01547 ; perimeter
G1 X217.347 Y200.236 E.23284 ; perimeter
G1 X217.501 Y200.223 E.00684 ; perimeter
G1 X217.803 Y200.11 E.01432 ; perimeter
G1 X217.976 Y199.976 E.0097 ; perimeter
G1 X218.11 Y199.803 E.0097 ; perimeter
G1 X218.203 Y199.588 E.0104 ; perimeter
G1 X218.212 Y199.519 E.0031 ; perimeter
G1 X217.858 Y199.429 F7800 ; move to first perimeter point
G1 F1800
G1 X217.88 Y199.347 E.00377 ; perimeter
G1 X217.88 Y197.288 E.09133 ; perimeter
G1 X219.907 Y197.288 E.08991 ; perimeter
G1 X220.145 Y197.247 E.01068 ; perimeter
G1 X220.366 Y197.074 E.01245 ; perimeter
G1 X220.473 Y196.754 E.01496 ; perimeter
G1 X220.473 Y191.505 E.23284 ; perimeter
G1 X220.366 Y191.185 E.01496 ; perimeter
G1 X220.145 Y191.012 E.01245 ; perimeter
G1 X219.94 Y190.971 E.00928 ; perimeter
G1 X217.88 Y190.971 E.09133 ; perimeter
G1 X217.88 Y188.912 E.09133 ; perimeter
G1 X217.795 Y188.623 E.01336 ; perimeter
G1 X217.606 Y188.446 E.01151 ; perimeter
G1 X217.347 Y188.379 E.01187 ; perimeter
G1 X215.288 Y188.379 E.09133 ; perimeter
G1 X215.288 Y186.32 E.09133 ; perimeter
G1 X215.279 Y186.223 E.00432 ; perimeter
G1 X215.185 Y186.005 E.01054 ; perimeter
G1 X214.996 Y185.844 E.01099 ; perimeter
G1 X214.754 Y185.786 E.01103 ; perimeter
G1 X212.695 Y185.786 E.09133 ; perimeter
G1 X212.695 Y183.727 E.09133 ; perimeter
G1 X212.628 Y183.468 E.01187 ; perimeter
G1 X212.451 Y183.279 E.01151 ; perimeter
G1 X212.162 Y183.194 E.01336 ; perimeter
G1 X210.103 Y183.194 E.09133 ; perimeter
G1 X210.103 Y179.14 E.17981 ; perimeter
G1 X221.934 Y179.14 E.52479 ; perimeter
G1 X221.934 Y203.934 E1.09976 ; perimeter
G1 X210.103 Y203.934 E.52479 ; perimeter
G1 X210.103 Y197.288 E.29481 ; perimeter
G1 X211.564 Y197.288 E.06482 ; perimeter
G1 X211.564 Y199.347 E.09133 ; perimeter
G1 X211.671 Y199.667 E.01496 ; perimeter
G1 X211.892 Y199.839 E.01245 ; perimeter
G1 X212.097 Y199.88 E.00928 ; perimeter
G1 X217.347 Y199.88 E.23284 ; perimeter
G1 X217.621 Y199.805 E.0126 ; perimeter
G1 X217.805 Y199.621 E.01155 ; perimeter
G1 X217.842 Y199.487 E.00616 ; perimeter
G1 X217.525 Y199.347 F7800 ; move to first perimeter point
;TYPE:External perimeter
G1 F1800
G1 X217.525 Y196.932 E.10711 ; perimeter
G1 X219.94 Y196.932 E.10711 ; perimeter
G1 X220.082 Y196.861 E.00705 ; perimeter
G1 X220.117 Y196.754 E.00499 ; perimeter
G1 X220.117 Y191.505 E.23284 ; perimeter
G1 X220.082 Y191.398 E.00499 ; perimeter
G1 X219.94 Y191.327 E.00705 ; perimeter
G1 X217.525 Y191.327 E.10711 ; perimeter
G1 X217.525 Y188.912 E.10711 ; perimeter
G1 X217.467 Y188.781 E.00637 ; perimeter
G1 X217.347 Y188.734 E.0057 ; perimeter
G1 X214.932 Y188.734 E.10711 ; perimeter
G1 X214.932 Y186.32 E.10711 ; perimeter
G1 X214.88 Y186.194 E.00604 ; perimeter
G1 X214.754 Y186.142 E.00604 ; perimeter
G1 X212.34 Y186.142 E.10711 ; perimeter
G1 X212.34 Y183.727 E.10711 ; perimeter
G1 X212.293 Y183.607 E.0057 ; perimeter
G1 X212.162 Y183.549 E.00637 ; perimeter
G1 X209.747 Y183.549 E.10711 ; perimeter
G1 X209.747 Y178.784 E.21136 ; perimeter
G1 X222.29 Y178.784 E.55634 ; perimeter
G1 X222.29 Y204.29 E1.13131 ; perimeter
G1 X209.747 Y204.29 E.55634 ; perimeter
G1 X209.747 Y196.932 E.32635 ; perimeter
G1 X211.92 Y196.932 E.09636 ; perimeter
G1 X211.92 Y199.347 E.10711 ; perimeter
G1 X211.955 Y199.454 E.00499 ; perimeter
G1 X212.097 Y199.525 E.00705 ; perimeter
G1 X217.347 Y199.525 E.23284 ; perimeter
G1 X217.473 Y199.473 E.00604 ; perimeter
G1 X217.502 Y199.402 E.00337 ; perimeter
G1 X217.911 Y199.243 F7800 ; move inwards before travel
G1 E-3.5 F3600 ; retract
;WIPE_START
G1 F6240
G1 X217.525 Y196.932 E-1.35393 ; wipe and retract
G1 X217.654 Y196.932 E-.07107 ; wipe and retract
;WIPE_END
G1 E-.075 F3600 ; retract
G1 Z4.3 F7800 ; lift Z
G1 X213.051 Y192.458 ; move to first perimeter point
G1 Z.3 ; restore layer Z
G1 E5 F2400 ;  ; unretract
;TYPE:Perimeter
G1 F1800
G1 X216.394 Y192.458 E.14827 ; perimeter
G1 X216.394 Y195.801 E.14827 ; perimeter
G1 X213.051 Y195.801 E.14827 ; perimeter
G1 X213.051 Y192.518 E.1456 ; perimeter
G1 X212.695 Y192.103 F7800 ; move to first perimeter point
G1 F1800
G1 X216.749 Y192.103 E.17981 ; perimeter
G1 X216.749 Y196.157 E.17981 ; perimeter
G1 X212.695 Y196.157 E.17981 ; perimeter
G1 X212.695 Y192.163 E.17715 ; perimeter
G1 X212.34 Y191.747 F7800 ; move to first perimeter point
;TYPE:External perimeter
G1 F1800
G1 X217.105 Y191.747 E.21136 ; perimeter
G1 X217.105 Y196.512 E.21136 ; perimeter
G1 X212.34 Y196.512 E.21136 ; perimeter
G1 X212.34 Y191.807 E.2087 ; perimeter
G1 X212.726 Y191.851 F7800 ; move inwards before travel
G1 E-3.5 F3600 ; retract
;WIPE_START
G1 F6240
G1 X214.939 Y191.774 E-1.425 ; wipe and retract
;WIPE_END
G1 E-.075 F3600 ; retract
G1 Z4.3 F7800 ; lift Z
G1 X206.023 Y197.643 ; move to first perimeter point
G1 Z.3 ; restore layer Z
G1 E5 F2400 ;  ; unretract
;TYPE:Perimeter
G1 F1800
G1 X206.023 Y198.394 E.03327 ; perimeter
G1 X202.68 Y198.394 E.14827 ; perimeter
G1 X202.68 Y197.643 E.03327 ; perimeter
G1 X205.963 Y197.643 E.1456 ; perimeter
G1 X206.379 Y197.288 F7800 ; move to first perimeter point
G1 F1800
G1 X206.379 Y198.749 E.06482 ; perimeter
G1 X202.325 Y198.749 E.17981 ; perimeter
G1 X202.325 Y197.288 E.06482 ; perimeter
G1 X206.319 Y197.288 E.17715 ; perimeter
G1 X206.734 Y196.932 F7800 ; move to first perimeter point
;TYPE:External perimeter
G1 F1800
G1 X206.734 Y199.105 E.09636 ; perimeter
G1 X201.969 Y199.105 E.21136 ; perimeter
G1 X201.969 Y196.932 E.09636 ; perimeter
G1 X206.674 Y196.932 E.2087 ; perimeter
G1 X206.586 Y197.304 F7800 ; move inwards before travel
G1 X205.688 Y198.287 ; move to first infill point
;TYPE:Solid infill
;WIDTH:0.441903
G1 F1800
G1 X205.311 Y197.91 E.02509 ; infill
G1 X204.777 Y197.91 E.02514 ; infill
G1 X204.994 Y198.127 E.01443 ; infill
G1 X204.46 Y198.127 E.02514 ; infill
G1 X204.243 Y197.91 E.01443 ; infill
G1 X203.71 Y197.91 E.02514 ; infill
G1 X203.926 Y198.127 E.01443 ; infill
G1 X203.392 Y198.127 E.02514 ; infill
G1 X203.016 Y197.75 E.02509 ; infill
G1 E-3.5 F3600 ; retract
;WIPE_START
G1 F6240
G1 X203.392 Y198.127 E-.29203 ; wipe and retract
G1 X203.926 Y198.127 E-.29262 ; wipe and retract
G1 X203.71 Y197.91 E-.16799 ; wipe and retract
G1 X204.243 Y197.91 E-.29262 ; wipe and retract
G1 X204.46 Y198.127 E-.16799 ; wipe and retract
G1 X204.847 Y198.127 E-.21177 ; wipe and retract
;WIPE_END
G1 E-.075 F3600 ; retract
G1 Z4.3 F7800 ; lift Z
G1 X200.195 Y192.794 ; move to first infill point
G1 Z.3 ; restore layer Z
G1 E5 F2400 ;  ; unretract
G1 F1800
G1 X200.571 Y193.17 E.02509 ; infill
G1 X200.571 Y193.704 E.02514 ; infill
G1 X200.355 Y193.487 E.01443 ; infill
G1 X200.355 Y194.021 E.02514 ; infill
G1 X200.571 Y194.238 E.01443 ; infill
G1 X200.571 Y194.772 E.02514 ; infill
G1 X200.355 Y194.555 E.01443 ; infill
G1 X200.355 Y195.089 E.02514 ; infill
G1 X200.731 Y195.466 E.02509 ; infill
G1 E-3.5 F3600 ; retract
;WIPE_START
G1 F6240
G1 X200.355 Y195.089 E-.29203 ; wipe and retract
G1 X200.355 Y194.555 E-.29262 ; wipe and retract
G1 X200.571 Y194.772 E-.16799 ; wipe and retract
G1 X200.571 Y194.238 E-.29262 ; wipe and retract
G1 X200.355 Y194.021 E-.16799 ; wipe and retract
G1 X200.355 Y193.635 E-.21177 ; wipe and retract
;WIPE_END
G1 E-.075 F3600 ; retract
G1 Z4.3 F7800 ; lift Z
G1 X207.972 Y192.794 ; move to first infill point
G1 Z.3 ; restore layer Z
G1 E5 F2400 ;  ; unretract
;WIDTH:0.441904
G1 F1800
G1 X208.349 Y193.17 E.02509 ; infill
G1 X208.349 Y193.704 E.02514 ; infill
