; generated by PrusaSlicer 2.5.1+MacOS-arm64 on 2023-10-09 at 16:07:42 UTC

; 

; external perimeters extrusion width = 0.45mm
; perimeters extrusion width = 0.45mm
; infill extrusion width = 0.45mm
; solid infill extrusion width = 0.45mm
; top infill extrusion width = 0.40mm
; first layer extrusion width = 0.42mm

M107 ; disable fan
;TYPE:Custom
G90 ; use absolute coordinates
M83 ; extruder relative mode
M104 S0 ; set extruder temp
M140 S0 ; set bed temp
M190 S0 ; wait for bed temp
M109 S0 ; wait for extruder temp
G28 ; home all
G1 Z2 F240
G1 X2 Y10 F3000
G1 Z0.28 F240
G92 E0
G1 Y190 E15 F1500 ; intro line
G1 X2.3 F5000
G92 E0
G1 Y10 E15 F1200 ; intro line
G92 E0
G21 ; set units to millimeters
G90 ; use absolute coordinates
M83 ; use relative distances for extrusion
; Filament gcode
M107 ; disable fan
;LAYER_CHANGE
;Z:0.3
;HEIGHT:0.3
;BEFORE_LAYER_CHANGE
G92 E0
;0.3


G1 E-5 F3600 ; retract
G1 Z4 F7800 ; lift Z
;AFTER_LAYER_CHANGE
;0.3
G1 X121.876 Y184.095 ; move to first perimeter point
G1 Z.3 ; restore layer Z
G1 E5 F2400 ;  ; unretract
;TYPE:Perimeter
;WIDTH:0.42
G1 F1800
G1 X121.934 Y184.191 E.00499 ; perimeter
G1 X122.468 Y184.369 E.02494 ; perimeter
G1 X123.486 Y184.369 E.04514 ; perimeter
G1 X123.336 Y184.461 E.00781 ; perimeter
G1 X123.158 Y184.994 E.02494 ; perimeter
G1 X123.158 Y185.684 E.0306 ; perimeter
G1 X121.514 Y185.684 E.07289 ; perimeter
G1 X121.664 Y185.592 E.00781 ; perimeter
G1 X121.842 Y185.059 E.02494 ; perimeter
G1 X121.844 Y184.044 E.04501 ; perimeter
G1 E-3.5 F3600 ; retract
;WIPE_START
G1 F6240
G1 X121.934 Y184.191 E-.09454 ; wipe and retract
G1 X122.468 Y184.369 E-.30817 ; wipe and retract
G1 X123.486 Y184.369 E-.55781 ; wipe and retract
G1 X123.336 Y184.461 E-.09649 ; wipe and retract
G1 X123.158 Y184.994 E-.30817 ; wipe and retract
G1 X123.158 Y185.103 E-.05981 ; wipe and retract
;WIPE_END
G1 E-.075 F3600 ; retract
G1 Z4.3 F7800 ; lift Z
G1 X121.842 Y181.309 ; move to first perimeter point
G1 Z.3 ; restore layer Z
G1 E5 F2400 ;  ; unretract
G1 F1800
G1 X121.842 Y180.257 E.04666 ; perimeter
G1 X121.664 Y179.724 E.02494 ; perimeter
G1 X121.48 Y179.632 E.00913 ; perimeter
G1 X123.158 Y179.632 E.0744 ; perimeter
G1 X123.158 Y180.322 E.0306 ; perimeter
G1 X123.336 Y180.855 E.02494 ; perimeter
G1 X123.52 Y180.947 E.00913 ; perimeter
G1 X122.468 Y180.947 E.04666 ; perimeter
G1 X121.934 Y181.125 E.02494 ; perimeter
G1 X121.869 Y181.256 E.00647 ; perimeter
G1 E-3.5 F3600 ; retract
;WIPE_START
G1 F6240
G1 X121.842 Y180.257 E-.5473 ; wipe and retract
G1 X121.664 Y179.724 E-.30817 ; wipe and retract
G1 X121.48 Y179.632 E-.11286 ; wipe and retract
G1 X122.314 Y179.632 E-.45666 ; wipe and retract
;WIPE_END
G1 E-.075 F3600 ; retract
G1 Z4.3 F7800 ; lift Z
G1 X121.111 Y185.567 ; move to first perimeter point
G1 Z.3 ; restore layer Z
G1 E5 F2400 ;  ; unretract
;WIDTH:0.471784
G1 F1800
G1 X121.215 Y185.494 E.00645 ; perimeter
;WIDTH:0.445892
G1 X121.38 Y185.379 E.00958 ; perimeter
;WIDTH:0.42
G1 X121.487 Y185.059 E.01496 ; perimeter
G1 X121.487 Y184.237 E.03644 ; perimeter
;WIDTH:0.466045
G1 X121.51 Y183.48 E.03796 ; perimeter
G1 X121.51 Y181.836 E.08233 ; perimeter
G1 X121.487 Y181.079 E.03796 ; perimeter
;WIDTH:0.42
G1 X121.487 Y180.322 E.03359 ; perimeter
G1 X121.38 Y179.937 E.0177 ; perimeter
;WIDTH:0.466046
G1 X120.953 Y179.701 E.02444 ; perimeter
G1 X119.931 Y179.701 E.05122 ; perimeter
G1 X119.931 Y179.299 E.02012 ; perimeter
G1 X120.953 Y179.299 E.05122 ; perimeter
G1 X121.711 Y179.276 E.03796 ; perimeter
;WIDTH:0.42
G1 X123.513 Y179.276 E.07996 ; perimeter
G1 X123.513 Y180.289 E.04495 ; perimeter
G1 X123.62 Y180.642 E.01632 ; perimeter
;WIDTH:0.466046
G1 X124.047 Y180.878 E.02444 ; perimeter
G1 X125.092 Y180.855 E.05239 ; perimeter
;WIDTH:0.42
G1 X125.092 Y181.209 E.01569 ; perimeter
;WIDTH:0.466046
G1 X125.069 Y181.836 E.03145 ; perimeter
G1 X125.069 Y183.48 E.08233 ; perimeter
;WIDTH:0.471783
G1 X125.079 Y184.036 E.02828 ; perimeter
;WIDTH:0.445891
G1 X125.092 Y184.461 E.02022 ; perimeter
;WIDTH:0.42
G1 X124.738 Y184.461 E.01569 ; perimeter
;WIDTH:0.445892
G1 X124.344 Y184.452 E.01876 ; perimeter
;WIDTH:0.471784
G1 X123.95 Y184.443 E.02004 ; perimeter
G1 X123.785 Y184.559 E.01023 ; perimeter
;WIDTH:0.445892
G1 X123.62 Y184.674 E.00958 ; perimeter
;WIDTH:0.42
G1 X123.513 Y184.994 E.01496 ; perimeter
G1 X123.513 Y186.04 E.04637 ; perimeter
G1 X121.711 Y186.04 E.07996 ; perimeter
;WIDTH:0.466046
G1 X120.953 Y186.017 E.03796 ; perimeter
G1 X119.931 Y186.017 E.05122 ; perimeter
G1 X119.931 Y185.615 E.02012 ; perimeter
G1 X120.132 Y185.615 E.01006 ; perimeter
;WIDTH:0.471784
G1 X121.062 Y185.601 E.04727 ; perimeter
G1 X120.953 Y185.236 F7800 ; move to first perimeter point
;TYPE:External perimeter
;WIDTH:0.42
G1 F1800
G1 X121.095 Y185.165 E.00705 ; perimeter
G1 X121.131 Y185.059 E.00499 ; perimeter
G1 X121.131 Y180.322 E.2101 ; perimeter
G1 X121.095 Y180.151 E.00775 ; perimeter
G1 X120.953 Y180.079 E.00705 ; perimeter
G1 X119.552 Y180.079 E.06215 ; perimeter
G1 X119.552 Y178.921 E.0514 ; perimeter
G1 X123.869 Y178.921 E.19147 ; perimeter
G1 X123.869 Y180.289 E.06072 ; perimeter
G1 X123.905 Y180.428 E.00636 ; perimeter
G1 X124.047 Y180.499 E.00705 ; perimeter
G1 X125.448 Y180.499 E.06215 ; perimeter
G1 X125.448 Y184.816 E.19147 ; perimeter
G1 X124.047 Y184.816 E.06215 ; perimeter
G1 X123.905 Y184.887 E.00705 ; perimeter
G1 X123.869 Y184.994 E.00499 ; perimeter
G1 X123.869 Y186.395 E.06215 ; perimeter
G1 X119.552 Y186.395 E.19147 ; perimeter
G1 X119.552 Y185.236 E.0514 ; perimeter
G1 X120.893 Y185.236 E.05949 ; perimeter
G1 X121.092 Y185.314 F7800 ; move inwards before travel
G1 X122.119 Y183.866 ; move to first perimeter point
;TYPE:Perimeter
;WIDTH:0.445891
G1 F1800
G1 X122.032 Y183.741 E.00721 ; perimeter
;WIDTH:0.471783
G1 X121.917 Y183.576 E.01023 ; perimeter
G1 X121.911 Y183.48 E.00492 ; perimeter
;WIDTH:0.466045
G1 X121.911 Y181.836 E.08233 ; perimeter
G1 X122.148 Y181.409 E.02444 ; perimeter
;WIDTH:0.42
G1 X122.532 Y181.303 E.0177 ; perimeter
G1 X123.289 Y181.303 E.03359 ; perimeter
;WIDTH:0.466046
G1 X124.047 Y181.28 E.03796 ; perimeter
G1 X124.488 Y181.459 E.02388 ; perimeter
G1 X124.668 Y181.836 E.02092 ; perimeter
G1 X124.668 Y183.48 E.08233 ; perimeter
;WIDTH:0.471783
G1 X124.662 Y183.576 E.00492 ; perimeter
G1 X124.575 Y183.716 E.00838 ; perimeter
;WIDTH:0.445891
G1 X124.488 Y183.857 E.00785 ; perimeter
G1 X124.348 Y183.944 E.00785 ; perimeter
;WIDTH:0.471784
G1 X124.208 Y184.03 E.00838 ; perimeter
G1 X123.749 Y184.022 E.02334 ; perimeter
;WIDTH:0.445892
G1 X123.289 Y184.013 E.02185 ; perimeter
;WIDTH:0.42
G1 X122.468 Y184.013 E.03644 ; perimeter
G1 X122.157 Y183.91 E.01451 ; perimeter
G1 X122.361 Y183.622 F7800 ; move to first perimeter point
;TYPE:External perimeter
G1 F1800
G1 X122.29 Y183.48 E.00705 ; perimeter
G1 X122.29 Y181.836 E.07289 ; perimeter
G1 X122.361 Y181.694 E.00705 ; perimeter
G1 X122.532 Y181.658 E.00775 ; perimeter
G1 X124.111 Y181.658 E.07003 ; perimeter
G1 X124.237 Y181.71 E.00604 ; perimeter
G1 X124.289 Y181.836 E.00604 ; perimeter
G1 X124.289 Y183.48 E.07289 ; perimeter
G1 X124.237 Y183.605 E.00604 ; perimeter
G1 X124.047 Y183.657 E.00874 ; perimeter
G1 X122.468 Y183.657 E.07003 ; perimeter
G1 X122.418 Y183.641 E.00233 ; perimeter
G1 X122.209 Y183.669 F7800 ; move inwards before travel
G1 E-3.5 F3600 ; retract
;WIPE_START
G1 F6240
G1 X122.29 Y183.48 E-.11284 ; wipe and retract
G1 X122.29 Y181.836 E-.90067 ; wipe and retract
G1 X122.361 Y181.694 E-.08716 ; wipe and retract
G1 X122.532 Y181.658 E-.09576 ; wipe and retract
G1 X122.949 Y181.658 E-.22856 ; wipe and retract
;WIPE_END
G1 E-.075 F3600 ; retract
G1 Z4.3 F7800 ; lift Z
G1 X124.76 Y181.171 ; move to first perimeter point
G1 Z.3 ; restore layer Z
G1 E5 F2400 ;  ; unretract
;TYPE:Perimeter
;WIDTH:0.416331
G1 F1800
G1 X124.695 Y181.209 E.00334 ; perimeter
G1 X124.76 Y181.247 E.00334 ; perimeter
G1 X124.782 Y181.209 E.00193 ; perimeter
G1 E-3.5 F3600 ; retract
;WIPE_START
G1 F6240
G1 X124.76 Y181.247 E-.02411 ; wipe and retract
G1 X124.695 Y181.209 E-.04176 ; wipe and retract
G1 X124.76 Y181.171 E-.04176 ; wipe and retract
;WIPE_END
G1 E-1.39236 F3600 ; retract
G1 Z4.3 F7800 ; lift Z
G1 X124.76 Y184.069 ; move to first perimeter point
G1 Z.3 ; restore layer Z
G1 E5 F2400 ;  ; unretract
G1 F1800
G1 X124.695 Y184.107 E.00334 ; perimeter
G1 X124.76 Y184.145 E.00334 ; perimeter
G1 X124.782 Y184.107 E.00193 ; perimeter
G1 E-3.5 F3600 ; retract
;WIPE_START
G1 F6240
G1 X124.76 Y184.145 E-.02411 ; wipe and retract
G1 X124.695 Y184.107 E-.04176 ; wipe and retract
G1 X124.76 Y184.069 E-.04176 ; wipe and retract
;WIPE_END
G1 E-1.39236 F3600 ; retract
G1 Z4.3 F7800 ; lift Z
G1 X123.661 Y189.382 ; move to first perimeter point
G1 Z.3 ; restore layer Z
G1 E5 F2400 ;  ; unretract
;WIDTH:0.445892
G1 F1800
G1 X123.62 Y189.411 E.00238 ; perimeter
;WIDTH:0.466046
G1 X123.49 Y189.731 E.0173 ; perimeter
G1 X123.49 Y190.753 E.05122 ; perimeter
G1 X123.089 Y190.753 E.02012 ; perimeter
G1 X123.089 Y189.731 E.05122 ; perimeter
G1 X122.959 Y189.411 E.0173 ; perimeter
G1 X122.532 Y189.175 E.02444 ; perimeter
G1 X121.51 Y189.175 E.05122 ; perimeter
G1 X121.51 Y188.773 E.02012 ; perimeter
G1 X122.532 Y188.773 E.05122 ; perimeter
G1 X123.289 Y188.75 E.03796 ; perimeter
G1 X124.047 Y188.773 E.03796 ; perimeter
G1 X125.069 Y188.773 E.05122 ; perimeter
G1 X125.069 Y189.175 E.02012 ; perimeter
G1 X124.868 Y189.175 E.01006 ; perimeter
;WIDTH:0.471784
G1 X123.95 Y189.18 E.04666 ; perimeter
G1 X123.785 Y189.295 E.01023 ; perimeter
;WIDTH:0.445892
G1 X123.71 Y189.348 E.00435 ; perimeter
G1 X123.905 Y189.624 F7800 ; move to first perimeter point
;TYPE:External perimeter
;WIDTH:0.42
G1 F1800
G1 X123.869 Y189.731 E.00499 ; perimeter
G1 X123.869 Y191.132 E.06215 ; perimeter
G1 X122.71 Y191.132 E.0514 ; perimeter
G1 X122.699 Y189.669 E.06492 ; perimeter
G1 X122.532 Y189.553 E.00898 ; perimeter
G1 X121.131 Y189.553 E.06215 ; perimeter
G1 X121.131 Y188.394 E.0514 ; perimeter
G1 X125.448 Y188.394 E.19147 ; perimeter
G1 X125.448 Y189.553 E.0514 ; perimeter
G1 X124.047 Y189.553 E.06215 ; perimeter
G1 X123.958 Y189.597 E.00439 ; perimeter
G1 X123.794 Y189.602 F7800 ; move inwards before travel
G1 X123.319 Y189.112 ; move to first perimeter point
;TYPE:Perimeter
;WIDTH:0.535115
G1 F1800
G1 X123.26 Y189.112 E.00345 ; perimeter
G1 X123.231 Y189.163 E.00345 ; perimeter
G1 X123.26 Y189.214 E.00345 ; perimeter
G1 X123.319 Y189.214 E.00345 ; perimeter
G1 X123.348 Y189.163 E.00345 ; perimeter
G1 E-3.5 F3600 ; retract
;WIPE_START
G1 F6240
G1 X123.319 Y189.214 E-.03225 ; wipe and retract
G1 X123.26 Y189.214 E-.03225 ; wipe and retract
G1 X123.231 Y189.163 E-.03225 ; wipe and retract
G1 X123.26 Y189.112 E-.03225 ; wipe and retract
G1 X123.319 Y189.112 E-.03225 ; wipe and retract
;WIPE_END
G1 E-1.33875 F3600 ; retract
G1 Z4.3 F7800 ; lift Z
G1 X121.51 Y192.332 ; move to first perimeter point
G1 Z.3 ; restore layer Z
G1 E5 F2400 ;  ; unretract
;WIDTH:0.466045
G1 F1800
G1 X121.51 Y191.931 E.02012 ; perimeter
G1 X121.911 Y191.931 E.02012 ; perimeter
G1 X121.911 Y192.332 E.02012 ; perimeter
G1 X121.57 Y192.332 E.01712 ; perimeter
G1 X121.131 Y192.711 F7800 ; move to first perimeter point
;TYPE:External perimeter
;WIDTH:0.42
G1 F1800
G1 X121.131 Y191.552 E.0514 ; perimeter
G1 X122.29 Y191.552 E.0514 ; perimeter
G1 X122.29 Y192.711 E.0514 ; perimeter
G1 X121.191 Y192.711 E.04874 ; perimeter
G1 X121.235 Y192.325 F7800 ; move inwards before travel
G1 E-3.5 F3600 ; retract
;WIPE_START
G1 F6240
G1 X121.131 Y191.552 E-.63604 ; wipe and retract
G1 X122.29 Y191.552 E-.63519 ; wipe and retract
G1 X122.29 Y191.833 E-.15376 ; wipe and retract
;WIPE_END
G1 E-.075 F3600 ; retract
G1 Z4.3 F7800 ; lift Z
G1 X116.743 Y192.263 ; move to first perimeter point
G1 Z.3 ; restore layer Z
G1 E5 F2400 ;  ; unretract
;TYPE:Perimeter
G1 F1800
G1 X117.795 Y192.263 E.04666 ; perimeter
G1 X118.329 Y192.086 E.02494 ; perimeter
G1 X118.421 Y191.935 E.00781 ; perimeter
G1 X118.421 Y192.953 E.04514 ; perimeter
G1 X118.599 Y193.487 E.02494 ; perimeter
G1 X118.783 Y193.579 E.00913 ; perimeter
G1 X117.105 Y193.579 E.0744 ; perimeter
G1 X117.105 Y192.889 E.0306 ; perimeter
G1 X116.928 Y192.355 E.02494 ; perimeter
G1 X116.797 Y192.29 E.00647 ; perimeter
G1 X115.023 Y191.723 F7800 ; move to first perimeter point
;WIDTH:0.445892
G1 F1800
G1 X115.064 Y191.694 E.00238 ; perimeter
;WIDTH:0.4423
G1 X115.147 Y191.566 E.00723 ; perimeter
;WIDTH:0.466046
G1 X115.194 Y191.374 E.00986 ; perimeter
G1 X115.194 Y190.352 E.05122 ; perimeter
G1 X115.596 Y190.352 E.02012 ; perimeter
G1 X115.596 Y190.553 E.01006 ; perimeter
;WIDTH:0.468938
G1 X115.596 Y191.423 E.04391 ; perimeter
G1 X115.725 Y191.694 E.01516 ; perimeter
;WIDTH:0.466046
G1 X116.152 Y191.931 E.02444 ; perimeter
G1 X116.974 Y191.908 E.04118 ; perimeter
;WIDTH:0.42
G1 X117.731 Y191.908 E.03359 ; perimeter
G1 X118.115 Y191.801 E.0177 ; perimeter
;WIDTH:0.445891
G1 X118.231 Y191.636 E.00958 ; perimeter
;WIDTH:0.471782
G1 X118.346 Y191.471 E.01023 ; perimeter
G1 X118.352 Y191.31 E.00819 ; perimeter
;WIDTH:0.466045
G1 X118.329 Y190.553 E.03796 ; perimeter
G1 X118.352 Y189.795 E.03796 ; perimeter
G1 X118.352 Y187.194 E.13033 ; perimeter
G1 X118.753 Y187.194 E.02012 ; perimeter
G1 X118.753 Y189.795 E.13033 ; perimeter
;WIDTH:0.471783
G1 X118.759 Y189.892 E.00492 ; perimeter
G1 X118.874 Y190.057 E.01023 ; perimeter
;WIDTH:0.445891
G1 X118.99 Y190.222 E.00958 ; perimeter
;WIDTH:0.4423
G1 X119.119 Y190.305 E.00723 ; perimeter
;WIDTH:0.466046
G1 X119.31 Y190.352 E.00986 ; perimeter
G1 X120.332 Y190.352 E.05122 ; perimeter
G1 X120.332 Y190.753 E.02012 ; perimeter
G1 X120.132 Y190.753 E.01006 ; perimeter
;WIDTH:0.468938
G1 X119.261 Y190.754 E.04391 ; perimeter
G1 X118.99 Y190.883 E.01516 ; perimeter
;WIDTH:0.466045
G1 X118.753 Y191.31 E.02444 ; perimeter
;WIDTH:0.471782
G1 X118.764 Y191.819 E.02587 ; perimeter
;WIDTH:0.445891
G1 X118.776 Y192.132 E.01489 ; perimeter
;WIDTH:0.42
G1 X118.776 Y192.889 E.03359 ; perimeter
G1 X118.883 Y193.273 E.0177 ; perimeter
;WIDTH:0.466046
G1 X119.31 Y193.51 E.02444 ; perimeter
G1 X120.332 Y193.51 E.05122 ; perimeter
G1 X120.332 Y193.911 E.02012 ; perimeter
G1 X119.31 Y193.911 E.05122 ; perimeter
G1 X118.553 Y193.934 E.03796 ; perimeter
;WIDTH:0.42
G1 X116.75 Y193.934 E.07996 ; perimeter
G1 X116.75 Y192.921 E.04495 ; perimeter
G1 X116.643 Y192.569 E.01632 ; perimeter
;WIDTH:0.466046
G1 X116.216 Y192.332 E.02444 ; perimeter
G1 X115.395 Y192.355 E.04118 ; perimeter
G1 X114.637 Y192.332 E.03796 ; perimeter
G1 X113.615 Y192.332 E.05122 ; perimeter
G1 X113.615 Y191.931 E.02012 ; perimeter
G1 X113.816 Y191.931 E.01006 ; perimeter
;WIDTH:0.471784
G1 X114.734 Y191.925 E.04666 ; perimeter
G1 X114.899 Y191.81 E.01023 ; perimeter
;WIDTH:0.445892
G1 X114.974 Y191.757 E.00435 ; perimeter
G1 X114.78 Y191.481 F7800 ; move to first perimeter point
;TYPE:External perimeter
;WIDTH:0.42
G1 F1800
G1 X114.815 Y191.374 E.00499 ; perimeter
G1 X114.815 Y189.973 E.06215 ; perimeter
G1 X115.974 Y189.973 E.0514 ; perimeter
G1 X115.986 Y191.437 E.06492 ; perimeter
G1 X116.152 Y191.552 E.00898 ; perimeter
G1 X117.731 Y191.552 E.07003 ; perimeter
G1 X117.902 Y191.517 E.00775 ; perimeter
G1 X117.973 Y191.374 E.00705 ; perimeter
G1 X117.973 Y186.815 E.20221 ; perimeter
G1 X119.132 Y186.815 E.0514 ; perimeter
G1 X119.132 Y189.795 E.13218 ; perimeter
G1 X119.203 Y189.938 E.00705 ; perimeter
G1 X119.31 Y189.973 E.00499 ; perimeter
G1 X120.711 Y189.973 E.06215 ; perimeter
G1 X120.711 Y191.132 E.0514 ; perimeter
G1 X119.247 Y191.143 E.06492 ; perimeter
G1 X119.132 Y191.31 E.00898 ; perimeter
G1 X119.132 Y192.889 E.07003 ; perimeter
G1 X119.168 Y193.06 E.00775 ; perimeter
G1 X119.31 Y193.131 E.00705 ; perimeter
G1 X120.711 Y193.131 E.06215 ; perimeter
G1 X120.711 Y194.29 E.0514 ; perimeter
G1 X116.394 Y194.29 E.19147 ; perimeter
G1 X116.394 Y192.921 E.06072 ; perimeter
G1 X116.359 Y192.782 E.00636 ; perimeter
G1 X116.216 Y192.711 E.00705 ; perimeter
G1 X113.236 Y192.711 E.13218 ; perimeter
G1 X113.236 Y191.552 E.0514 ; perimeter
