; generated by PrusaSlicer 2.5.1+MacOS-arm64 on 2023-10-13 at 09:33:00 UTC

; 

; external perimeters extrusion width = 0.45mm
; perimeters extrusion width = 0.45mm
; infill extrusion width = 0.45mm
; solid infill extrusion width = 0.45mm
; top infill extrusion width = 0.40mm
; first layer extrusion width = 0.42mm

M107 ; disable fan
;TYPE:Custom
G90 ; use absolute coordinates
M83 ; extruder relative mode
M104 S0 ; set extruder temp
M140 S0 ; set bed temp
M190 S0 ; wait for bed temp
M109 S0 ; wait for extruder temp
G28 ; home all
G1 Z2 F240
G1 X2 Y10 F3000
G1 Z0.28 F240
G92 E0
G1 Y190 E15 F1500 ; intro line
G1 X2.3 F5000
G92 E0
G1 Y10 E15 F1200 ; intro line
G92 E0
G21 ; set units to millimeters
G90 ; use absolute coordinates
M83 ; use relative distances for extrusion
; Filament gcode
M107 ; disable fan
;LAYER_CHANGE
;Z:0.3
;HEIGHT:0.3
;BEFORE_LAYER_CHANGE
G92 E0
;0.3


G1 E-5 F3600 ; retract
G1 Z4 F7800 ; lift Z
;AFTER_LAYER_CHANGE
;0.3
G1 X103.421 Y85.421 ; move to first perimeter point
G1 Z.3 ; restore layer Z
G1 E5 F2400 ;  ; unretract
;TYPE:Perimeter
;WIDTH:0.42
G1 F1800
G1 X201.579 Y85.421 E4.35375 ; perimeter
G1 X201.579 Y183.579 E4.35375 ; perimeter
G1 X103.421 Y183.579 E4.35375 ; perimeter
G1 X103.421 Y85.481 E4.35109 ; perimeter
G1 X103.066 Y85.066 F7800 ; move to first perimeter point
G1 F1800
G1 X201.934 Y85.066 E4.3853 ; perimeter
G1 X201.934 Y183.934 E4.3853 ; perimeter
G1 X103.066 Y183.934 E4.3853 ; perimeter
G1 X103.066 Y85.126 E4.38264 ; perimeter
G1 X102.71 Y84.71 F7800 ; move to first perimeter point
;TYPE:External perimeter
G1 F1800
G1 X202.29 Y84.71 E4.41685 ; perimeter
G1 X202.29 Y184.29 E4.41685 ; perimeter
G1 X102.71 Y184.29 E4.41685 ; perimeter
G1 X102.71 Y84.77 E4.41419 ; perimeter
G1 X103.096 Y84.814 F7800 ; move inwards before travel
G1 E-3.5 F3600 ; retract
;WIPE_START
G1 F6240
G1 X105.31 Y84.768 E-1.425 ; wipe and retract
;WIPE_END
G1 E-.075 F3600 ; retract
G1 Z4.3 F7800 ; lift Z
G1 X200.752 Y85.528 ; move to first infill point
G1 Z.3 ; restore layer Z
G1 E5 F2400 ;  ; unretract
;TYPE:Solid infill
;WIDTH:0.420587
G1 F1800
G1 X201.312 Y86.088 E.03519 ; infill
G1 X201.312 Y86.592 E.02238 ; infill
G1 X200.408 Y85.688 E.05679 ; infill
G1 X199.904 Y85.688 E.02238 ; infill
G1 X201.312 Y87.096 E.08844 ; infill
G1 X201.312 Y87.599 E.02238 ; infill
G1 X199.401 Y85.688 E.12009 ; infill
G1 X198.897 Y85.688 E.02238 ; infill
G1 X201.312 Y88.103 E.15174 ; infill
G1 X201.312 Y88.607 E.02238 ; infill
G1 X198.393 Y85.688 E.18339 ; infill
G1 X197.889 Y85.688 E.02238 ; infill
G1 X201.312 Y89.111 E.21504 ; infill
G1 X201.312 Y89.614 E.02238 ; infill
G1 X197.386 Y85.688 E.24669 ; infill
G1 X196.882 Y85.688 E.02238 ; infill
G1 X201.312 Y90.118 E.27835 ; infill
G1 X201.312 Y90.622 E.02238 ; infill
G1 X196.378 Y85.688 E.31 ; infill
G1 X195.874 Y85.688 E.02238 ; infill
G1 X201.312 Y91.126 E.34165 ; infill
G1 X201.312 Y91.629 E.02238 ; infill
G1 X195.371 Y85.688 E.3733 ; infill
G1 X194.867 Y85.688 E.02238 ; infill
G1 X201.312 Y92.133 E.40495 ; infill
G1 X201.312 Y92.637 E.02238 ; infill
G1 X194.363 Y85.688 E.4366 ; infill
G1 X193.859 Y85.688 E.02238 ; infill
G1 X201.312 Y93.141 E.46825 ; infill
G1 X201.312 Y93.644 E.02238 ; infill
G1 X193.356 Y85.688 E.4999 ; infill
G1 X192.852 Y85.688 E.02238 ; infill
G1 X201.312 Y94.148 E.53155 ; infill
G1 X201.312 Y94.652 E.02238 ; infill
G1 X192.348 Y85.688 E.5632 ; infill
G1 X191.844 Y85.688 E.02238 ; infill
G1 X201.312 Y95.156 E.59486 ; infill
G1 X201.312 Y95.659 E.02238 ; infill
G1 X191.341 Y85.688 E.62651 ; infill
G1 X190.837 Y85.688 E.02238 ; infill
G1 X201.312 Y96.163 E.65816 ; infill
G1 X201.312 Y96.667 E.02238 ; infill
G1 X190.333 Y85.688 E.68981 ; infill
G1 X189.829 Y85.688 E.02238 ; infill
G1 X201.312 Y97.171 E.72146 ; infill
G1 X201.312 Y97.674 E.02238 ; infill
G1 X189.326 Y85.688 E.75311 ; infill
G1 X188.822 Y85.688 E.02238 ; infill
G1 X201.312 Y98.178 E.78476 ; infill
G1 X201.312 Y98.682 E.02238 ; infill
G1 X188.318 Y85.688 E.81641 ; infill
G1 X187.814 Y85.688 E.02238 ; infill
G1 X201.312 Y99.186 E.84806 ; infill
G1 X201.312 Y99.689 E.02238 ; infill
G1 X187.311 Y85.688 E.87971 ; infill
G1 X186.807 Y85.688 E.02238 ; infill
G1 X201.312 Y100.193 E.91137 ; infill
G1 X201.312 Y100.697 E.02238 ; infill
G1 X186.303 Y85.688 E.94302 ; infill
G1 X185.799 Y85.688 E.02238 ; infill
G1 X201.312 Y101.201 E.97467 ; infill
G1 X201.312 Y101.704 E.02238 ; infill
G1 X185.296 Y85.688 E1.00632 ; infill
G1 X184.792 Y85.688 E.02238 ; infill
G1 X201.312 Y102.208 E1.03797 ; infill
G1 X201.312 Y102.712 E.02238 ; infill
G1 X184.288 Y85.688 E1.06962 ; infill
G1 X183.784 Y85.688 E.02238 ; infill
G1 X201.312 Y103.216 E1.10127 ; infill
G1 X201.312 Y103.719 E.02238 ; infill
G1 X183.281 Y85.688 E1.13292 ; infill
G1 X182.777 Y85.688 E.02238 ; infill
G1 X201.312 Y104.223 E1.16457 ; infill
G1 X201.312 Y104.727 E.02238 ; infill
G1 X182.273 Y85.688 E1.19623 ; infill
G1 X181.769 Y85.688 E.02238 ; infill
G1 X201.312 Y105.231 E1.22788 ; infill
G1 X201.312 Y105.734 E.02238 ; infill
G1 X181.266 Y85.688 E1.25953 ; infill
G1 X180.762 Y85.688 E.02238 ; infill
G1 X201.312 Y106.238 E1.29118 ; infill
G1 X201.312 Y106.742 E.02238 ; infill
G1 X180.258 Y85.688 E1.32283 ; infill
G1 X179.754 Y85.688 E.02238 ; infill
G1 X201.312 Y107.246 E1.35448 ; infill
G1 X201.312 Y107.749 E.02238 ; infill
G1 X179.251 Y85.688 E1.38613 ; infill
G1 X178.747 Y85.688 E.02238 ; infill
G1 X201.312 Y108.253 E1.41778 ; infill
G1 X201.312 Y108.757 E.02238 ; infill
G1 X178.243 Y85.688 E1.44943 ; infill
G1 X177.739 Y85.688 E.02238 ; infill
G1 X201.312 Y109.261 E1.48108 ; infill
G1 X201.312 Y109.764 E.02238 ; infill
G1 X177.236 Y85.688 E1.51274 ; infill
G1 X176.732 Y85.688 E.02238 ; infill
G1 X201.312 Y110.268 E1.54439 ; infill
G1 X201.312 Y110.772 E.02238 ; infill
G1 X176.228 Y85.688 E1.57604 ; infill
G1 X175.724 Y85.688 E.02238 ; infill
G1 X201.312 Y111.276 E1.60769 ; infill
G1 X201.312 Y111.779 E.02238 ; infill
G1 X175.221 Y85.688 E1.63934 ; infill
G1 X174.717 Y85.688 E.02238 ; infill
G1 X201.312 Y112.283 E1.67099 ; infill
G1 X201.312 Y112.787 E.02238 ; infill
G1 X174.213 Y85.688 E1.70264 ; infill
G1 X173.709 Y85.688 E.02238 ; infill
G1 X201.312 Y113.291 E1.73429 ; infill
G1 X201.312 Y113.794 E.02238 ; infill
G1 X173.206 Y85.688 E1.76594 ; infill
G1 X172.702 Y85.688 E.02238 ; infill
G1 X201.312 Y114.298 E1.79759 ; infill
G1 X201.312 Y114.802 E.02238 ; infill
G1 X172.198 Y85.688 E1.82925 ; infill
G1 X171.694 Y85.688 E.02238 ; infill
G1 X201.312 Y115.306 E1.8609 ; infill
G1 X201.312 Y115.809 E.02238 ; infill
G1 X171.191 Y85.688 E1.89255 ; infill
G1 X170.687 Y85.688 E.02238 ; infill
G1 X201.312 Y116.313 E1.9242 ; infill
G1 X201.312 Y116.817 E.02238 ; infill
G1 X170.183 Y85.688 E1.95585 ; infill
G1 X169.679 Y85.688 E.02238 ; infill
G1 X201.312 Y117.321 E1.9875 ; infill
G1 X201.312 Y117.824 E.02238 ; infill
G1 X169.176 Y85.688 E2.01915 ; infill
G1 X168.672 Y85.688 E.02238 ; infill
G1 X201.312 Y118.328 E2.0508 ; infill
G1 X201.312 Y118.832 E.02238 ; infill
G1 X168.168 Y85.688 E2.08245 ; infill
G1 X167.664 Y85.688 E.02238 ; infill
G1 X201.312 Y119.336 E2.1141 ; infill
G1 X201.312 Y119.839 E.02238 ; infill
G1 X167.161 Y85.688 E2.14576 ; infill
G1 X166.657 Y85.688 E.02238 ; infill
G1 X201.312 Y120.343 E2.17741 ; infill
G1 X201.312 Y120.847 E.02238 ; infill
G1 X166.153 Y85.688 E2.20906 ; infill
G1 X165.649 Y85.688 E.02238 ; infill
G1 X201.312 Y121.351 E2.24071 ; infill
G1 X201.312 Y121.854 E.02238 ; infill
G1 X165.146 Y85.688 E2.27236 ; infill
G1 X164.642 Y85.688 E.02238 ; infill
G1 X201.312 Y122.358 E2.30401 ; infill
G1 X201.312 Y122.862 E.02238 ; infill
G1 X164.138 Y85.688 E2.33566 ; infill
G1 X163.634 Y85.688 E.02238 ; infill
G1 X201.312 Y123.366 E2.36731 ; infill
G1 X201.312 Y123.869 E.02238 ; infill
G1 X163.131 Y85.688 E2.39896 ; infill
G1 X162.627 Y85.688 E.02238 ; infill
G1 X201.312 Y124.373 E2.43062 ; infill
G1 X201.312 Y124.877 E.02238 ; infill
G1 X162.123 Y85.688 E2.46227 ; infill
G1 X161.619 Y85.688 E.02238 ; infill
G1 X201.312 Y125.381 E2.49392 ; infill
G1 X201.312 Y125.884 E.02238 ; infill
G1 X161.116 Y85.688 E2.52557 ; infill
G1 X160.612 Y85.688 E.02238 ; infill
G1 X201.312 Y126.388 E2.55722 ; infill
G1 X201.312 Y126.892 E.02238 ; infill
G1 X160.108 Y85.688 E2.58887 ; infill
G1 X159.604 Y85.688 E.02238 ; infill
G1 X201.312 Y127.396 E2.62052 ; infill
G1 X201.312 Y127.899 E.02238 ; infill
G1 X159.101 Y85.688 E2.65217 ; infill
G1 X158.597 Y85.688 E.02238 ; infill
G1 X201.312 Y128.403 E2.68382 ; infill
G1 X201.312 Y128.907 E.02238 ; infill
G1 X158.093 Y85.688 E2.71547 ; infill
G1 X157.589 Y85.688 E.02238 ; infill
G1 X201.312 Y129.411 E2.74713 ; infill
G1 X201.312 Y129.914 E.02238 ; infill
G1 X157.086 Y85.688 E2.77878 ; infill
G1 X156.582 Y85.688 E.02238 ; infill
G1 X201.312 Y130.418 E2.81043 ; infill
G1 X201.312 Y130.922 E.02238 ; infill
G1 X156.078 Y85.688 E2.84208 ; infill
G1 X155.574 Y85.688 E.02238 ; infill
G1 X201.312 Y131.426 E2.87373 ; infill
G1 X201.312 Y131.929 E.02238 ; infill
G1 X155.071 Y85.688 E2.90538 ; infill
G1 X154.567 Y85.688 E.02238 ; infill
G1 X201.312 Y132.433 E2.93703 ; infill
G1 X201.312 Y132.937 E.02238 ; infill
G1 X154.063 Y85.688 E2.96868 ; infill
G1 X153.559 Y85.688 E.02238 ; infill
G1 X201.312 Y133.441 E3.00033 ; infill
G1 X201.312 Y133.944 E.02238 ; infill
G1 X153.056 Y85.688 E3.03198 ; infill
G1 X152.552 Y85.688 E.02238 ; infill
G1 X201.312 Y134.448 E3.06364 ; infill
G1 X201.312 Y134.952 E.02238 ; infill
G1 X152.048 Y85.688 E3.09529 ; infill
G1 X151.544 Y85.688 E.02238 ; infill
G1 X201.312 Y135.456 E3.12694 ; infill
G1 X201.312 Y135.959 E.02238 ; infill
G1 X151.041 Y85.688 E3.15859 ; infill
G1 X150.537 Y85.688 E.02238 ; infill
G1 X201.312 Y136.463 E3.19024 ; infill
G1 X201.312 Y136.967 E.02238 ; infill
G1 X150.033 Y85.688 E3.22189 ; infill
G1 X149.529 Y85.688 E.02238 ; infill
G1 X201.312 Y137.471 E3.25354 ; infill
G1 X201.312 Y137.974 E.02238 ; infill
G1 X149.026 Y85.688 E3.28519 ; infill
G1 X148.522 Y85.688 E.02238 ; infill
G1 X201.312 Y138.478 E3.31684 ; infill
G1 X201.312 Y138.982 E.02238 ; infill
G1 X148.018 Y85.688 E3.34849 ; infill
G1 X147.514 Y85.688 E.02238 ; infill
G1 X201.312 Y139.486 E3.38015 ; infill
G1 X201.312 Y139.989 E.02238 ; infill
G1 X147.011 Y85.688 E3.4118 ; infill
G1 X146.507 Y85.688 E.02238 ; infill
G1 X201.312 Y140.493 E3.44345 ; infill
G1 X201.312 Y140.997 E.02238 ; infill
G1 X146.003 Y85.688 E3.4751 ; infill
G1 X145.499 Y85.688 E.02238 ; infill
G1 X201.312 Y141.501 E3.50675 ; infill
G1 X201.312 Y142.004 E.02238 ; infill
G1 X144.996 Y85.688 E3.5384 ; infill
G1 X144.492 Y85.688 E.02238 ; infill
G1 X201.312 Y142.508 E3.57005 ; infill
G1 X201.312 Y143.012 E.02238 ; infill
G1 X143.988 Y85.688 E3.6017 ; infill
G1 X143.484 Y85.688 E.02238 ; infill
G1 X201.312 Y143.516 E3.63335 ; infill
G1 X201.312 Y144.019 E.02238 ; infill
G1 X142.981 Y85.688 E3.665 ; infill
G1 X142.477 Y85.688 E.02238 ; infill
G1 X201.312 Y144.523 E3.69666 ; infill
G1 X201.312 Y145.027 E.02238 ; infill
G1 X141.973 Y85.688 E3.72831 ; infill
G1 X141.469 Y85.688 E.02238 ; infill
G1 X201.312 Y145.531 E3.75996 ; infill
G1 X201.312 Y146.034 E.02238 ; infill
G1 X140.966 Y85.688 E3.79161 ; infill
G1 X140.462 Y85.688 E.02238 ; infill
G1 X201.312 Y146.538 E3.82326 ; infill
G1 X201.312 Y147.042 E.02238 ; infill
G1 X139.958 Y85.688 E3.85491 ; infill
G1 X139.454 Y85.688 E.02238 ; infill
G1 X201.312 Y147.546 E3.88656 ; infill
G1 X201.312 Y148.049 E.02238 ; infill
G1 X138.951 Y85.688 E3.91821 ; infill
G1 X138.447 Y85.688 E.02238 ; infill
G1 X201.312 Y148.553 E3.94986 ; infill
G1 X201.312 Y149.057 E.02238 ; infill
G1 X137.943 Y85.688 E3.98152 ; infill
G1 X137.439 Y85.688 E.02238 ; infill
G1 X201.312 Y149.561 E4.01317 ; infill
G1 X201.312 Y150.064 E.02238 ; infill
G1 X136.936 Y85.688 E4.04482 ; infill
G1 X136.432 Y85.688 E.02238 ; infill
G1 X201.312 Y150.568 E4.07647 ; infill
G1 X201.312 Y151.072 E.02238 ; infill
G1 X135.928 Y85.688 E4.10812 ; infill
G1 X135.424 Y85.688 E.02238 ; infill
G1 X201.312 Y151.576 E4.13977 ; infill
G1 X201.312 Y152.079 E.02238 ; infill
G1 X134.921 Y85.688 E4.17142 ; infill
G1 X134.417 Y85.688 E.02238 ; infill
G1 X201.312 Y152.583 E4.20307 ; infill
G1 X201.312 Y153.087 E.02238 ; infill
G1 X133.913 Y85.688 E4.23472 ; infill
G1 X133.409 Y85.688 E.02238 ; infill
G1 X201.312 Y153.591 E4.26637 ; infill
G1 X201.312 Y154.094 E.02238 ; infill
G1 X132.906 Y85.688 E4.29803 ; infill
G1 X132.402 Y85.688 E.02238 ; infill
G1 X201.312 Y154.598 E4.32968 ; infill
G1 X201.312 Y155.102 E.02238 ; infill
G1 X131.898 Y85.688 E4.36133 ; infill
G1 X131.394 Y85.688 E.02238 ; infill
G1 X201.312 Y155.606 E4.39298 ; infill
G1 X201.312 Y156.109 E.02238 ; infill
G1 X130.891 Y85.688 E4.42463 ; infill
G1 X130.387 Y85.688 E.02238 ; infill
G1 X201.312 Y156.613 E4.45628 ; infill
G1 X201.312 Y157.117 E.02238 ; infill
G1 X129.883 Y85.688 E4.48793 ; infill
G1 X129.379 Y85.688 E.02238 ; infill
G1 X201.312 Y157.621 E4.51958 ; infill
G1 X201.312 Y158.124 E.02238 ; infill
G1 X128.876 Y85.688 E4.55123 ; infill
G1 X128.372 Y85.688 E.02238 ; infill
G1 X201.312 Y158.628 E4.58288 ; infill
G1 X201.312 Y159.132 E.02238 ; infill
G1 X127.868 Y85.688 E4.61454 ; infill
G1 X127.364 Y85.688 E.02238 ; infill
G1 X201.312 Y159.636 E4.64619 ; infill
G1 X201.312 Y160.139 E.02238 ; infill
G1 X126.861 Y85.688 E4.67784 ; infill
G1 X126.357 Y85.688 E.02238 ; infill
G1 X201.312 Y160.643 E4.70949 ; infill
G1 X201.312 Y161.147 E.02238 ; infill
G1 X125.853 Y85.688 E4.74114 ; infill
G1 X125.349 Y85.688 E.02238 ; infill
G1 X201.312 Y161.651 E4.77279 ; infill
G1 X201.312 Y162.154 E.02238 ; infill
G1 X124.846 Y85.688 E4.80444 ; infill
G1 X124.342 Y85.688 E.02238 ; infill
G1 X201.312 Y162.658 E4.83609 ; infill
G1 X201.312 Y163.162 E.02238 ; infill
G1 X123.838 Y85.688 E4.86774 ; infill
G1 X123.334 Y85.688 E.02238 ; infill
G1 X201.312 Y163.666 E4.89939 ; infill
G1 X201.312 Y164.169 E.02238 ; infill
G1 X122.831 Y85.688 E4.93105 ; infill
G1 X122.327 Y85.688 E.02238 ; infill
G1 X201.312 Y164.673 E4.9627 ; infill
G1 X201.312 Y165.177 E.02238 ; infill
G1 X121.823 Y85.688 E4.99435 ; infill
G1 X121.319 Y85.688 E.02238 ; infill
G1 X201.312 Y165.681 E5.026 ; infill
G1 X201.312 Y166.184 E.02238 ; infill
G1 X120.816 Y85.688 E5.05765 ; infill
G1 X120.312 Y85.688 E.02238 ; infill
G1 X201.312 Y166.688 E5.0893 ; infill
G1 X201.312 Y167.192 E.02238 ; infill
G1 X119.808 Y85.688 E5.12095 ; infill
G1 X119.304 Y85.688 E.02238 ; infill
G1 X201.312 Y167.696 E5.1526 ; infill
G1 X201.312 Y168.199 E.02238 ; infill
G1 X118.801 Y85.688 E5.18425 ; infill
G1 X118.297 Y85.688 E.02238 ; infill
G1 X201.312 Y168.703 E5.21591 ; infill
G1 X201.312 Y169.207 E.02238 ; infill
G1 X117.793 Y85.688 E5.24756 ; infill
G1 X117.289 Y85.688 E.02238 ; infill
G1 X201.312 Y169.711 E5.27921 ; infill
G1 X201.312 Y170.214 E.02238 ; infill
G1 X116.786 Y85.688 E5.31086 ; infill
G1 X116.282 Y85.688 E.02238 ; infill
G1 X201.312 Y170.718 E5.34251 ; infill
G1 X201.312 Y171.222 E.02238 ; infill
G1 X115.778 Y85.688 E5.37416 ; infill
G1 X115.274 Y85.688 E.02238 ; infill
G1 X201.312 Y171.726 E5.40581 ; infill
G1 X201.312 Y172.23 E.02238 ; infill
G1 X114.77 Y85.688 E5.43746 ; infill
G1 X114.267 Y85.688 E.02238 ; infill
G1 X201.312 Y172.733 E5.46911 ; infill
G1 X201.312 Y173.237 E.02238 ; infill
G1 X113.763 Y85.688 E5.50076 ; infill
G1 X113.259 Y85.688 E.02238 ; infill
G1 X201.312 Y173.741 E5.53242 ; infill
G1 X201.312 Y174.245 E.02238 ; infill
G1 X112.755 Y85.688 E5.56407 ; infill
G1 X112.252 Y85.688 E.02238 ; infill
G1 X201.312 Y174.748 E5.59572 ; infill
G1 X201.312 Y175.252 E.02238 ; infill
G1 X111.748 Y85.688 E5.62737 ; infill
G1 X111.244 Y85.688 E.02238 ; infill
G1 X201.312 Y175.756 E5.65902 ; infill
G1 X201.312 Y176.26 E.02238 ; infill
G1 X110.74 Y85.688 E5.69067 ; infill
G1 X110.237 Y85.688 E.02238 ; infill
G1 X201.312 Y176.763 E5.72232 ; infill
G1 X201.312 Y177.267 E.02238 ; infill
G1 X109.733 Y85.688 E5.75397 ; infill
G1 X109.229 Y85.688 E.02238 ; infill
G1 X201.312 Y177.771 E5.78562 ; infill
G1 X201.312 Y178.275 E.02238 ; infill
G1 X108.725 Y85.688 E5.81727 ; infill
G1 X108.222 Y85.688 E.02238 ; infill
